(G-code generated by FlatCAM Evo vUnstable - Version Date: 2023/6/31)

(Name: func_amp-B_Cu.gbr_ncc_cnc)
(Type: G-code from Geometry)
(Units: MM)

(Created on Friday, 20 October 2023 at 08:30)

(This preprocessor is the default preprocessor.)
(It is made to work with MACH3 compatible motion controllers.)

(TOOL DIAMETER: 1.0 mm)
(Feedrate_XY: 120.0 mm/min)
(Feedrate_Z: 60.0 mm/min)
(Feedrate rapids 1500.0 mm/min)

(Z_Cut: -0.1 mm)
(DepthPerCut: 0.025 mm <=>4 passes)
(Z_Move: 2.0 mm)
(Z Start: None mm)
(Z End: 15.0 mm)
(X,Y End: 0.0000, 0.0000 mm)
(Steps per circle: 16)
(Preprocessor Geometry: default)

(X range: -131.7477 ...   -0.2523  mm)
(Y range: -131.7477 ...   -0.2523  mm)

(Spindle Speed: 13000.0 RPM)
G21
G90
G94

G01 F120.00
G00 Z2.0000

M03 S13000.0
G4 P1.0
G01 F120.00
G00 X-0.8661 Y-11.1703
G01 F60.00
G01 Z-0.0250
G01 F120.00
G01 X-0.7952 Y-11.2123
G01 X-0.6898 Y-11.3065
G01 X-0.8661 Y-11.1703
G01 X-0.6032 Y-11.4271
G00 X-0.6032 Y-11.4271
G01 F60.00
G01 Z-0.0500
G01 F120.00
G01 X-0.8661 Y-11.1703
G01 X-0.6898 Y-11.3065
G01 X-0.7952 Y-11.2123
G01 X-0.8661 Y-11.1703
G00 X-0.8661 Y-11.1703
G01 F60.00
G01 Z-0.0750
G01 F120.00
G01 X-0.7952 Y-11.2123
G01 X-0.6898 Y-11.3065
G01 X-0.8661 Y-11.1703
G01 X-0.6032 Y-11.4271
G00 X-0.6032 Y-11.4271
G01 F60.00
G01 Z-0.1000
G01 F120.00
G01 X-0.8661 Y-11.1703
G01 X-0.6898 Y-11.3065
G01 X-0.7952 Y-11.2123
G01 X-0.8661 Y-11.1703
G00 Z2.0000
G00 X-2.6752 Y-14.9449
G01 F60.00
G01 Z-0.0250
G01 F120.00
G01 X-2.5903 Y-14.7393
G01 X-2.5540 Y-14.5990
G01 X-2.5235 Y-14.3111
G01 X-2.5540 Y-14.0010
G01 X-2.5903 Y-13.8607
G01 X-2.6763 Y-13.6562
G01 X-2.6313 Y-13.6113
G01 X-2.5327 Y-13.8474
G01 X-2.4817 Y-14.0711
G01 X-2.4645 Y-14.3000
G01 X-2.4817 Y-14.5289
G01 X-2.5327 Y-14.7526
G01 X-2.6313 Y-14.9887
G01 X-2.6752 Y-14.9449
G00 X-2.6752 Y-14.9449
G01 F60.00
G01 Z-0.0500
G01 F120.00
G01 X-2.6313 Y-14.9887
G01 X-2.5327 Y-14.7526
G01 X-2.4817 Y-14.5289
G01 X-2.4645 Y-14.3000
G01 X-2.4817 Y-14.0711
G01 X-2.5327 Y-13.8474
G01 X-2.6313 Y-13.6113
G01 X-2.6763 Y-13.6562
G01 X-2.5903 Y-13.8607
G01 X-2.5540 Y-14.0010
G01 X-2.5235 Y-14.3111
G01 X-2.5540 Y-14.5990
G01 X-2.5903 Y-14.7393
G01 X-2.6752 Y-14.9449
G00 X-2.6752 Y-14.9449
G01 F60.00
G01 Z-0.0750
G01 F120.00
G01 X-2.5903 Y-14.7393
G01 X-2.5540 Y-14.5990
G01 X-2.5235 Y-14.3111
G01 X-2.5540 Y-14.0010
G01 X-2.5903 Y-13.8607
G01 X-2.6763 Y-13.6562
G01 X-2.6313 Y-13.6113
G01 X-2.5327 Y-13.8474
G01 X-2.4817 Y-14.0711
G01 X-2.4645 Y-14.3000
G01 X-2.4817 Y-14.5289
G01 X-2.5327 Y-14.7526
G01 X-2.6313 Y-14.9887
G01 X-2.6752 Y-14.9449
G00 X-2.6752 Y-14.9449
G01 F60.00
G01 Z-0.1000
G01 F120.00
G01 X-2.6313 Y-14.9887
G01 X-2.5327 Y-14.7526
G01 X-2.4817 Y-14.5289
G01 X-2.4645 Y-14.3000
G01 X-2.4817 Y-14.0711
G01 X-2.5327 Y-13.8474
G01 X-2.6313 Y-13.6113
G01 X-2.6763 Y-13.6562
G01 X-2.5903 Y-13.8607
G01 X-2.5540 Y-14.0010
G01 X-2.5235 Y-14.3111
G01 X-2.5540 Y-14.5990
G01 X-2.5903 Y-14.7393
G01 X-2.6752 Y-14.9449
G00 Z2.0000
G00 X-4.6449 Y-15.6248
G01 F60.00
G01 Z-0.0250
G01 F120.00
G01 X-4.4393 Y-15.7097
G01 X-4.2990 Y-15.7460
G01 X-4.0111 Y-15.7765
G01 X-3.7010 Y-15.7460
G01 X-3.5607 Y-15.7097
G01 X-3.3562 Y-15.6237
G01 X-3.3118 Y-15.6681
G01 X-3.4390 Y-15.7293
G01 X-3.6583 Y-15.7970
G01 X-3.8853 Y-15.8312
G01 X-4.1147 Y-15.8312
G01 X-4.3417 Y-15.7970
G01 X-4.5610 Y-15.7293
G01 X-4.6882 Y-15.6681
G01 X-4.6449 Y-15.6248
G00 X-4.6449 Y-15.6248
G01 F60.00
G01 Z-0.0500
G01 F120.00
G01 X-4.6882 Y-15.6681
G01 X-4.5610 Y-15.7293
G01 X-4.3417 Y-15.7970
G01 X-4.1147 Y-15.8312
G01 X-3.8853 Y-15.8312
G01 X-3.6583 Y-15.7970
G01 X-3.4390 Y-15.7293
G01 X-3.3118 Y-15.6681
G01 X-3.3562 Y-15.6237
G01 X-3.5607 Y-15.7097
G01 X-3.7010 Y-15.7460
G01 X-4.0111 Y-15.7765
G01 X-4.2990 Y-15.7460
G01 X-4.4393 Y-15.7097
G01 X-4.6449 Y-15.6248
G00 X-4.6449 Y-15.6248
G01 F60.00
G01 Z-0.0750
G01 F120.00
G01 X-4.4393 Y-15.7097
G01 X-4.2990 Y-15.7460
G01 X-4.0111 Y-15.7765
G01 X-3.7010 Y-15.7460
G01 X-3.5607 Y-15.7097
G01 X-3.3562 Y-15.6237
G01 X-3.3118 Y-15.6681
G01 X-3.4390 Y-15.7293
G01 X-3.6583 Y-15.7970
G01 X-3.8853 Y-15.8312
G01 X-4.1147 Y-15.8312
G01 X-4.3417 Y-15.7970
G01 X-4.5610 Y-15.7293
G01 X-4.6882 Y-15.6681
G01 X-4.6449 Y-15.6248
G00 X-4.6449 Y-15.6248
G01 F60.00
G01 Z-0.1000
G01 F120.00
G01 X-4.6882 Y-15.6681
G01 X-4.5610 Y-15.7293
G01 X-4.3417 Y-15.7970
G01 X-4.1147 Y-15.8312
G01 X-3.8853 Y-15.8312
G01 X-3.6583 Y-15.7970
G01 X-3.4390 Y-15.7293
G01 X-3.3118 Y-15.6681
G01 X-3.3562 Y-15.6237
G01 X-3.5607 Y-15.7097
G01 X-3.7010 Y-15.7460
G01 X-4.0111 Y-15.7765
G01 X-4.2990 Y-15.7460
G01 X-4.4393 Y-15.7097
G01 X-4.6449 Y-15.6248
G00 Z2.0000
G00 X-5.4673 Y-13.8474
G01 F60.00
G01 Z-0.0250
G01 F120.00
G01 X-5.3687 Y-13.6113
G01 X-5.3237 Y-13.6562
G01 X-5.4097 Y-13.8607
G01 X-5.4460 Y-14.0010
G01 X-5.4768 Y-14.3000
G01 X-5.4460 Y-14.5990
G01 X-5.4097 Y-14.7393
G01 X-5.3237 Y-14.9438
G01 X-5.3687 Y-14.9887
G01 X-5.4673 Y-14.7526
G01 X-5.5183 Y-14.5289
G01 X-5.5355 Y-14.3000
G01 X-5.5183 Y-14.0711
G01 X-5.4673 Y-13.8474
G00 X-5.4673 Y-13.8474
G01 F60.00
G01 Z-0.0500
G01 F120.00
G01 X-5.5183 Y-14.0711
G01 X-5.5355 Y-14.3000
G01 X-5.5183 Y-14.5289
G01 X-5.4673 Y-14.7526
G01 X-5.3687 Y-14.9887
G01 X-5.3237 Y-14.9438
G01 X-5.4097 Y-14.7393
G01 X-5.4460 Y-14.5990
G01 X-5.4768 Y-14.3000
G01 X-5.4460 Y-14.0010
G01 X-5.4097 Y-13.8607
G01 X-5.3237 Y-13.6562
G01 X-5.3687 Y-13.6113
G01 X-5.4673 Y-13.8474
G00 X-5.4673 Y-13.8474
G01 F60.00
G01 Z-0.0750
G01 F120.00
G01 X-5.3687 Y-13.6113
G01 X-5.3237 Y-13.6562
G01 X-5.4097 Y-13.8607
G01 X-5.4460 Y-14.0010
G01 X-5.4768 Y-14.3000
G01 X-5.4460 Y-14.5990
G01 X-5.4097 Y-14.7393
G01 X-5.3237 Y-14.9438
G01 X-5.3687 Y-14.9887
G01 X-5.4673 Y-14.7526
G01 X-5.5183 Y-14.5289
G01 X-5.5355 Y-14.3000
G01 X-5.5183 Y-14.0711
G01 X-5.4673 Y-13.8474
G00 X-5.4673 Y-13.8474
G01 F60.00
G01 Z-0.1000
G01 F120.00
G01 X-5.5183 Y-14.0711
G01 X-5.5355 Y-14.3000
G01 X-5.5183 Y-14.5289
G01 X-5.4673 Y-14.7526
G01 X-5.3687 Y-14.9887
G01 X-5.3237 Y-14.9438
G01 X-5.4097 Y-14.7393
G01 X-5.4460 Y-14.5990
G01 X-5.4768 Y-14.3000
G01 X-5.4460 Y-14.0010
G01 X-5.4097 Y-13.8607
G01 X-5.3237 Y-13.6562
G01 X-5.3687 Y-13.6113
G01 X-5.4673 Y-13.8474
G00 Z2.0000
G00 X-4.6882 Y-12.9319
G01 F60.00
G01 Z-0.0250
G01 F120.00
G01 X-4.5610 Y-12.8707
G01 X-4.3417 Y-12.8030
G01 X-4.1147 Y-12.7688
G01 X-3.8853 Y-12.7688
G01 X-3.6583 Y-12.8030
G01 X-3.4390 Y-12.8707
G01 X-3.3118 Y-12.9319
G01 X-3.3562 Y-12.9763
G01 X-3.5607 Y-12.8903
G01 X-3.7010 Y-12.8540
G01 X-4.0000 Y-12.8232
G01 X-4.2990 Y-12.8540
G01 X-4.4393 Y-12.8903
G01 X-4.6449 Y-12.9752
G01 X-4.6882 Y-12.9319
G00 X-4.6882 Y-12.9319
G01 F60.00
G01 Z-0.0500
G01 F120.00
G01 X-4.6449 Y-12.9752
G01 X-4.4393 Y-12.8903
G01 X-4.2990 Y-12.8540
G01 X-4.0000 Y-12.8232
G01 X-3.7010 Y-12.8540
G01 X-3.5607 Y-12.8903
G01 X-3.3562 Y-12.9763
G01 X-3.3118 Y-12.9319
G01 X-3.4390 Y-12.8707
G01 X-3.6583 Y-12.8030
G01 X-3.8853 Y-12.7688
G01 X-4.1147 Y-12.7688
G01 X-4.3417 Y-12.8030
G01 X-4.5610 Y-12.8707
G01 X-4.6882 Y-12.9319
G00 X-4.6882 Y-12.9319
G01 F60.00
G01 Z-0.0750
G01 F120.00
G01 X-4.5610 Y-12.8707
G01 X-4.3417 Y-12.8030
G01 X-4.1147 Y-12.7688
G01 X-3.8853 Y-12.7688
G01 X-3.6583 Y-12.8030
G01 X-3.4390 Y-12.8707
G01 X-3.3118 Y-12.9319
G01 X-3.3562 Y-12.9763
G01 X-3.5607 Y-12.8903
G01 X-3.7010 Y-12.8540
G01 X-4.0000 Y-12.8232
G01 X-4.2990 Y-12.8540
G01 X-4.4393 Y-12.8903
G01 X-4.6449 Y-12.9752
G01 X-4.6882 Y-12.9319
G00 X-4.6882 Y-12.9319
G01 F60.00
G01 Z-0.1000
G01 F120.00
G01 X-4.6449 Y-12.9752
G01 X-4.4393 Y-12.8903
G01 X-4.2990 Y-12.8540
G01 X-4.0000 Y-12.8232
G01 X-3.7010 Y-12.8540
G01 X-3.5607 Y-12.8903
G01 X-3.3562 Y-12.9763
G01 X-3.3118 Y-12.9319
G01 X-3.4390 Y-12.8707
G01 X-3.6583 Y-12.8030
G01 X-3.8853 Y-12.7688
G01 X-4.1147 Y-12.7688
G01 X-4.3417 Y-12.8030
G01 X-4.5610 Y-12.8707
G01 X-4.6882 Y-12.9319
G00 Z2.0000
G00 X-4.6882 Y-18.0119
G01 F60.00
G01 Z-0.0250
G01 F120.00
G01 X-4.5610 Y-17.9507
G01 X-4.3417 Y-17.8830
G01 X-4.1147 Y-17.8488
G01 X-3.8853 Y-17.8488
G01 X-3.6583 Y-17.8830
G01 X-3.4390 Y-17.9507
G01 X-3.3118 Y-18.0119
G01 X-3.3562 Y-18.0563
G01 X-3.5607 Y-17.9703
G01 X-3.7010 Y-17.9340
G01 X-4.0000 Y-17.9032
G01 X-4.2990 Y-17.9340
G01 X-4.4393 Y-17.9703
G01 X-4.6449 Y-18.0552
G01 X-4.6882 Y-18.0119
G00 X-4.6882 Y-18.0119
G01 F60.00
G01 Z-0.0500
G01 F120.00
G01 X-4.6449 Y-18.0552
G01 X-4.4393 Y-17.9703
G01 X-4.2990 Y-17.9340
G01 X-4.0000 Y-17.9032
G01 X-3.7010 Y-17.9340
G01 X-3.5607 Y-17.9703
G01 X-3.3562 Y-18.0563
G01 X-3.3118 Y-18.0119
G01 X-3.4390 Y-17.9507
G01 X-3.6583 Y-17.8830
G01 X-3.8853 Y-17.8488
G01 X-4.1147 Y-17.8488
G01 X-4.3417 Y-17.8830
G01 X-4.5610 Y-17.9507
G01 X-4.6882 Y-18.0119
G00 X-4.6882 Y-18.0119
G01 F60.00
G01 Z-0.0750
G01 F120.00
G01 X-4.5610 Y-17.9507
G01 X-4.3417 Y-17.8830
G01 X-4.1147 Y-17.8488
G01 X-3.8853 Y-17.8488
G01 X-3.6583 Y-17.8830
G01 X-3.4390 Y-17.9507
G01 X-3.3118 Y-18.0119
G01 X-3.3562 Y-18.0563
G01 X-3.5607 Y-17.9703
G01 X-3.7010 Y-17.9340
G01 X-4.0000 Y-17.9032
G01 X-4.2990 Y-17.9340
G01 X-4.4393 Y-17.9703
G01 X-4.6449 Y-18.0552
G01 X-4.6882 Y-18.0119
G00 X-4.6882 Y-18.0119
G01 F60.00
G01 Z-0.1000
G01 F120.00
G01 X-4.6449 Y-18.0552
G01 X-4.4393 Y-17.9703
G01 X-4.2990 Y-17.9340
G01 X-4.0000 Y-17.9032
G01 X-3.7010 Y-17.9340
G01 X-3.5607 Y-17.9703
G01 X-3.3562 Y-18.0563
G01 X-3.3118 Y-18.0119
G01 X-3.4390 Y-17.9507
G01 X-3.6583 Y-17.8830
G01 X-3.8853 Y-17.8488
G01 X-4.1147 Y-17.8488
G01 X-4.3417 Y-17.8830
G01 X-4.5610 Y-17.9507
G01 X-4.6882 Y-18.0119
G00 Z2.0000
G00 X-5.4673 Y-19.8326
G01 F60.00
G01 Z-0.0250
G01 F120.00
G01 X-5.5183 Y-19.6089
G01 X-5.5355 Y-19.3800
G01 X-5.5183 Y-19.1511
G01 X-5.4673 Y-18.9274
G01 X-5.3687 Y-18.6913
G01 X-5.3237 Y-18.7362
G01 X-5.4097 Y-18.9407
G01 X-5.4460 Y-19.0810
G01 X-5.4768 Y-19.3800
G01 X-5.4460 Y-19.6790
G01 X-5.4097 Y-19.8193
G01 X-5.3237 Y-20.0238
G01 X-5.3687 Y-20.0687
G01 X-5.4673 Y-19.8326
G00 X-5.4673 Y-19.8326
G01 F60.00
G01 Z-0.0500
G01 F120.00
G01 X-5.3687 Y-20.0687
G01 X-5.3237 Y-20.0238
G01 X-5.4097 Y-19.8193
G01 X-5.4460 Y-19.6790
G01 X-5.4768 Y-19.3800
G01 X-5.4460 Y-19.0810
G01 X-5.4097 Y-18.9407
G01 X-5.3237 Y-18.7362
G01 X-5.3687 Y-18.6913
G01 X-5.4673 Y-18.9274
G01 X-5.5183 Y-19.1511
G01 X-5.5355 Y-19.3800
G01 X-5.5183 Y-19.6089
G01 X-5.4673 Y-19.8326
G00 X-5.4673 Y-19.8326
G01 F60.00
G01 Z-0.0750
G01 F120.00
G01 X-5.5183 Y-19.6089
G01 X-5.5355 Y-19.3800
G01 X-5.5183 Y-19.1511
G01 X-5.4673 Y-18.9274
G01 X-5.3687 Y-18.6913
G01 X-5.3237 Y-18.7362
G01 X-5.4097 Y-18.9407
G01 X-5.4460 Y-19.0810
G01 X-5.4768 Y-19.3800
G01 X-5.4460 Y-19.6790
G01 X-5.4097 Y-19.8193
G01 X-5.3237 Y-20.0238
G01 X-5.3687 Y-20.0687
G01 X-5.4673 Y-19.8326
G00 X-5.4673 Y-19.8326
G01 F60.00
G01 Z-0.1000
G01 F120.00
G01 X-5.3687 Y-20.0687
G01 X-5.3237 Y-20.0238
G01 X-5.4097 Y-19.8193
G01 X-5.4460 Y-19.6790
G01 X-5.4768 Y-19.3800
G01 X-5.4460 Y-19.0810
G01 X-5.4097 Y-18.9407
G01 X-5.3237 Y-18.7362
G01 X-5.3687 Y-18.6913
G01 X-5.4673 Y-18.9274
G01 X-5.5183 Y-19.1511
G01 X-5.5355 Y-19.3800
G01 X-5.5183 Y-19.6089
G01 X-5.4673 Y-19.8326
G00 Z2.0000
G00 X-4.6449 Y-20.7048
G01 F60.00
G01 Z-0.0250
G01 F120.00
G01 X-4.4393 Y-20.7897
G01 X-4.2990 Y-20.8260
G01 X-4.0111 Y-20.8565
G01 X-3.7010 Y-20.8260
G01 X-3.5607 Y-20.7897
G01 X-3.3562 Y-20.7037
G01 X-3.3118 Y-20.7481
G01 X-3.4390 Y-20.8093
G01 X-3.6583 Y-20.8770
G01 X-3.8853 Y-20.9112
G01 X-4.1147 Y-20.9112
G01 X-4.3417 Y-20.8770
G01 X-4.5610 Y-20.8093
G01 X-4.6882 Y-20.7481
G01 X-4.6449 Y-20.7048
G00 X-4.6449 Y-20.7048
G01 F60.00
G01 Z-0.0500
G01 F120.00
G01 X-4.6882 Y-20.7481
G01 X-4.5610 Y-20.8093
G01 X-4.3417 Y-20.8770
G01 X-4.1147 Y-20.9112
G01 X-3.8853 Y-20.9112
G01 X-3.6583 Y-20.8770
G01 X-3.4390 Y-20.8093
G01 X-3.3118 Y-20.7481
G01 X-3.3562 Y-20.7037
G01 X-3.5607 Y-20.7897
G01 X-3.7010 Y-20.8260
G01 X-4.0111 Y-20.8565
G01 X-4.2990 Y-20.8260
G01 X-4.4393 Y-20.7897
G01 X-4.6449 Y-20.7048
G00 X-4.6449 Y-20.7048
G01 F60.00
G01 Z-0.0750
G01 F120.00
G01 X-4.4393 Y-20.7897
G01 X-4.2990 Y-20.8260
G01 X-4.0111 Y-20.8565
G01 X-3.7010 Y-20.8260
G01 X-3.5607 Y-20.7897
G01 X-3.3562 Y-20.7037
G01 X-3.3118 Y-20.7481
G01 X-3.4390 Y-20.8093
G01 X-3.6583 Y-20.8770
G01 X-3.8853 Y-20.9112
G01 X-4.1147 Y-20.9112
G01 X-4.3417 Y-20.8770
G01 X-4.5610 Y-20.8093
G01 X-4.6882 Y-20.7481
G01 X-4.6449 Y-20.7048
G00 X-4.6449 Y-20.7048
G01 F60.00
G01 Z-0.1000
G01 F120.00
G01 X-4.6882 Y-20.7481
G01 X-4.5610 Y-20.8093
G01 X-4.3417 Y-20.8770
G01 X-4.1147 Y-20.9112
G01 X-3.8853 Y-20.9112
G01 X-3.6583 Y-20.8770
G01 X-3.4390 Y-20.8093
G01 X-3.3118 Y-20.7481
G01 X-3.3562 Y-20.7037
G01 X-3.5607 Y-20.7897
G01 X-3.7010 Y-20.8260
G01 X-4.0111 Y-20.8565
G01 X-4.2990 Y-20.8260
G01 X-4.4393 Y-20.7897
G01 X-4.6449 Y-20.7048
G00 Z2.0000
G00 X-2.6752 Y-20.0249
G01 F60.00
G01 Z-0.0250
G01 F120.00
G01 X-2.5903 Y-19.8193
G01 X-2.5540 Y-19.6790
G01 X-2.5235 Y-19.3911
G01 X-2.5540 Y-19.0810
G01 X-2.5903 Y-18.9407
G01 X-2.6763 Y-18.7362
G01 X-2.6313 Y-18.6913
G01 X-2.5327 Y-18.9274
G01 X-2.4817 Y-19.1511
G01 X-2.4645 Y-19.3800
G01 X-2.4817 Y-19.6089
G01 X-2.5327 Y-19.8326
G01 X-2.6313 Y-20.0687
G01 X-2.6752 Y-20.0249
G00 X-2.6752 Y-20.0249
G01 F60.00
G01 Z-0.0500
G01 F120.00
G01 X-2.6313 Y-20.0687
G01 X-2.5327 Y-19.8326
G01 X-2.4817 Y-19.6089
G01 X-2.4645 Y-19.3800
G01 X-2.4817 Y-19.1511
G01 X-2.5327 Y-18.9274
G01 X-2.6313 Y-18.6913
G01 X-2.6763 Y-18.7362
G01 X-2.5903 Y-18.9407
G01 X-2.5540 Y-19.0810
G01 X-2.5235 Y-19.3911
G01 X-2.5540 Y-19.6790
G01 X-2.5903 Y-19.8193
G01 X-2.6752 Y-20.0249
G00 X-2.6752 Y-20.0249
G01 F60.00
G01 Z-0.0750
G01 F120.00
G01 X-2.5903 Y-19.8193
G01 X-2.5540 Y-19.6790
G01 X-2.5235 Y-19.3911
G01 X-2.5540 Y-19.0810
G01 X-2.5903 Y-18.9407
G01 X-2.6763 Y-18.7362
G01 X-2.6313 Y-18.6913
G01 X-2.5327 Y-18.9274
G01 X-2.4817 Y-19.1511
G01 X-2.4645 Y-19.3800
G01 X-2.4817 Y-19.6089
G01 X-2.5327 Y-19.8326
G01 X-2.6313 Y-20.0687
G01 X-2.6752 Y-20.0249
G00 X-2.6752 Y-20.0249
G01 F60.00
G01 Z-0.1000
G01 F120.00
G01 X-2.6313 Y-20.0687
G01 X-2.5327 Y-19.8326
G01 X-2.4817 Y-19.6089
G01 X-2.4645 Y-19.3800
G01 X-2.4817 Y-19.1511
G01 X-2.5327 Y-18.9274
G01 X-2.6313 Y-18.6913
G01 X-2.6763 Y-18.7362
G01 X-2.5903 Y-18.9407
G01 X-2.5540 Y-19.0810
G01 X-2.5235 Y-19.3911
G01 X-2.5540 Y-19.6790
G01 X-2.5903 Y-19.8193
G01 X-2.6752 Y-20.0249
G00 Z2.0000
G00 X-15.2282 Y-17.8000
G01 F60.00
G01 Z-0.0250
G01 F120.00
G01 X-15.2415 Y-17.7236
G01 X-15.2797 Y-17.6561
G01 X-15.3384 Y-17.6055
G01 X-15.4108 Y-17.5776
G01 X-16.5742 Y-17.5732
G01 X-16.5742 Y-17.5188
G01 X-15.4186 Y-17.5188
G01 X-15.3188 Y-17.5507
G01 X-15.2541 Y-17.5991
G01 X-15.2057 Y-17.6638
G01 X-15.1738 Y-17.7636
G01 X-15.1738 Y-18.9192
G01 X-15.2282 Y-18.9192
G01 X-15.2282 Y-17.8000
G00 X-15.2282 Y-17.8000
G01 F60.00
G01 Z-0.0500
G01 F120.00
G01 X-15.2282 Y-18.9192
G01 X-15.1738 Y-18.9192
G01 X-15.1738 Y-17.7636
G01 X-15.2057 Y-17.6638
G01 X-15.2541 Y-17.5991
G01 X-15.3188 Y-17.5507
G01 X-15.4186 Y-17.5188
G01 X-16.5742 Y-17.5188
G01 X-16.5742 Y-17.5732
G01 X-15.4108 Y-17.5776
G01 X-15.3384 Y-17.6055
G01 X-15.2797 Y-17.6561
G01 X-15.2415 Y-17.7236
G01 X-15.2282 Y-17.8000
G00 X-15.2282 Y-17.8000
G01 F60.00
G01 Z-0.0750
G01 F120.00
G01 X-15.2415 Y-17.7236
G01 X-15.2797 Y-17.6561
G01 X-15.3384 Y-17.6055
G01 X-15.4108 Y-17.5776
G01 X-16.5742 Y-17.5732
G01 X-16.5742 Y-17.5188
G01 X-15.4186 Y-17.5188
G01 X-15.3188 Y-17.5507
G01 X-15.2541 Y-17.5991
G01 X-15.2057 Y-17.6638
G01 X-15.1738 Y-17.7636
G01 X-15.1738 Y-18.9192
G01 X-15.2282 Y-18.9192
G01 X-15.2282 Y-17.8000
G00 X-15.2282 Y-17.8000
G01 F60.00
G01 Z-0.1000
G01 F120.00
G01 X-15.2282 Y-18.9192
G01 X-15.1738 Y-18.9192
G01 X-15.1738 Y-17.7636
G01 X-15.2057 Y-17.6638
G01 X-15.2541 Y-17.5991
G01 X-15.3188 Y-17.5507
G01 X-15.4186 Y-17.5188
G01 X-16.5742 Y-17.5188
G01 X-16.5742 Y-17.5732
G01 X-15.4108 Y-17.5776
G01 X-15.3384 Y-17.6055
G01 X-15.2797 Y-17.6561
G01 X-15.2415 Y-17.7236
G01 X-15.2282 Y-17.8000
G00 Z2.0000
G00 X-15.4550 Y-21.2268
G01 F60.00
G01 Z-0.0250
G01 F120.00
G01 X-15.3786 Y-21.2135
G01 X-15.3111 Y-21.1753
G01 X-15.2605 Y-21.1166
G01 X-15.2326 Y-21.0442
G01 X-15.2282 Y-19.8808
G01 X-15.1738 Y-19.8808
G01 X-15.1738 Y-21.0364
G01 X-15.2057 Y-21.1362
G01 X-15.2541 Y-21.2009
G01 X-15.3188 Y-21.2493
G01 X-15.4186 Y-21.2812
G01 X-16.5742 Y-21.2812
G01 X-16.5742 Y-21.2268
G01 X-15.4550 Y-21.2268
G00 X-15.4550 Y-21.2268
G01 F60.00
G01 Z-0.0500
G01 F120.00
G01 X-16.5742 Y-21.2268
G01 X-16.5742 Y-21.2812
G01 X-15.4186 Y-21.2812
G01 X-15.3188 Y-21.2493
G01 X-15.2541 Y-21.2009
G01 X-15.2057 Y-21.1362
G01 X-15.1738 Y-21.0364
G01 X-15.1738 Y-19.8808
G01 X-15.2282 Y-19.8808
G01 X-15.2326 Y-21.0442
G01 X-15.2605 Y-21.1166
G01 X-15.3111 Y-21.1753
G01 X-15.3786 Y-21.2135
G01 X-15.4550 Y-21.2268
G00 X-15.4550 Y-21.2268
G01 F60.00
G01 Z-0.0750
G01 F120.00
G01 X-15.3786 Y-21.2135
G01 X-15.3111 Y-21.1753
G01 X-15.2605 Y-21.1166
G01 X-15.2326 Y-21.0442
G01 X-15.2282 Y-19.8808
G01 X-15.1738 Y-19.8808
G01 X-15.1738 Y-21.0364
G01 X-15.2057 Y-21.1362
G01 X-15.2541 Y-21.2009
G01 X-15.3188 Y-21.2493
G01 X-15.4186 Y-21.2812
G01 X-16.5742 Y-21.2812
G01 X-16.5742 Y-21.2268
G01 X-15.4550 Y-21.2268
G00 X-15.4550 Y-21.2268
G01 F60.00
G01 Z-0.1000
G01 F120.00
G01 X-16.5742 Y-21.2268
G01 X-16.5742 Y-21.2812
G01 X-15.4186 Y-21.2812
G01 X-15.3188 Y-21.2493
G01 X-15.2541 Y-21.2009
G01 X-15.2057 Y-21.1362
G01 X-15.1738 Y-21.0364
G01 X-15.1738 Y-19.8808
G01 X-15.2282 Y-19.8808
G01 X-15.2326 Y-21.0442
G01 X-15.2605 Y-21.1166
G01 X-15.3111 Y-21.1753
G01 X-15.3786 Y-21.2135
G01 X-15.4550 Y-21.2268
G00 Z2.0000
G00 X-18.9043 Y-21.1362
G01 F60.00
G01 Z-0.0250
G01 F120.00
G01 X-18.9362 Y-21.0364
G01 X-18.9362 Y-19.8808
G01 X-18.8818 Y-19.8808
G01 X-18.8815 Y-21.0111
G01 X-18.8600 Y-21.0970
G01 X-18.8154 Y-21.1604
G01 X-18.7520 Y-21.2050
G01 X-18.6661 Y-21.2265
G01 X-17.5358 Y-21.2268
G01 X-17.5358 Y-21.2802
G01 X-18.7227 Y-21.2749
G01 X-18.7912 Y-21.2493
G01 X-18.8559 Y-21.2009
G01 X-18.9043 Y-21.1362
G00 X-18.9043 Y-21.1362
G01 F60.00
G01 Z-0.0500
G01 F120.00
G01 X-18.8559 Y-21.2009
G01 X-18.7912 Y-21.2493
G01 X-18.7227 Y-21.2749
G01 X-17.5358 Y-21.2802
G01 X-17.5358 Y-21.2268
G01 X-18.6661 Y-21.2265
G01 X-18.7520 Y-21.2050
G01 X-18.8154 Y-21.1604
G01 X-18.8600 Y-21.0970
G01 X-18.8815 Y-21.0111
G01 X-18.8818 Y-19.8808
G01 X-18.9362 Y-19.8808
G01 X-18.9362 Y-21.0364
G01 X-18.9043 Y-21.1362
G00 X-18.9043 Y-21.1362
G01 F60.00
G01 Z-0.0750
G01 F120.00
G01 X-18.9362 Y-21.0364
G01 X-18.9362 Y-19.8808
G01 X-18.8818 Y-19.8808
G01 X-18.8815 Y-21.0111
G01 X-18.8600 Y-21.0970
G01 X-18.8154 Y-21.1604
G01 X-18.7520 Y-21.2050
G01 X-18.6661 Y-21.2265
G01 X-17.5358 Y-21.2268
G01 X-17.5358 Y-21.2802
G01 X-18.7227 Y-21.2749
G01 X-18.7912 Y-21.2493
G01 X-18.8559 Y-21.2009
G01 X-18.9043 Y-21.1362
G00 X-18.9043 Y-21.1362
G01 F60.00
G01 Z-0.1000
G01 F120.00
G01 X-18.8559 Y-21.2009
G01 X-18.7912 Y-21.2493
G01 X-18.7227 Y-21.2749
G01 X-17.5358 Y-21.2802
G01 X-17.5358 Y-21.2268
G01 X-18.6661 Y-21.2265
G01 X-18.7520 Y-21.2050
G01 X-18.8154 Y-21.1604
G01 X-18.8600 Y-21.0970
G01 X-18.8815 Y-21.0111
G01 X-18.8818 Y-19.8808
G01 X-18.9362 Y-19.8808
G01 X-18.9362 Y-21.0364
G01 X-18.9043 Y-21.1362
G00 Z2.0000
G00 X-20.3268 Y-22.3740
G01 F60.00
G01 Z-0.0250
G01 F120.00
G01 X-20.2943 Y-22.5163
G01 X-20.2441 Y-22.5986
G01 X-20.1279 Y-22.6914
G01 X-19.9740 Y-22.7268
G01 X-1.1720 Y-22.7268
G01 X-0.9978 Y-22.6804
G01 X-0.9277 Y-22.6228
G01 X-0.8392 Y-22.4895
G01 X-0.7987 Y-22.1972
G01 X-0.7987 Y-11.7260
G01 X-0.8491 Y-11.5445
G01 X-0.9876 Y-11.4139
G01 X-1.1515 Y-11.3732
G01 X-19.9740 Y-11.3732
G01 X-20.1555 Y-11.4236
G01 X-20.2861 Y-11.5621
G01 X-20.3268 Y-11.7260
G01 X-20.3268 Y-22.3740
G00 X-20.3268 Y-22.3740
G01 F60.00
G01 Z-0.0500
G01 F120.00
G01 X-20.3268 Y-11.7260
G01 X-20.2861 Y-11.5621
G01 X-20.1555 Y-11.4236
G01 X-19.9740 Y-11.3732
G01 X-1.1515 Y-11.3732
G01 X-0.9876 Y-11.4139
G01 X-0.8491 Y-11.5445
G01 X-0.7987 Y-11.7260
G01 X-0.7987 Y-22.1972
G01 X-0.8392 Y-22.4895
G01 X-0.9277 Y-22.6228
G01 X-0.9978 Y-22.6804
G01 X-1.1720 Y-22.7268
G01 X-19.9740 Y-22.7268
G01 X-20.1279 Y-22.6914
G01 X-20.2441 Y-22.5986
G01 X-20.2943 Y-22.5163
G01 X-20.3268 Y-22.3740
G00 X-20.3268 Y-22.3740
G01 F60.00
G01 Z-0.0750
G01 F120.00
G01 X-20.2943 Y-22.5163
G01 X-20.2441 Y-22.5986
G01 X-20.1279 Y-22.6914
G01 X-19.9740 Y-22.7268
G01 X-1.1720 Y-22.7268
G01 X-0.9978 Y-22.6804
G01 X-0.9277 Y-22.6228
G01 X-0.8392 Y-22.4895
G01 X-0.7987 Y-22.1972
G01 X-0.7987 Y-11.7260
G01 X-0.8491 Y-11.5445
G01 X-0.9876 Y-11.4139
G01 X-1.1515 Y-11.3732
G01 X-19.9740 Y-11.3732
G01 X-20.1555 Y-11.4236
G01 X-20.2861 Y-11.5621
G01 X-20.3268 Y-11.7260
G01 X-20.3268 Y-22.3740
G00 X-20.3268 Y-22.3740
G01 F60.00
G01 Z-0.1000
G01 F120.00
G01 X-20.3268 Y-11.7260
G01 X-20.2861 Y-11.5621
G01 X-20.1555 Y-11.4236
G01 X-19.9740 Y-11.3732
G01 X-1.1515 Y-11.3732
G01 X-0.9876 Y-11.4139
G01 X-0.8491 Y-11.5445
G01 X-0.7987 Y-11.7260
G01 X-0.7987 Y-22.1972
G01 X-0.8392 Y-22.4895
G01 X-0.9277 Y-22.6228
G01 X-0.9978 Y-22.6804
G01 X-1.1720 Y-22.7268
G01 X-19.9740 Y-22.7268
G01 X-20.1279 Y-22.6914
G01 X-20.2441 Y-22.5986
G01 X-20.2943 Y-22.5163
G01 X-20.3268 Y-22.3740
G00 Z2.0000
G00 X-18.9043 Y-17.6638
G01 F60.00
G01 Z-0.0250
G01 F120.00
G01 X-18.8559 Y-17.5991
G01 X-18.7912 Y-17.5507
G01 X-18.7227 Y-17.5251
G01 X-17.5358 Y-17.5198
G01 X-17.5358 Y-17.5732
G01 X-18.6661 Y-17.5735
G01 X-18.7520 Y-17.5950
G01 X-18.8154 Y-17.6396
G01 X-18.8645 Y-17.7132
G01 X-18.8815 Y-17.7889
G01 X-18.8818 Y-18.9192
G01 X-18.9362 Y-18.9192
G01 X-18.9362 Y-17.7636
G01 X-18.9043 Y-17.6638
G00 X-18.9043 Y-17.6638
G01 F60.00
G01 Z-0.0500
G01 F120.00
G01 X-18.9362 Y-17.7636
G01 X-18.9362 Y-18.9192
G01 X-18.8818 Y-18.9192
G01 X-18.8815 Y-17.7889
G01 X-18.8645 Y-17.7132
G01 X-18.8154 Y-17.6396
G01 X-18.7520 Y-17.5950
G01 X-18.6661 Y-17.5735
G01 X-17.5358 Y-17.5732
G01 X-17.5358 Y-17.5198
G01 X-18.7227 Y-17.5251
G01 X-18.7912 Y-17.5507
G01 X-18.8559 Y-17.5991
G01 X-18.9043 Y-17.6638
G00 X-18.9043 Y-17.6638
G01 F60.00
G01 Z-0.0750
G01 F120.00
G01 X-18.8559 Y-17.5991
G01 X-18.7912 Y-17.5507
G01 X-18.7227 Y-17.5251
G01 X-17.5358 Y-17.5198
G01 X-17.5358 Y-17.5732
G01 X-18.6661 Y-17.5735
G01 X-18.7520 Y-17.5950
G01 X-18.8154 Y-17.6396
G01 X-18.8645 Y-17.7132
G01 X-18.8815 Y-17.7889
G01 X-18.8818 Y-18.9192
G01 X-18.9362 Y-18.9192
G01 X-18.9362 Y-17.7636
G01 X-18.9043 Y-17.6638
G00 X-18.9043 Y-17.6638
G01 F60.00
G01 Z-0.1000
G01 F120.00
G01 X-18.9362 Y-17.7636
G01 X-18.9362 Y-18.9192
G01 X-18.8818 Y-18.9192
G01 X-18.8815 Y-17.7889
G01 X-18.8645 Y-17.7132
G01 X-18.8154 Y-17.6396
G01 X-18.7520 Y-17.5950
G01 X-18.6661 Y-17.5735
G01 X-17.5358 Y-17.5732
G01 X-17.5358 Y-17.5198
G01 X-18.7227 Y-17.5251
G01 X-18.7912 Y-17.5507
G01 X-18.8559 Y-17.5991
G01 X-18.9043 Y-17.6638
G00 Z2.0000
G00 X-19.9764 Y-10.2846
G01 F60.00
G01 Z-0.0250
G01 F120.00
G01 X-20.2356 Y-10.3109
G01 X-20.5205 Y-10.3947
G01 X-20.7437 Y-10.5073
G01 X-20.9440 Y-10.6624
G01 X-21.1411 Y-10.8846
G01 X-21.2746 Y-11.1047
G01 X-21.3635 Y-11.3499
G01 X-21.4127 Y-11.6429
G01 X-21.4135 Y-22.4447
G01 X-21.3631 Y-22.7415
G01 X-21.3053 Y-22.9205
G01 X-21.2311 Y-23.0787
G01 X-21.0497 Y-23.3309
G01 X-20.8008 Y-23.5518
G01 X-20.6273 Y-23.6587
G01 X-20.4393 Y-23.7375
G01 X-20.1988 Y-23.7960
G01 X-19.9922 Y-23.8153
G01 X-1.3409 Y-23.8154
G01 X-1.3409 Y-40.3846
G01 X-19.9837 Y-40.3846
G01 X-20.1692 Y-40.3992
G01 X-20.3446 Y-40.4378
G01 X-20.5535 Y-40.5081
G01 X-20.7437 Y-40.6073
G01 X-20.8754 Y-40.7023
G01 X-20.9986 Y-40.8170
G01 X-21.1328 Y-40.9738
G01 X-21.2272 Y-41.1150
G01 X-21.3529 Y-41.4105
G01 X-21.3963 Y-41.6030
G01 X-21.4141 Y-41.7683
G01 X-21.4154 Y-52.4813
G01 X-21.3928 Y-52.7166
G01 X-21.3193 Y-52.9830
G01 X-21.2319 Y-53.1773
G01 X-21.1189 Y-53.3489
G01 X-20.9830 Y-53.4986
G01 X-20.7953 Y-53.6558
G01 X-20.6273 Y-53.7587
G01 X-20.4457 Y-53.8353
G01 X-20.2250 Y-53.8912
G01 X-20.0317 Y-53.9141
G01 X-1.3409 Y-53.9154
G01 X-1.3409 Y-62.7846
G01 X-47.9846 Y-62.7846
G01 X-47.9846 Y-1.6641
G01 X-8.6305 Y-10.2846
G01 X-19.9764 Y-10.2846
G01 X-19.9821 Y-10.0124
G01 X-19.9967 Y-10.0126
G01 X-20.3030 Y-10.0469
G01 X-20.6404 Y-10.1495
G01 X-20.9086 Y-10.2898
G01 X-21.1429 Y-10.4761
G01 X-21.3723 Y-10.7396
G01 X-21.5312 Y-11.0108
G01 X-21.6332 Y-11.3068
G01 X-21.6861 Y-11.6592
G01 X-21.6876 Y-22.3772
G01 X-21.6770 Y-22.5563
G01 X-21.6458 Y-22.7357
G01 X-21.5586 Y-23.0201
G01 X-21.4384 Y-23.2638
G01 X-21.2713 Y-23.4915
G01 X-21.0650 Y-23.6893
G01 X-20.8527 Y-23.8441
G01 X-20.6171 Y-23.9622
G01 X-20.3754 Y-24.0373
G01 X-20.0844 Y-24.0837
G01 X-1.6131 Y-24.0876
G01 X-1.6131 Y-40.1124
G01 X-19.9946 Y-40.1126
G01 X-20.2434 Y-40.1355
G01 X-20.4898 Y-40.1968
G01 X-20.6928 Y-40.2719
G01 X-20.8867 Y-40.3758
G01 X-21.0431 Y-40.4878
G01 X-21.1844 Y-40.6175
G01 X-21.3446 Y-40.8027
G01 X-21.4557 Y-40.9665
G01 X-21.5447 Y-41.1411
G01 X-21.6079 Y-41.3131
G01 X-21.6614 Y-41.5389
G01 X-21.6842 Y-41.7238
G01 X-21.6876 Y-52.4744
G01 X-21.6735 Y-52.6847
G01 X-21.5999 Y-53.0006
G01 X-21.5017 Y-53.2486
G01 X-21.3561 Y-53.4866
G01 X-21.1691 Y-53.6972
G01 X-20.9292 Y-53.8944
G01 X-20.6799 Y-54.0354
G01 X-20.4145 Y-54.1280
G01 X-20.0917 Y-54.1832
G01 X-1.6131 Y-54.1876
G01 X-1.6131 Y-62.5124
G01 X-47.7124 Y-62.5124
G01 X-47.7124 Y-2.0023
G01 X-11.1449 Y-10.0124
G01 X-19.9821 Y-10.0124
G01 X-19.9843 Y-9.7403
G01 X-20.0548 Y-9.7421
G01 X-20.2543 Y-9.7615
G01 X-20.4470 Y-9.8014
G01 X-20.6794 Y-9.8729
G01 X-20.8813 Y-9.9604
G01 X-21.0598 Y-10.0634
G01 X-21.2217 Y-10.1823
G01 X-21.3689 Y-10.3169
G01 X-21.5199 Y-10.4863
G01 X-21.6987 Y-10.7429
G01 X-21.8324 Y-11.0273
G01 X-21.9239 Y-11.3626
G01 X-21.9588 Y-11.6701
G01 X-21.9597 Y-22.3878
G01 X-21.9328 Y-22.6893
G01 X-21.8567 Y-22.9916
G01 X-21.7454 Y-23.2697
G01 X-21.5904 Y-23.5271
G01 X-21.4054 Y-23.7467
G01 X-21.1657 Y-23.9584
G01 X-20.9275 Y-24.1154
G01 X-20.6743 Y-24.2318
G01 X-20.3686 Y-24.3174
G01 X-20.1031 Y-24.3552
G01 X-1.8853 Y-24.3598
G01 X-1.8853 Y-39.8402
G01 X-20.0023 Y-39.8405
G01 X-20.2909 Y-39.8675
G01 X-20.5793 Y-39.9395
G01 X-20.8279 Y-40.0345
G01 X-21.0544 Y-40.1599
G01 X-21.2331 Y-40.2917
G01 X-21.3936 Y-40.4425
G01 X-21.5646 Y-40.6423
G01 X-21.6927 Y-40.8327
G01 X-21.7940 Y-41.0320
G01 X-21.8680 Y-41.2330
G01 X-21.9283 Y-41.4859
G01 X-21.9551 Y-41.6960
G01 X-21.9598 Y-52.4762
G01 X-21.9314 Y-52.7973
G01 X-21.8411 Y-53.1396
G01 X-21.7208 Y-53.4176
G01 X-21.5515 Y-53.6793
G01 X-21.3385 Y-53.9113
G01 X-21.0723 Y-54.1263
G01 X-20.7890 Y-54.2847
G01 X-20.4852 Y-54.3908
G01 X-20.1306 Y-54.4531
G01 X-1.8853 Y-54.4598
G01 X-1.8853 Y-62.2402
G01 X-47.4402 Y-62.2402
G01 X-47.4402 Y-2.3405
G01 X-13.6593 Y-9.7402
G01 X-19.9843 Y-9.7403
G01 X-19.9873 Y-9.4681
G01 X-20.1968 Y-9.4798
G01 X-20.4585 Y-9.5239
G01 X-20.7499 Y-9.6091
G01 X-20.9841 Y-9.7075
G01 X-21.2040 Y-9.8326
G01 X-21.4084 Y-9.9835
G01 X-21.5938 Y-10.1581
G01 X-21.7872 Y-10.3854
G01 X-21.9340 Y-10.6062
G01 X-22.0540 Y-10.8479
G01 X-22.1420 Y-11.1004
G01 X-22.2072 Y-11.4030
G01 X-22.2313 Y-11.6773
G01 X-22.2317 Y-22.4007
G01 X-22.1967 Y-22.7598
G01 X-22.0968 Y-23.1331
G01 X-21.9568 Y-23.4534
G01 X-21.7672 Y-23.7453
G01 X-21.5994 Y-23.9376
G01 X-21.3979 Y-24.1207
G01 X-21.2156 Y-24.2579
G01 X-21.0118 Y-24.3790
G01 X-20.7977 Y-24.4760
G01 X-20.5717 Y-24.5495
G01 X-20.3053 Y-24.6059
G01 X-20.0681 Y-24.6298
G01 X-2.1574 Y-24.6319
G01 X-2.1574 Y-39.5681
G01 X-20.0120 Y-39.5685
G01 X-20.3368 Y-39.5992
G01 X-20.6590 Y-39.6793
G01 X-20.9393 Y-39.7861
G01 X-21.2001 Y-39.9301
G01 X-21.3951 Y-40.0725
G01 X-21.5800 Y-40.2436
G01 X-21.7757 Y-40.4704
G01 X-21.9214 Y-40.6847
G01 X-22.0348 Y-40.9034
G01 X-22.1226 Y-41.1351
G01 X-22.1907 Y-41.4089
G01 X-22.2244 Y-41.6480
G01 X-22.2319 Y-52.4740
G01 X-22.1946 Y-52.8709
G01 X-22.0733 Y-53.2981
G01 X-21.9033 Y-53.6469
G01 X-21.6654 Y-53.9673
G01 X-21.3348 Y-54.2717
G01 X-21.0086 Y-54.4807
G01 X-20.6405 Y-54.6301
G01 X-20.2146 Y-54.7182
G01 X-19.9745 Y-54.7319
G01 X-2.1574 Y-54.7319
G01 X-2.1574 Y-61.9681
G01 X-47.1681 Y-61.9681
G01 X-47.1681 Y-2.6788
G01 X-16.1737 Y-9.4681
G01 X-19.9873 Y-9.4681
G01 X-19.9903 Y-9.1960
G01 X-20.2655 Y-9.2137
G01 X-20.5273 Y-9.2605
G01 X-20.8524 Y-9.3567
G01 X-21.1332 Y-9.4779
G01 X-21.4057 Y-9.6401
G01 X-21.6543 Y-9.8367
G01 X-21.9110 Y-10.1057
G01 X-22.0984 Y-10.3545
G01 X-22.2568 Y-10.6353
G01 X-22.3773 Y-10.9380
G01 X-22.4714 Y-11.3315
G01 X-22.5040 Y-11.7068
G01 X-22.4940 Y-22.5936
G01 X-22.4442 Y-22.9068
G01 X-22.3443 Y-23.2498
G01 X-22.2231 Y-23.5314
G01 X-22.0640 Y-23.7997
G01 X-21.8736 Y-24.0429
G01 X-21.6556 Y-24.2579
G01 X-21.3829 Y-24.4733
G01 X-21.0937 Y-24.6427
G01 X-20.8451 Y-24.7489
G01 X-20.5846 Y-24.8269
G01 X-20.2880 Y-24.8834
G01 X-20.0076 Y-24.9038
G01 X-2.4296 Y-24.9041
G01 X-2.4296 Y-39.2959
G01 X-20.0227 Y-39.2965
G01 X-20.3855 Y-39.3315
G01 X-20.7505 Y-39.4227
G01 X-21.0639 Y-39.5439
G01 X-21.3615 Y-39.7104
G01 X-21.5862 Y-39.8774
G01 X-21.7878 Y-40.0672
G01 X-21.9951 Y-40.3092
G01 X-22.1557 Y-40.5463
G01 X-22.2816 Y-40.7888
G01 X-22.3807 Y-41.0486
G01 X-22.4561 Y-41.3481
G01 X-22.4944 Y-41.6116
G01 X-22.5041 Y-52.4740
G01 X-22.4938 Y-52.6948
G01 X-22.4620 Y-52.9214
G01 X-22.3286 Y-53.3926
G01 X-22.1372 Y-53.7859
G01 X-22.0152 Y-53.9684
G01 X-21.8755 Y-54.1408
G01 X-21.7204 Y-54.2995
G01 X-21.5176 Y-54.4742
G01 X-21.3406 Y-54.6016
G01 X-21.1456 Y-54.7162
G01 X-20.9460 Y-54.8098
G01 X-20.7340 Y-54.8861
G01 X-20.2740 Y-54.9852
G01 X-19.9748 Y-55.0041
G01 X-2.4296 Y-55.0041
G01 X-2.4296 Y-61.6959
G01 X-46.8959 Y-61.6959
G01 X-46.8959 Y-3.0170
G01 X-18.6881 Y-9.1959
G01 X-19.9903 Y-9.1960
G01 X-20.7192 Y-9.0296
G01 X-21.0096 Y-9.1248
G01 X-21.2750 Y-9.2447
G01 X-21.5541 Y-9.4118
G01 X-21.8111 Y-9.6118
G01 X-22.0322 Y-9.8307
G01 X-22.2631 Y-10.1137
G01 X-22.4322 Y-10.3816
G01 X-22.5695 Y-10.6700
G01 X-22.6681 Y-10.9609
G01 X-22.7404 Y-11.2903
G01 X-22.7762 Y-11.7236
G01 X-22.7762 Y-22.3767
G01 X-22.7597 Y-22.6704
G01 X-22.7024 Y-22.9980
G01 X-22.5907 Y-23.3685
G01 X-22.4531 Y-23.6792
G01 X-22.2814 Y-23.9639
G01 X-22.0746 Y-24.2263
G01 X-21.8354 Y-24.4622
G01 X-21.5446 Y-24.6924
G01 X-21.2310 Y-24.8783
G01 X-20.9548 Y-24.9986
G01 X-20.6666 Y-25.0871
G01 X-20.3391 Y-25.1512
G01 X-20.0147 Y-25.1759
G01 X-2.7017 Y-25.1762
G01 X-2.7017 Y-39.0238
G01 X-20.0440 Y-39.0247
G01 X-20.4424 Y-39.0651
G01 X-20.8482 Y-39.1681
G01 X-21.2000 Y-39.3073
G01 X-21.5304 Y-39.4958
G01 X-21.7725 Y-39.6785
G01 X-21.9896 Y-39.8845
G01 X-22.2138 Y-40.1472
G01 X-22.3900 Y-40.4078
G01 X-22.5290 Y-40.6752
G01 X-22.6370 Y-40.9565
G01 X-22.7200 Y-41.2802
G01 X-22.7638 Y-41.5691
G01 X-22.7762 Y-41.8249
G01 X-22.7762 Y-52.4740
G01 X-22.7650 Y-52.7188
G01 X-22.7302 Y-52.9679
G01 X-22.6750 Y-53.2031
G01 X-22.5856 Y-53.4824
G01 X-22.4913 Y-53.7029
G01 X-22.3763 Y-53.9166
G01 X-22.2439 Y-54.1168
G01 X-22.0923 Y-54.3063
G01 X-21.9155 Y-54.4896
G01 X-21.6989 Y-54.6778
G01 X-21.5027 Y-54.8208
G01 X-21.2977 Y-54.9435
G01 X-21.0758 Y-55.0505
G01 X-20.8435 Y-55.1370
G01 X-20.6152 Y-55.1992
G01 X-20.3454 Y-55.2503
G01 X-19.9764 Y-55.2762
G01 X-2.7017 Y-55.2762
G01 X-2.7017 Y-61.4238
G01 X-46.6238 Y-61.4238
G01 X-46.6238 Y-3.3552
G01 X-20.7192 Y-9.0296
G01 X-21.5981 Y-9.1157
G01 X-21.9355 Y-9.3599
G01 X-22.2343 Y-9.6484
G01 X-22.4188 Y-9.8673
G01 X-22.5662 Y-10.0754
G01 X-22.7011 Y-10.3070
G01 X-22.8124 Y-10.5451
G01 X-22.9018 Y-10.7912
G01 X-22.9691 Y-11.0443
G01 X-23.0210 Y-11.3254
G01 X-23.0461 Y-11.6119
G01 X-23.0484 Y-22.3771
G01 X-23.0256 Y-22.7397
G01 X-22.9584 Y-23.0968
G01 X-22.8350 Y-23.4921
G01 X-22.6861 Y-23.8210
G01 X-22.4960 Y-24.1320
G01 X-22.2710 Y-24.4150
G01 X-22.0117 Y-24.6695
G01 X-21.6990 Y-24.9165
G01 X-21.3602 Y-25.1180
G01 X-21.0530 Y-25.2524
G01 X-20.7354 Y-25.3504
G01 X-20.3778 Y-25.4206
G01 X-20.0237 Y-25.4479
G01 X-2.9739 Y-25.4484
G01 X-2.9739 Y-38.7516
G01 X-20.0588 Y-38.7529
G01 X-20.5028 Y-38.7995
G01 X-20.9522 Y-38.9156
G01 X-21.3435 Y-39.0744
G01 X-21.7068 Y-39.2865
G01 X-21.9614 Y-39.4819
G01 X-22.1975 Y-39.7083
G01 X-22.4372 Y-39.9912
G01 X-22.6267 Y-40.2733
G01 X-22.7771 Y-40.5635
G01 X-22.8951 Y-40.8701
G01 X-22.9851 Y-41.2184
G01 X-23.0334 Y-41.5297
G01 X-23.0484 Y-41.8231
G01 X-23.0484 Y-52.4740
G01 X-23.0363 Y-52.7404
G01 X-22.9994 Y-53.0092
G01 X-22.9411 Y-53.2622
G01 X-22.8469 Y-53.5604
G01 X-22.7439 Y-53.8057
G01 X-22.6208 Y-54.0378
G01 X-22.4741 Y-54.2628
G01 X-22.3131 Y-54.4672
G01 X-22.1228 Y-54.6681
G01 X-21.8890 Y-54.8741
G01 X-21.6780 Y-55.0309
G01 X-21.4533 Y-55.1686
G01 X-21.2065 Y-55.2904
G01 X-20.9622 Y-55.3845
G01 X-20.7107 Y-55.4564
G01 X-20.4192 Y-55.5145
G01 X-19.9769 Y-55.5484
G01 X-2.9739 Y-55.5484
G01 X-2.9739 Y-61.1516
G01 X-46.3516 Y-61.1516
G01 X-46.3516 Y-3.6935
G01 X-21.5981 Y-9.1157
G01 X-22.2292 Y-9.2561
G01 X-22.4296 Y-9.4587
G01 X-22.6402 Y-9.7087
G01 X-22.8804 Y-10.0682
G01 X-23.0722 Y-10.4614
G01 X-23.2054 Y-10.8630
G01 X-23.2940 Y-11.3137
G01 X-23.3206 Y-11.7202
G01 X-23.3205 Y-22.3931
G01 X-23.2866 Y-22.8399
G01 X-23.1942 Y-23.2672
G01 X-23.0366 Y-23.7189
G01 X-22.8210 Y-24.1329
G01 X-22.5676 Y-24.4874
G01 X-22.2632 Y-24.8097
G01 X-21.8924 Y-25.1134
G01 X-21.4933 Y-25.3556
G01 X-21.1554 Y-25.5047
G01 X-20.8068 Y-25.6131
G01 X-20.4163 Y-25.6900
G01 X-20.0342 Y-25.7199
G01 X-3.2461 Y-25.7206
G01 X-3.2461 Y-38.4794
G01 X-20.0766 Y-38.4811
G01 X-20.5586 Y-38.5330
G01 X-21.0513 Y-38.6617
G01 X-21.4794 Y-38.8380
G01 X-21.8847 Y-39.0787
G01 X-22.1614 Y-39.2951
G01 X-22.4088 Y-39.5358
G01 X-22.6594 Y-39.8339
G01 X-22.8646 Y-40.1410
G01 X-23.0236 Y-40.4478
G01 X-23.1491 Y-40.7712
G01 X-23.2488 Y-41.1502
G01 X-23.3028 Y-41.4890
G01 X-23.3206 Y-41.8225
G01 X-23.3206 Y-52.4740
G01 X-23.3074 Y-52.7638
G01 X-23.2676 Y-53.0555
G01 X-23.2047 Y-53.3298
G01 X-23.1054 Y-53.6461
G01 X-22.9956 Y-53.9099
G01 X-22.8615 Y-54.1653
G01 X-22.7097 Y-54.4012
G01 X-22.5316 Y-54.6305
G01 X-22.3259 Y-54.8503
G01 X-22.0836 Y-55.0664
G01 X-21.8562 Y-55.2388
G01 X-21.6170 Y-55.3888
G01 X-21.3552 Y-55.5222
G01 X-21.0840 Y-55.6305
G01 X-20.8140 Y-55.7113
G01 X-20.5058 Y-55.7763
G01 X-20.2478 Y-55.8088
G01 X-19.9798 Y-55.8206
G01 X-3.2461 Y-55.8206
G01 X-3.2461 Y-60.8794
G01 X-46.0794 Y-60.8794
G01 X-46.0794 Y-4.0317
G01 X-22.2292 Y-9.2561
G01 X-22.7563 Y-9.4192
G01 X-23.0337 Y-9.7961
G01 X-23.2351 Y-10.1577
G01 X-23.3920 Y-10.5396
G01 X-23.5007 Y-10.9276
G01 X-23.5747 Y-11.3727
G01 X-23.5927 Y-11.7220
G01 X-23.5902 Y-22.5047
G01 X-23.5381 Y-22.9889
G01 X-23.4161 Y-23.4763
G01 X-23.2489 Y-23.9107
G01 X-23.0277 Y-24.3155
G01 X-22.7553 Y-24.6875
G01 X-22.4357 Y-25.0208
G01 X-22.0469 Y-25.3375
G01 X-21.6261 Y-25.5933
G01 X-21.2590 Y-25.7565
G01 X-20.8806 Y-25.8752
G01 X-20.4587 Y-25.9589
G01 X-20.0473 Y-25.9919
G01 X-3.5182 Y-25.9927
G01 X-3.5182 Y-38.2073
G01 X-20.1013 Y-38.2097
G01 X-20.6221 Y-38.2680
G01 X-21.1566 Y-38.4099
G01 X-21.6250 Y-38.6066
G01 X-22.0615 Y-38.8703
G01 X-22.3513 Y-39.0996
G01 X-22.6164 Y-39.3595
G01 X-22.8817 Y-39.6766
G01 X-23.0991 Y-40.0029
G01 X-23.2709 Y-40.3343
G01 X-23.4051 Y-40.6783
G01 X-23.5007 Y-41.0276
G01 X-23.5705 Y-41.4329
G01 X-23.5927 Y-41.8220
G01 X-23.5927 Y-52.4740
G01 X-23.5785 Y-52.7884
G01 X-23.5358 Y-53.1016
G01 X-23.4685 Y-53.3970
G01 X-23.3628 Y-53.7347
G01 X-23.2448 Y-54.0195
G01 X-23.1015 Y-54.2940
G01 X-22.9400 Y-54.5469
G01 X-22.7524 Y-54.7909
G01 X-22.5297 Y-55.0316
G01 X-22.2730 Y-55.2628
G01 X-22.0263 Y-55.4519
G01 X-21.7720 Y-55.6137
G01 X-21.4951 Y-55.7574
G01 X-21.2081 Y-55.8753
G01 X-20.9138 Y-55.9667
G01 X-20.5937 Y-56.0372
G01 X-20.2877 Y-56.0785
G01 X-19.9824 Y-56.0927
G01 X-3.5182 Y-56.0927
G01 X-3.5182 Y-60.6073
G01 X-45.8073 Y-60.6073
G01 X-45.8073 Y-4.3699
G01 X-22.7563 Y-9.4192
G01 X-23.2273 Y-9.5947
G01 X-23.3865 Y-9.8577
G01 X-23.5596 Y-10.2156
G01 X-23.6937 Y-10.5887
G01 X-23.7963 Y-11.0113
G01 X-23.8515 Y-11.4095
G01 X-23.8649 Y-11.7246
G01 X-23.8579 Y-22.6031
G01 X-23.7928 Y-23.1069
G01 X-23.6567 Y-23.6172
G01 X-23.4752 Y-24.0690
G01 X-23.2368 Y-24.4936
G01 X-22.9460 Y-24.8834
G01 X-22.6073 Y-25.2326
G01 X-22.2042 Y-25.5596
G01 X-21.7670 Y-25.8269
G01 X-21.3770 Y-26.0028
G01 X-20.9586 Y-26.1362
G01 X-20.5054 Y-26.2271
G01 X-20.0621 Y-26.2638
G01 X-3.7904 Y-26.2649
G01 X-3.7904 Y-37.9351
G01 X-19.9755 Y-37.9351
G01 X-20.2760 Y-37.9473
G01 X-20.7014 Y-38.0061
G01 X-21.1180 Y-38.1121
G01 X-21.4958 Y-38.2472
G01 X-21.8559 Y-38.4209
G01 X-22.1986 Y-38.6340
G01 X-22.5165 Y-38.8825
G01 X-22.7948 Y-39.1516
G01 X-23.0768 Y-39.4835
G01 X-23.2393 Y-39.7128
G01 X-23.3853 Y-39.9556
G01 X-23.5118 Y-40.2066
G01 X-23.6199 Y-40.4684
G01 X-23.7114 Y-40.7494
G01 X-23.7827 Y-41.0439
G01 X-23.8298 Y-41.3135
G01 X-23.8577 Y-41.5941
G01 X-23.8649 Y-52.4740
G01 X-23.8503 Y-52.8042
G01 X-23.8059 Y-53.1374
G01 X-23.7341 Y-53.4575
G01 X-23.6242 Y-53.8119
G01 X-23.4996 Y-54.1169
G01 X-23.3510 Y-54.4061
G01 X-23.1767 Y-54.6832
G01 X-22.9762 Y-54.9475
G01 X-22.7373 Y-55.2091
G01 X-22.4719 Y-55.4511
G01 X-22.2150 Y-55.6519
G01 X-21.9407 Y-55.8304
G01 X-21.6460 Y-55.9872
G01 X-21.3403 Y-56.1167
G01 X-21.0309 Y-56.2169
G01 X-20.6939 Y-56.2953
G01 X-20.3414 Y-56.3468
G01 X-19.9867 Y-56.3649
G01 X-3.7904 Y-56.3649
G01 X-3.7904 Y-60.3351
G01 X-45.5351 Y-60.3351
G01 X-45.5351 Y-4.7082
G01 X-23.2273 Y-9.5947
G01 X-23.6538 Y-9.7799
G01 X-23.7190 Y-9.9080
G01 X-23.8733 Y-10.2688
G01 X-23.9910 Y-10.6400
G01 X-24.0805 Y-11.0532
G01 X-24.1273 Y-11.4471
G01 X-24.1370 Y-22.3740
G01 X-24.1240 Y-22.6977
G01 X-24.0484 Y-23.2152
G01 X-23.8992 Y-23.7501
G01 X-23.7020 Y-24.2249
G01 X-23.4479 Y-24.6680
G01 X-23.1430 Y-25.0719
G01 X-22.7840 Y-25.4397
G01 X-22.3614 Y-25.7817
G01 X-21.9053 Y-26.0617
G01 X-21.4840 Y-26.2533
G01 X-21.0386 Y-26.3966
G01 X-20.5497 Y-26.4957
G01 X-20.0760 Y-26.5357
G01 X-4.0625 Y-26.5370
G01 X-4.0625 Y-37.6630
G01 X-19.9757 Y-37.6630
G01 X-20.3184 Y-37.6777
G01 X-20.7648 Y-37.7412
G01 X-21.2073 Y-37.8548
G01 X-21.6049 Y-37.9978
G01 X-21.9867 Y-38.1822
G01 X-22.3480 Y-38.4063
G01 X-22.6797 Y-38.6638
G01 X-22.9838 Y-38.9553
G01 X-23.2821 Y-39.3040
G01 X-23.4578 Y-39.5498
G01 X-23.6155 Y-39.8094
G01 X-23.7522 Y-40.0780
G01 X-23.8693 Y-40.3583
G01 X-23.9691 Y-40.6604
G01 X-24.0465 Y-40.9757
G01 X-24.0982 Y-41.2679
G01 X-24.1286 Y-41.5656
G01 X-24.1370 Y-52.4740
G01 X-24.1214 Y-52.8281
G01 X-24.0747 Y-53.1805
G01 X-24.0012 Y-53.5122
G01 X-23.8839 Y-53.8940
G01 X-23.7555 Y-54.2119
G01 X-23.5957 Y-54.5264
G01 X-23.4125 Y-54.8207
G01 X-23.2052 Y-55.0976
G01 X-22.9748 Y-55.3559
G01 X-22.7249 Y-55.5921
G01 X-22.4245 Y-55.8361
G01 X-22.1160 Y-56.0427
G01 X-21.8060 Y-56.2121
G01 X-21.4840 Y-56.3533
G01 X-21.1493 Y-56.4663
G01 X-20.7994 Y-56.5517
G01 X-20.3917 Y-56.6153
G01 X-19.9910 Y-56.6370
G01 X-4.0625 Y-56.6370
G01 X-4.0625 Y-60.0630
G01 X-45.2630 Y-60.0630
G01 X-45.2630 Y-5.0464
G01 X-23.6538 Y-9.7799
G01 X-24.0476 Y-9.9722
G01 X-24.1805 Y-10.3226
G01 X-24.2840 Y-10.6901
G01 X-24.3616 Y-11.0879
G01 X-24.4021 Y-11.4798
G01 X-24.4092 Y-22.3786
G01 X-24.3884 Y-22.7964
G01 X-24.3014 Y-23.3318
G01 X-24.1391 Y-23.8885
G01 X-23.9293 Y-24.3791
G01 X-23.6616 Y-24.8382
G01 X-23.3420 Y-25.2578
G01 X-22.9650 Y-25.6430
G01 X-22.5227 Y-26.0010
G01 X-22.0459 Y-26.2952
G01 X-21.5967 Y-26.5014
G01 X-21.1221 Y-26.6561
G01 X-20.6021 Y-26.7631
G01 X-20.1037 Y-26.8072
G01 X-4.3347 Y-26.8092
G01 X-4.3347 Y-37.3908
G01 X-19.9786 Y-37.3908
G01 X-20.3594 Y-37.4081
G01 X-20.8280 Y-37.4763
G01 X-21.2947 Y-37.5969
G01 X-21.7153 Y-37.7490
G01 X-22.1176 Y-37.9436
G01 X-22.4952 Y-38.1772
G01 X-22.8535 Y-38.4543
G01 X-23.1754 Y-38.7618
G01 X-23.4863 Y-39.1233
G01 X-23.6784 Y-39.3899
G01 X-23.8474 Y-39.6665
G01 X-23.9959 Y-39.9565
G01 X-24.1192 Y-40.2496
G01 X-24.2209 Y-40.5520
G01 X-24.2987 Y-40.8547
G01 X-24.3618 Y-41.1891
G01 X-24.3988 Y-41.5284
G01 X-24.4092 Y-41.8228
G01 X-24.4092 Y-52.4740
G01 X-24.3956 Y-52.8157
G01 X-24.3548 Y-53.1563
G01 X-24.2898 Y-53.4811
G01 X-24.1920 Y-53.8306
G01 X-24.0835 Y-54.1361
G01 X-23.9472 Y-54.4431
G01 X-23.7910 Y-54.7323
G01 X-23.6123 Y-55.0102
G01 X-23.4092 Y-55.2780
G01 X-23.1822 Y-55.5329
G01 X-22.9469 Y-55.7592
G01 X-22.6543 Y-56.0037
G01 X-22.3852 Y-56.1948
G01 X-22.1030 Y-56.3643
G01 X-21.8053 Y-56.5134
G01 X-21.5006 Y-56.6377
G01 X-21.1406 Y-56.7512
G01 X-20.7576 Y-56.8373
G01 X-20.4002 Y-56.8880
G01 X-20.0414 Y-56.9086
G01 X-4.3347 Y-56.9092
G01 X-4.3347 Y-59.7908
G01 X-44.9908 Y-59.7908
G01 X-44.9908 Y-5.3846
G01 X-24.0476 Y-9.9722
G01 X-24.4162 Y-10.1701
G01 X-24.5171 Y-10.5001
G01 X-24.5969 Y-10.8505
G01 X-24.6491 Y-11.1835
G01 X-24.6764 Y-11.5152
G01 X-24.6814 Y-22.3813
G01 X-24.6529 Y-22.8833
G01 X-24.5570 Y-23.4340
G01 X-24.3837 Y-24.0126
G01 X-24.1625 Y-24.5210
G01 X-23.8799 Y-25.0012
G01 X-23.5369 Y-25.4484
G01 X-23.1491 Y-25.8434
G01 X-22.6881 Y-26.2173
G01 X-22.1969 Y-26.5231
G01 X-21.7168 Y-26.7466
G01 X-21.2091 Y-26.9146
G01 X-20.6582 Y-27.0299
G01 X-20.1212 Y-27.0789
G01 X-4.6069 Y-27.0814
G01 X-4.6069 Y-37.1186
G01 X-19.9789 Y-37.1186
G01 X-20.4011 Y-37.1387
G01 X-20.8868 Y-37.2105
G01 X-21.3773 Y-37.3375
G01 X-21.8161 Y-37.4961
G01 X-22.2424 Y-37.7016
G01 X-22.6434 Y-37.9489
G01 X-23.0167 Y-38.2357
G01 X-23.3513 Y-38.5518
G01 X-23.6816 Y-38.9313
G01 X-23.8833 Y-39.2069
G01 X-24.0659 Y-39.4999
G01 X-24.2255 Y-39.8052
G01 X-24.3617 Y-40.1218
G01 X-24.4722 Y-40.4424
G01 X-24.5589 Y-40.7710
G01 X-24.6289 Y-41.1350
G01 X-24.6691 Y-41.4915
G01 X-24.6814 Y-41.8224
G01 X-24.6814 Y-52.4740
G01 X-24.6669 Y-52.8372
G01 X-24.6232 Y-53.2016
G01 X-24.5541 Y-53.5459
G01 X-24.4481 Y-53.9235
G01 X-24.3282 Y-54.2572
G01 X-24.1847 Y-54.5767
G01 X-24.0146 Y-54.8890
G01 X-23.8215 Y-55.1859
G01 X-23.6010 Y-55.4731
G01 X-23.3610 Y-55.7395
G01 X-23.1063 Y-55.9816
G01 X-22.7904 Y-56.2421
G01 X-22.5002 Y-56.4446
G01 X-22.1932 Y-56.6251
G01 X-21.8777 Y-56.7791
G01 X-21.5406 Y-56.9124
G01 X-21.1782 Y-57.0228
G01 X-20.7827 Y-57.1094
G01 X-20.4147 Y-57.1600
G01 X-20.0458 Y-57.1808
G01 X-4.6069 Y-57.1814
G01 X-4.6069 Y-59.5186
G01 X-44.7186 Y-59.5186
G01 X-44.7186 Y-5.7228
G01 X-24.4162 Y-10.1701
G01 X-24.7644 Y-10.3724
G01 X-24.8936 Y-10.9660
G01 X-24.9498 Y-11.5374
G01 X-24.9535 Y-22.3862
G01 X-24.9161 Y-22.9755
G01 X-24.8085 Y-23.5514
G01 X-24.6230 Y-24.1501
G01 X-24.3856 Y-24.6821
G01 X-24.0899 Y-25.1765
G01 X-23.7347 Y-25.6358
G01 X-23.3298 Y-26.0470
G01 X-22.8524 Y-26.4344
G01 X-22.3408 Y-26.7547
G01 X-21.8325 Y-26.9935
G01 X-21.3023 Y-27.1713
G01 X-20.7123 Y-27.2970
G01 X-20.1413 Y-27.3506
G01 X-4.8790 Y-27.3535
G01 X-4.8790 Y-36.8465
G01 X-19.9792 Y-36.8465
G01 X-20.4587 Y-36.8708
G01 X-20.9664 Y-36.9491
G01 X-21.4770 Y-37.0835
G01 X-21.9336 Y-37.2503
G01 X-22.3745 Y-37.4637
G01 X-22.7944 Y-37.7224
G01 X-23.1842 Y-38.0209
G01 X-23.5379 Y-38.3532
G01 X-23.8797 Y-38.7432
G01 X-24.0967 Y-39.0366
G01 X-24.2921 Y-39.3474
G01 X-24.4625 Y-39.6701
G01 X-24.6083 Y-40.0048
G01 X-24.7277 Y-40.3470
G01 X-24.8211 Y-40.6968
G01 X-24.8955 Y-41.0785
G01 X-24.9389 Y-41.4508
G01 X-24.9535 Y-41.8220
G01 X-24.9535 Y-52.4740
G01 X-24.9377 Y-52.8653
G01 X-24.8906 Y-53.2529
G01 X-24.8124 Y-53.6357
G01 X-24.6999 Y-54.0297
G01 X-24.5709 Y-54.3828
G01 X-24.4137 Y-54.7273
G01 X-24.2317 Y-55.0560
G01 X-24.0230 Y-55.3721
G01 X-23.7894 Y-55.6721
G01 X-23.5266 Y-55.9593
G01 X-23.2032 Y-56.2580
G01 X-22.9149 Y-56.4889
G01 X-22.6002 Y-56.7034
G01 X-22.2730 Y-56.8908
G01 X-21.9317 Y-57.0524
G01 X-21.5762 Y-57.1880
G01 X-21.2103 Y-57.2954
G01 X-20.8033 Y-57.3821
G01 X-20.4240 Y-57.4325
G01 X-20.0503 Y-57.4529
G01 X-4.8790 Y-57.4535
G01 X-4.8790 Y-59.2465
G01 X-44.4465 Y-59.2465
G01 X-44.4465 Y-6.0611
G01 X-24.7644 Y-10.3724
G01 X-25.0959 Y-10.5784
G01 X-25.1832 Y-11.0681
G01 X-25.2228 Y-11.5575
G01 X-25.2257 Y-22.3896
G01 X-25.2136 Y-22.7247
G01 X-25.1787 Y-23.0662
G01 X-25.0624 Y-23.6571
G01 X-24.8665 Y-24.2756
G01 X-24.6178 Y-24.8255
G01 X-24.3065 Y-25.3419
G01 X-23.9376 Y-25.8172
G01 X-23.5177 Y-26.2440
G01 X-23.0228 Y-26.6471
G01 X-22.4954 Y-26.9804
G01 X-21.9537 Y-27.2380
G01 X-21.3907 Y-27.4293
G01 X-20.7666 Y-27.5640
G01 X-20.1656 Y-27.6220
G01 X-5.1512 Y-27.6257
G01 X-5.1512 Y-36.5743
G01 X-19.9822 Y-36.5743
G01 X-20.5072 Y-36.6022
G01 X-21.0341 Y-36.6852
G01 X-21.5634 Y-36.8253
G01 X-22.0396 Y-36.9996
G01 X-22.5032 Y-37.2239
G01 X-22.9419 Y-37.4935
G01 X-23.3476 Y-37.8027
G01 X-23.7198 Y-38.1497
G01 X-24.0750 Y-38.5517
G01 X-24.3057 Y-38.8602
G01 X-24.5128 Y-39.1856
G01 X-24.6948 Y-39.5252
G01 X-24.8511 Y-39.8788
G01 X-24.9789 Y-40.2385
G01 X-25.0799 Y-40.6078
G01 X-25.1611 Y-41.0155
G01 X-25.2080 Y-41.4017
G01 X-25.2257 Y-41.8184
G01 X-25.2257 Y-52.4740
G01 X-25.2090 Y-52.8872
G01 X-25.1587 Y-53.2998
G01 X-25.0761 Y-53.7030
G01 X-24.9561 Y-54.1220
G01 X-24.8174 Y-54.4989
G01 X-24.6490 Y-54.8651
G01 X-24.4498 Y-55.2211
G01 X-24.2282 Y-55.5528
G01 X-23.9740 Y-55.8751
G01 X-23.6950 Y-56.1758
G01 X-23.3582 Y-56.4836
G01 X-23.0451 Y-56.7309
G01 X-22.7072 Y-56.9573
G01 X-22.3548 Y-57.1548
G01 X-21.9854 Y-57.3251
G01 X-21.6018 Y-57.4661
G01 X-21.2296 Y-57.5710
G01 X-20.8223 Y-57.6549
G01 X-20.4395 Y-57.7044
G01 X-20.0548 Y-57.7250
G01 X-5.1512 Y-57.7257
G01 X-5.1512 Y-58.9743
G01 X-44.1743 Y-58.9743
G01 X-44.1743 Y-6.3993
G01 X-25.0959 Y-10.5784
G01 X-25.4155 Y-10.7870
G01 X-25.4702 Y-11.1808
G01 X-25.4956 Y-11.5727
G01 X-25.4978 Y-22.3972
G01 X-25.4822 Y-22.7835
G01 X-25.4397 Y-23.1640
G01 X-25.3159 Y-23.7633
G01 X-25.1067 Y-24.4089
G01 X-24.8453 Y-24.9775
G01 X-24.5219 Y-25.5090
G01 X-24.1363 Y-26.0034
G01 X-23.7005 Y-26.4457
G01 X-23.1873 Y-26.8641
G01 X-22.6430 Y-27.2098
G01 X-22.0690 Y-27.4850
G01 X-21.4758 Y-27.6881
G01 X-20.8198 Y-27.8311
G01 X-20.1867 Y-27.8936
G01 X-5.4233 Y-27.8978
G01 X-5.4233 Y-36.3022
G01 X-19.9827 Y-36.3022
G01 X-20.5601 Y-36.3341
G01 X-21.0988 Y-36.4207
G01 X-21.6480 Y-36.5666
G01 X-22.1431 Y-36.7479
G01 X-22.6220 Y-36.9786
G01 X-23.0828 Y-37.2601
G01 X-23.5096 Y-37.5832
G01 X-23.8987 Y-37.9434
G01 X-24.2690 Y-38.3589
G01 X-24.5158 Y-38.6856
G01 X-24.7341 Y-39.0249
G01 X-24.9287 Y-39.3843
G01 X-25.0942 Y-39.7537
G01 X-25.2314 Y-40.1341
G01 X-25.3390 Y-40.5210
G01 X-25.4248 Y-40.9413
G01 X-25.4774 Y-41.3575
G01 X-25.4978 Y-41.8178
G01 X-25.4978 Y-52.4740
G01 X-25.4799 Y-52.9126
G01 X-25.4261 Y-53.3510
G01 X-25.3386 Y-53.7751
G01 X-25.2103 Y-54.2204
G01 X-25.0623 Y-54.6188
G01 X-24.8825 Y-55.0063
G01 X-24.6700 Y-55.3826
G01 X-24.4295 Y-55.7387
G01 X-24.1552 Y-56.0817
G01 X-23.8631 Y-56.3924
G01 X-23.5049 Y-56.7161
G01 X-23.1692 Y-56.9771
G01 X-22.8082 Y-57.2144
G01 X-22.4242 Y-57.4245
G01 X-22.0325 Y-57.5997
G01 X-21.6243 Y-57.7445
G01 X-21.2475 Y-57.8465
G01 X-20.8280 Y-57.9298
G01 X-20.4425 Y-57.9774
G01 X-20.0551 Y-57.9972
G01 X-5.4233 Y-57.9978
G01 X-5.4233 Y-58.7022
G01 X-43.9022 Y-58.7022
G01 X-43.9022 Y-6.7375
G01 X-25.4155 Y-10.7870
G01 X-25.7230 Y-10.9983
G01 X-25.7685 Y-11.5998
G01 X-25.7699 Y-22.4058
G01 X-25.7515 Y-22.8310
G01 X-25.7008 Y-23.2570
G01 X-25.5663 Y-23.8799
G01 X-25.3478 Y-24.5394
G01 X-25.0752 Y-25.1247
G01 X-24.7347 Y-25.6797
G01 X-24.3349 Y-26.1897
G01 X-23.8832 Y-26.6473
G01 X-23.3577 Y-27.0767
G01 X-22.7960 Y-27.4360
G01 X-22.2010 Y-27.7250
G01 X-21.5666 Y-27.9453
G01 X-20.8910 Y-28.0953
G01 X-20.5544 Y-28.1401
G01 X-20.2171 Y-28.1647
G01 X-5.6955 Y-28.1700
G01 X-5.6955 Y-36.0300
G01 X-19.9831 Y-36.0300
G01 X-20.6139 Y-36.0663
G01 X-21.1712 Y-36.1579
G01 X-21.7413 Y-36.3106
G01 X-22.2563 Y-36.5003
G01 X-22.7509 Y-36.7390
G01 X-23.2293 Y-37.0307
G01 X-23.6718 Y-37.3641
G01 X-24.0783 Y-37.7378
G01 X-24.4584 Y-38.1607
G01 X-24.7145 Y-38.4950
G01 X-24.9501 Y-38.8558
G01 X-25.1618 Y-39.2417
G01 X-25.3377 Y-39.6299
G01 X-25.4850 Y-40.0337
G01 X-25.5990 Y-40.4381
G01 X-25.6906 Y-40.8810
G01 X-25.7465 Y-41.3108
G01 X-25.7700 Y-41.8172
G01 X-25.7700 Y-52.4740
G01 X-25.7512 Y-52.9347
G01 X-25.6942 Y-53.3980
G01 X-25.6007 Y-53.8488
G01 X-25.4645 Y-54.3186
G01 X-25.3043 Y-54.7456
G01 X-25.1091 Y-55.1606
G01 X-24.8835 Y-55.5546
G01 X-24.6289 Y-55.9268
G01 X-24.3393 Y-56.2847
G01 X-24.0248 Y-56.6148
G01 X-23.6475 Y-56.9516
G01 X-23.2802 Y-57.2319
G01 X-22.8964 Y-57.4785
G01 X-22.4890 Y-57.6958
G01 X-22.0705 Y-57.8772
G01 X-21.6356 Y-58.0254
G01 X-21.2728 Y-58.1199
G01 X-20.8627 Y-58.1998
G01 X-20.4892 Y-58.2465
G01 X-20.1130 Y-58.2682
G01 X-5.6955 Y-58.2700
G01 X-5.6955 Y-58.4300
G01 X-43.6300 Y-58.4300
G01 X-43.6300 Y-7.0758
G01 X-25.7230 Y-10.9983
G01 X-26.0198 Y-11.2119
G01 X-26.0402 Y-11.5756
G01 X-26.0422 Y-22.3802
G01 X-26.0292 Y-22.7655
G01 X-25.9830 Y-23.2102
G01 X-25.8997 Y-23.6673
G01 X-25.7700 Y-24.1547
G01 X-25.6248 Y-24.5783
G01 X-25.4464 Y-24.9938
G01 X-25.2351 Y-25.3973
G01 X-24.9928 Y-25.7847
G01 X-24.7230 Y-26.1504
G01 X-24.3224 Y-26.6027
G01 X-23.8727 Y-27.0179
G01 X-23.4115 Y-27.3722
G01 X-22.9199 Y-27.6786
G01 X-22.3944 Y-27.9384
G01 X-21.8501 Y-28.1439
G01 X-21.3023 Y-28.2922
G01 X-20.6976 Y-28.3979
G01 X-20.3445 Y-28.4305
G01 X-19.9881 Y-28.4421
G01 X-5.9677 Y-28.4422
G01 X-5.9677 Y-35.7578
G01 X-19.9922 Y-35.7579
G01 X-20.3777 Y-35.7716
G01 X-20.7665 Y-35.8110
G01 X-21.3656 Y-35.9232
G01 X-22.0003 Y-36.1098
G01 X-22.5615 Y-36.3384
G01 X-23.0994 Y-36.6247
G01 X-23.6092 Y-36.9677
G01 X-24.0775 Y-37.3583
G01 X-24.4965 Y-37.7872
G01 X-24.9094 Y-38.2996
G01 X-25.1399 Y-38.6442
G01 X-25.3452 Y-39.0030
G01 X-25.5224 Y-39.3689
G01 X-25.6778 Y-39.7563
G01 X-25.8096 Y-40.1677
G01 X-25.9124 Y-40.5912
G01 X-25.9836 Y-40.9940
G01 X-26.0269 Y-41.4018
G01 X-26.0422 Y-41.8203
G01 X-26.0421 Y-52.4922
G01 X-26.0266 Y-52.9031
G01 X-25.9842 Y-53.3015
G01 X-25.9159 Y-53.6924
G01 X-25.8220 Y-54.0763
G01 X-25.6902 Y-54.5003
G01 X-25.5403 Y-54.8860
G01 X-25.3713 Y-55.2460
G01 X-25.1758 Y-55.5985
G01 X-24.9582 Y-55.9350
G01 X-24.7178 Y-56.2569
G01 X-24.4518 Y-56.5666
G01 X-24.1692 Y-56.8534
G01 X-23.8338 Y-57.1506
G01 X-23.5176 Y-57.3969
G01 X-23.1820 Y-57.6235
G01 X-22.8368 Y-57.8241
G01 X-22.4738 Y-58.0033
G01 X-22.0981 Y-58.1578
G01 X-43.3578 Y-58.1578
G01 X-43.3578 Y-7.4140
G01 X-26.0198 Y-11.2119
G01 X-26.3071 Y-11.4276
G01 X-26.3125 Y-11.5787
G01 X-26.3143 Y-22.3805
G01 X-26.2973 Y-22.8322
G01 X-26.2437 Y-23.3078
G01 X-26.1541 Y-23.7758
G01 X-26.0155 Y-24.2824
G01 X-25.8594 Y-24.7260
G01 X-25.6646 Y-25.1678
G01 X-25.4403 Y-25.5861
G01 X-25.1832 Y-25.9882
G01 X-24.8994 Y-26.3653
G01 X-24.4869 Y-26.8235
G01 X-24.0176 Y-27.2517
G01 X-23.5401 Y-27.6141
G01 X-23.0363 Y-27.9253
G01 X-22.4943 Y-28.1918
G01 X-21.9339 Y-28.4028
G01 X-21.3703 Y-28.5559
G01 X-20.7488 Y-28.6658
G01 X-20.3742 Y-28.7014
G01 X-19.9924 Y-28.7143
G01 X-6.2398 Y-28.7143
G01 X-6.2398 Y-35.4857
G01 X-19.9930 Y-35.4857
G01 X-20.3962 Y-35.5001
G01 X-20.8026 Y-35.5412
G01 X-21.4174 Y-35.6557
G01 X-22.0535 Y-35.8403
G01 X-22.6316 Y-36.0710
G01 X-23.1781 Y-36.3551
G01 X-23.6977 Y-36.6947
G01 X-24.1812 Y-37.0848
G01 X-24.6112 Y-37.5080
G01 X-25.0363 Y-38.0137
G01 X-25.2913 Y-38.3753
G01 X-25.5202 Y-38.7545
G01 X-25.7200 Y-39.1460
G01 X-25.8918 Y-39.5510
G01 X-26.0346 Y-39.9675
G01 X-26.1476 Y-40.3932
G01 X-26.2381 Y-40.8562
G01 X-26.2926 Y-41.3073
G01 X-26.3143 Y-41.8159
G01 X-26.3143 Y-52.4740
G01 X-26.2902 Y-53.0206
G01 X-26.2463 Y-53.3902
G01 X-26.1813 Y-53.7527
G01 X-26.0950 Y-54.1101
G01 X-25.9785 Y-54.4978
G01 X-25.8546 Y-54.8379
G01 X-25.7094 Y-55.1740
G01 X-25.5469 Y-55.4969
G01 X-25.3624 Y-55.8153
G01 X-25.1599 Y-56.1214
G01 X-24.9400 Y-56.4147
G01 X-24.7072 Y-56.6901
G01 X-24.4545 Y-56.9558
G01 X-24.1932 Y-57.2004
G01 X-23.8790 Y-57.4645
G01 X-23.5820 Y-57.6851
G01 X-23.2759 Y-57.8855
G01 X-43.0857 Y-57.8857
G01 X-43.0857 Y-7.7522
G01 X-26.3071 Y-11.4276
G01 X-26.5859 Y-11.6451
G01 X-26.5865 Y-22.3844
G01 X-26.5650 Y-22.9010
G01 X-26.5054 Y-23.3959
G01 X-26.4082 Y-23.8839
G01 X-26.2612 Y-24.4083
G01 X-26.0888 Y-24.8851
G01 X-25.8836 Y-25.3389
G01 X-25.6427 Y-25.7783
G01 X-25.3706 Y-26.1949
G01 X-25.0634 Y-26.5941
G01 X-24.6380 Y-27.0571
G01 X-24.1593 Y-27.4878
G01 X-23.6705 Y-27.8546
G01 X-23.1508 Y-28.1729
G01 X-22.5964 Y-28.4442
G01 X-22.0219 Y-28.6604
G01 X-21.4407 Y-28.8190
G01 X-20.8037 Y-28.9331
G01 X-20.3976 Y-28.9726
G01 X-19.9934 Y-28.9864
G01 X-6.5120 Y-28.9865
G01 X-6.5120 Y-35.2135
G01 X-19.9984 Y-35.2136
G01 X-20.4224 Y-35.2291
G01 X-20.8500 Y-35.2730
G01 X-21.4751 Y-35.3897
G01 X-22.1199 Y-35.5754
G01 X-22.7033 Y-35.8046
G01 X-23.2681 Y-36.0927
G01 X-23.7964 Y-36.4305
G01 X-24.3022 Y-36.8287
G01 X-24.7541 Y-37.2623
G01 X-25.1839 Y-37.7598
G01 X-25.4611 Y-38.1390
G01 X-25.7101 Y-38.5375
G01 X-25.9295 Y-38.9526
G01 X-26.1176 Y-39.3809
G01 X-26.2742 Y-39.8213
G01 X-26.3986 Y-40.2712
G01 X-26.4970 Y-40.7525
G01 X-26.5590 Y-41.2305
G01 X-26.5865 Y-41.8194
G01 X-26.5773 Y-52.8174
G01 X-26.5054 Y-53.4959
G01 X-26.3623 Y-54.1645
G01 X-26.1422 Y-54.8493
G01 X-25.8586 Y-55.4886
G01 X-25.5143 Y-56.0837
G01 X-25.1113 Y-56.6360
G01 X-24.6517 Y-57.1436
G01 X-24.1309 Y-57.6112
G01 X-42.8135 Y-57.6135
G01 X-42.8135 Y-8.0904
G01 X-26.5859 Y-11.6451
G01 X-26.8586 Y-11.8640
G01 X-26.8586 Y-22.3910
G01 X-26.8318 Y-22.9753
G01 X-26.7665 Y-23.4856
G01 X-26.6595 Y-24.0025
G01 X-26.5025 Y-24.5469
G01 X-26.3187 Y-25.0416
G01 X-26.1010 Y-25.5123
G01 X-25.8428 Y-25.9732
G01 X-25.5538 Y-26.4064
G01 X-25.2316 Y-26.8169
G01 X-24.7925 Y-27.2868
G01 X-24.2945 Y-27.7290
G01 X-23.7943 Y-28.0994
G01 X-23.2574 Y-28.4248
G01 X-22.6880 Y-28.7010
G01 X-22.1016 Y-28.9207
G01 X-21.5072 Y-29.0830
G01 X-20.8565 Y-29.2007
G01 X-20.4344 Y-29.2429
G01 X-19.9998 Y-29.2586
G01 X-6.7841 Y-29.2586
G01 X-6.7841 Y-34.9414
G01 X-20.0034 Y-34.9414
G01 X-20.4613 Y-34.9590
G01 X-20.9060 Y-35.0060
G01 X-21.5439 Y-35.1263
G01 X-22.2071 Y-35.3176
G01 X-22.8046 Y-35.5518
G01 X-23.3797 Y-35.8430
G01 X-23.9232 Y-36.1869
G01 X-24.4391 Y-36.5872
G01 X-24.9049 Y-37.0262
G01 X-25.3499 Y-37.5313
G01 X-25.6451 Y-37.9261
G01 X-25.9128 Y-38.3448
G01 X-26.1485 Y-38.7810
G01 X-26.3505 Y-39.2307
G01 X-26.5184 Y-39.6914
G01 X-26.6499 Y-40.1525
G01 X-26.7583 Y-40.6661
G01 X-26.8257 Y-41.1600
G01 X-26.8586 Y-41.8093
G01 X-26.8563 Y-52.6506
G01 X-26.8077 Y-53.3014
G01 X-26.6977 Y-53.9398
G01 X-26.5128 Y-54.6150
G01 X-26.2881 Y-55.2138
G01 X-26.0014 Y-55.8002
G01 X-25.6649 Y-56.3483
G01 X-25.2756 Y-56.8647
G01 X-24.8410 Y-57.3391
G01 X-42.5414 Y-57.3413
G01 X-42.5414 Y-8.4287
G01 X-26.8586 Y-11.8640
G01 X-27.1308 Y-12.0830
G01 X-27.1308 Y-22.3916
G01 X-27.0976 Y-23.0557
G01 X-27.0241 Y-23.5942
G01 X-26.9087 Y-24.1269
G01 X-26.7407 Y-24.6928
G01 X-26.5411 Y-25.2145
G01 X-26.3051 Y-25.7101
G01 X-26.0343 Y-26.1808
G01 X-25.7265 Y-26.6313
G01 X-25.3846 Y-27.0564
G01 X-24.9394 Y-27.5232
G01 X-24.4239 Y-27.9743
G01 X-23.9096 Y-28.3496
G01 X-23.3682 Y-28.6744
G01 X-22.7918 Y-28.9526
G01 X-22.1899 Y-29.1782
G01 X-21.5824 Y-29.3450
G01 X-20.9228 Y-29.4664
G01 X-20.4651 Y-29.5136
G01 X-20.0033 Y-29.5307
G01 X-7.0563 Y-29.5308
G01 X-7.0563 Y-34.6692
G01 X-20.0063 Y-34.6693
G01 X-20.4917 Y-34.6883
G01 X-20.9641 Y-34.7393
G01 X-21.6154 Y-34.8635
G01 X-22.2943 Y-35.0598
G01 X-22.9078 Y-35.2998
G01 X-23.4966 Y-35.5964
G01 X-24.0598 Y-35.9503
G01 X-24.5867 Y-36.3554
G01 X-25.0669 Y-36.8023
G01 X-25.5237 Y-37.3137
G01 X-25.8388 Y-37.7281
G01 X-26.1160 Y-38.1541
G01 X-26.3638 Y-38.6030
G01 X-26.5816 Y-39.0770
G01 X-26.7590 Y-39.5516
G01 X-26.9042 Y-40.0477
G01 X-27.0193 Y-40.5790
G01 X-27.0920 Y-41.0895
G01 X-27.1308 Y-41.8046
G01 X-27.1308 Y-52.4955
G01 X-27.1018 Y-53.1111
G01 X-27.0173 Y-53.7318
G01 X-26.8829 Y-54.3245
G01 X-26.6844 Y-54.9532
G01 X-26.4477 Y-55.5227
G01 X-26.1621 Y-56.0691
G01 X-25.8359 Y-56.5795
G01 X-25.4612 Y-57.0669
G01 X-42.2692 Y-57.0691
G01 X-42.2692 Y-8.7669
G01 X-27.1308 Y-12.0830
G01 X-27.4030 Y-12.3020
G01 X-27.4029 Y-22.3963
G01 X-27.3630 Y-23.1363
G01 X-27.2825 Y-23.6945
G01 X-27.1582 Y-24.2485
G01 X-26.9792 Y-24.8365
G01 X-26.7680 Y-25.3752
G01 X-26.5189 Y-25.8878
G01 X-26.2307 Y-26.3793
G01 X-25.9036 Y-26.8487
G01 X-25.5397 Y-27.2923
G01 X-25.0803 Y-27.7647
G01 X-24.5572 Y-28.2161
G01 X-24.0336 Y-28.5939
G01 X-23.4723 Y-28.9274
G01 X-22.8779 Y-29.2118
G01 X-22.2653 Y-29.4398
G01 X-21.6429 Y-29.6104
G01 X-20.9721 Y-29.7344
G01 X-20.4937 Y-29.7844
G01 X-20.0094 Y-29.8029
G01 X-7.3285 Y-29.8030
G01 X-7.3285 Y-34.3970
G01 X-20.0150 Y-34.3972
G01 X-20.5309 Y-34.4184
G01 X-21.0372 Y-34.4749
G01 X-21.7129 Y-34.6072
G01 X-22.3961 Y-34.8069
G01 X-23.0233 Y-35.0533
G01 X-23.6226 Y-35.3551
G01 X-24.1952 Y-35.7130
G01 X-24.7357 Y-36.1251
G01 X-25.2327 Y-36.5828
G01 X-25.6953 Y-37.0942
G01 X-26.0774 Y-37.5943
G01 X-26.4096 Y-38.1161
G01 X-26.6944 Y-38.6598
G01 X-26.9380 Y-39.2401
G01 X-27.1310 Y-39.8404
G01 X-27.2776 Y-40.4792
G01 X-27.3657 Y-41.0896
G01 X-27.4020 Y-41.7092
G01 X-27.4029 Y-52.4923
G01 X-27.3729 Y-53.1358
G01 X-27.3124 Y-53.6204
G01 X-27.2194 Y-54.1010
G01 X-27.0808 Y-54.6210
G01 X-26.9298 Y-55.0744
G01 X-26.7450 Y-55.5270
G01 X-26.5293 Y-55.9684
G01 X-26.2859 Y-56.3917
G01 X-26.0178 Y-56.7935
G01 X-41.9970 Y-56.7969
G01 X-41.9970 Y-9.1051
G01 X-27.4030 Y-12.3020
G01 X-27.6751 Y-12.5210
G01 X-27.6751 Y-22.4026
G01 X-27.6625 Y-22.8105
G01 X-27.6278 Y-23.2191
G01 X-27.5403 Y-23.7966
G01 X-27.4064 Y-24.3735
G01 X-27.2185 Y-24.9765
G01 X-26.9927 Y-25.5399
G01 X-26.7246 Y-26.0795
G01 X-26.4198 Y-26.5880
G01 X-26.0744 Y-27.0734
G01 X-25.6920 Y-27.5301
G01 X-25.2226 Y-28.0041
G01 X-24.6797 Y-28.4658
G01 X-24.1432 Y-28.8473
G01 X-23.5695 Y-29.1840
G01 X-22.9662 Y-29.4699
G01 X-22.3424 Y-29.7009
G01 X-21.7105 Y-29.8741
G01 X-21.0316 Y-30.0009
G01 X-20.5202 Y-30.0553
G01 X-20.0109 Y-30.0750
G01 X-7.6006 Y-30.0751
G01 X-7.6006 Y-34.1249
G01 X-20.0202 Y-34.1250
G01 X-20.5641 Y-34.1480
G01 X-21.1074 Y-34.2102
G01 X-21.7879 Y-34.3453
G01 X-22.4878 Y-34.5506
G01 X-23.1296 Y-34.8027
G01 X-23.7439 Y-35.1110
G01 X-24.3368 Y-35.4800
G01 X-24.8905 Y-35.8998
G01 X-25.4042 Y-36.3693
G01 X-25.8750 Y-36.8850
G01 X-26.2635 Y-37.3859
G01 X-26.6106 Y-37.9207
G01 X-26.9113 Y-38.4824
G01 X-27.1619 Y-39.0626
G01 X-27.3686 Y-39.6799
G01 X-27.5247 Y-40.3241
G01 X-27.6235 Y-40.9437
G01 X-27.6709 Y-41.5763
G01 X-27.6751 Y-52.4860
G01 X-27.6529 Y-53.0533
G01 X-27.6033 Y-53.5144
G01 X-27.5252 Y-53.9732
G01 X-27.4226 Y-54.4134
G01 X-27.2840 Y-54.8841
G01 X-27.1323 Y-55.3075
G01 X-26.9538 Y-55.7254
G01 X-26.7536 Y-56.1261
G01 X-26.5262 Y-56.5206
G01 X-41.7249 Y-56.5246
G01 X-41.7249 Y-9.4434
G01 X-27.6751 Y-12.5210
G01 X-27.9473 Y-12.7400
G01 X-27.9467 Y-22.4673
G01 X-27.9088 Y-23.1494
G01 X-27.8137 Y-23.8153
G01 X-27.6437 Y-24.5357
G01 X-27.3880 Y-25.3009
G01 X-27.0802 Y-25.9883
G01 X-26.7055 Y-26.6471
G01 X-26.2726 Y-27.2620
G01 X-25.7786 Y-27.8370
G01 X-25.2412 Y-28.3532
G01 X-24.6149 Y-28.8544
G01 X-24.1747 Y-29.1497
G01 X-23.7226 Y-29.4108
G01 X-23.2487 Y-29.6437
G01 X-22.7531 Y-29.8469
G01 X-22.2508 Y-30.0139
G01 X-21.7489 Y-30.1445
G01 X-21.2062 Y-30.2499
G01 X-20.6720 Y-30.3161
G01 X-19.9880 Y-30.3473
G01 X-7.8728 Y-30.3473
G01 X-7.8728 Y-33.8527
G01 X-19.9865 Y-33.8527
G01 X-20.6059 Y-33.8783
G01 X-21.1159 Y-33.9363
G01 X-21.6089 Y-34.0250
G01 X-22.0894 Y-34.1433
G01 X-22.6174 Y-34.3074
G01 X-23.0809 Y-34.4850
G01 X-23.5358 Y-34.6934
G01 X-23.9780 Y-34.9312
G01 X-24.3952 Y-35.1909
G01 X-24.7365 Y-35.4318
G01 X-25.0753 Y-35.6995
G01 X-25.3933 Y-35.9803
G01 X-25.6942 Y-36.2764
G01 X-25.9694 Y-36.5773
G01 X-26.2804 Y-36.9529
G01 X-26.5341 Y-37.2977
G01 X-26.7680 Y-37.6548
G01 X-26.9828 Y-38.0255
G01 X-27.1742 Y-38.4013
G01 X-27.3451 Y-38.7867
G01 X-27.4973 Y-39.1872
G01 X-27.6253 Y-39.5880
G01 X-27.7307 Y-39.9909
G01 X-27.8223 Y-40.4315
G01 X-27.8875 Y-40.8595
G01 X-27.9313 Y-41.3262
G01 X-27.9472 Y-41.7952
G01 X-27.9473 Y-52.4820
G01 X-27.9342 Y-52.9261
G01 X-27.8980 Y-53.3513
G01 X-27.8377 Y-53.7802
G01 X-27.7556 Y-54.1974
G01 X-27.6514 Y-54.6084
G01 X-27.5188 Y-55.0408
G01 X-27.3693 Y-55.4480
G01 X-27.1939 Y-55.8545
G01 X-26.9967 Y-56.2486
G01 X-41.4527 Y-56.2524
G01 X-41.4527 Y-9.7816
G01 X-27.9473 Y-12.7400
G01 X-28.2194 Y-12.9589
G01 X-28.2187 Y-22.4840
G01 X-28.1755 Y-23.2168
G01 X-28.0677 Y-23.9362
G01 X-27.9775 Y-24.3409
G01 X-27.8669 Y-24.7420
G01 X-27.6155 Y-25.4654
G01 X-27.2902 Y-26.1754
G01 X-26.9054 Y-26.8396
G01 X-26.4505 Y-27.4761
G01 X-25.9432 Y-28.0588
G01 X-25.6520 Y-28.3478
G01 X-25.3411 Y-28.6269
G01 X-24.7470 Y-29.0947
G01 X-24.2946 Y-29.3956
G01 X-23.8244 Y-29.6649
G01 X-23.3411 Y-29.9006
G01 X-22.8435 Y-30.1036
G01 X-22.3282 Y-30.2749
G01 X-21.8138 Y-30.4088
G01 X-21.2567 Y-30.5174
G01 X-20.7156 Y-30.5854
G01 X-19.9950 Y-30.6194
G01 X-8.1449 Y-30.6194
G01 X-8.1449 Y-33.5806
G01 X-19.9942 Y-33.5806
G01 X-20.6718 Y-33.6106
G01 X-21.2001 Y-33.6737
G01 X-21.7173 Y-33.7700
G01 X-22.2105 Y-33.8947
G01 X-22.7540 Y-34.0669
G01 X-23.2285 Y-34.2520
G01 X-23.7054 Y-34.4740
G01 X-24.1635 Y-34.7244
G01 X-24.5999 Y-35.0005
G01 X-24.9474 Y-35.2499
G01 X-25.2789 Y-35.5151
G01 X-25.5984 Y-35.7995
G01 X-25.9053 Y-36.1033
G01 X-26.2337 Y-36.4668
G01 X-26.4996 Y-36.7914
G01 X-26.7576 Y-37.1423
G01 X-26.9925 Y-37.5004
G01 X-27.2095 Y-37.8727
G01 X-27.4047 Y-38.2524
G01 X-27.5815 Y-38.6462
G01 X-27.7357 Y-39.0449
G01 X-27.8677 Y-39.4478
G01 X-27.9802 Y-39.8639
G01 X-28.0749 Y-40.3014
G01 X-28.1452 Y-40.7307
G01 X-28.1992 Y-41.2542
G01 X-28.2193 Y-41.7859
G01 X-28.2108 Y-52.8460
G01 X-28.1347 Y-53.6438
G01 X-27.9819 Y-54.4232
G01 X-27.7409 Y-55.2318
G01 X-27.4373 Y-55.9765
G01 X-41.1806 Y-55.9802
G01 X-41.1806 Y-10.1198
G01 X-28.2194 Y-12.9589
G01 X-28.4916 Y-13.1779
G01 X-28.4906 Y-22.5000
G01 X-28.4422 Y-23.2829
G01 X-28.3221 Y-24.0519
G01 X-28.2279 Y-24.4608
G01 X-28.1118 Y-24.8728
G01 X-27.8495 Y-25.6128
G01 X-27.5129 Y-26.3370
G01 X-27.1090 Y-27.0259
G01 X-26.6415 Y-27.6733
G01 X-26.1145 Y-28.2733
G01 X-25.8173 Y-28.5660
G01 X-25.4965 Y-28.8523
G01 X-24.8781 Y-29.3354
G01 X-24.4130 Y-29.6423
G01 X-23.9354 Y-29.9141
G01 X-23.4434 Y-30.1529
G01 X-22.9323 Y-30.3609
G01 X-22.4109 Y-30.5342
G01 X-21.8849 Y-30.6718
G01 X-21.3293 Y-30.7813
G01 X-20.7681 Y-30.8539
G01 X-19.9959 Y-30.8916
G01 X-8.4171 Y-30.8916
G01 X-8.4171 Y-33.3084
G01 X-19.9949 Y-33.3084
G01 X-20.7344 Y-33.3430
G01 X-21.2788 Y-33.4105
G01 X-21.8113 Y-33.5121
G01 X-22.3250 Y-33.6445
G01 X-22.8921 Y-33.8272
G01 X-23.3923 Y-34.0262
G01 X-23.8767 Y-34.2558
G01 X-24.3486 Y-34.5178
G01 X-24.8056 Y-34.8115
G01 X-25.1549 Y-35.0659
G01 X-25.4923 Y-35.3393
G01 X-25.8145 Y-35.6293
G01 X-26.1287 Y-35.9432
G01 X-26.4523 Y-36.3035
G01 X-26.7242 Y-36.6368
G01 X-26.9843 Y-36.9916
G01 X-27.2213 Y-37.3529
G01 X-27.4410 Y-37.7288
G01 X-27.6419 Y-38.1177
G01 X-27.8223 Y-38.5165
G01 X-27.9790 Y-38.9172
G01 X-28.1142 Y-39.3225
G01 X-28.2296 Y-39.7382
G01 X-28.3301 Y-40.1878
G01 X-28.4038 Y-40.6160
G01 X-28.4676 Y-41.1932
G01 X-28.4914 Y-41.7738
G01 X-28.4860 Y-52.7790
G01 X-28.4270 Y-53.5129
G01 X-28.3027 Y-54.2444
G01 X-28.1003 Y-55.0104
G01 X-27.8529 Y-55.7045
G01 X-40.9084 Y-55.7079
G01 X-40.9084 Y-10.4581
G01 X-28.4916 Y-13.1779
G01 X-28.7638 Y-13.3969
G01 X-28.7624 Y-22.5263
G01 X-28.7080 Y-23.3547
G01 X-28.6507 Y-23.7688
G01 X-28.5736 Y-24.1789
G01 X-28.4762 Y-24.5874
G01 X-28.3518 Y-25.0184
G01 X-28.0748 Y-25.7803
G01 X-27.7212 Y-26.5252
G01 X-27.3027 Y-27.2267
G01 X-26.8152 Y-27.8916
G01 X-26.2701 Y-28.5036
G01 X-25.9655 Y-28.7998
G01 X-25.6338 Y-29.0929
G01 X-24.9946 Y-29.5862
G01 X-24.5276 Y-29.8912
G01 X-24.0389 Y-30.1671
G01 X-23.5376 Y-30.4089
G01 X-23.0187 Y-30.6191
G01 X-22.4884 Y-30.7951
G01 X-21.9535 Y-30.9353
G01 X-21.3821 Y-31.0485
G01 X-20.8095 Y-31.1233
G01 X-20.0016 Y-31.1637
G01 X-8.6893 Y-31.1638
G01 X-8.6893 Y-33.0362
G01 X-20.0004 Y-33.0363
G01 X-20.8172 Y-33.0774
G01 X-21.3737 Y-33.1501
G01 X-21.9270 Y-33.2593
G01 X-22.5143 Y-33.4164
G01 X-23.0346 Y-33.5895
G01 X-23.5572 Y-33.8014
G01 X-24.0596 Y-34.0441
G01 X-24.5417 Y-34.3164
G01 X-25.0155 Y-34.6260
G01 X-25.3673 Y-34.8861
G01 X-25.7063 Y-35.1644
G01 X-26.0350 Y-35.4634
G01 X-26.3436 Y-35.7743
G01 X-26.6698 Y-36.1390
G01 X-26.9411 Y-36.4724
G01 X-27.2044 Y-36.8315
G01 X-27.4483 Y-37.2026
G01 X-27.6714 Y-37.5830
G01 X-27.8735 Y-37.9716
G01 X-28.0562 Y-38.3711
G01 X-28.2191 Y-38.7813
G01 X-28.3585 Y-39.1912
G01 X-28.4772 Y-39.6076
G01 X-28.5837 Y-40.0691
G01 X-28.6616 Y-40.5002
G01 X-28.7348 Y-41.1186
G01 X-28.7635 Y-41.7593
G01 X-28.7603 Y-52.7172
G01 X-28.7137 Y-53.4031
G01 X-28.6144 Y-54.0757
G01 X-28.4615 Y-54.7423
G01 X-28.2474 Y-55.4324
G01 X-40.6362 Y-55.4357
G01 X-40.6362 Y-10.7963
G01 X-28.7638 Y-13.3969
G01 X-29.0359 Y-13.6159
G01 X-29.0342 Y-22.5467
G01 X-29.0145 Y-22.9918
G01 X-28.9721 Y-23.4396
G01 X-28.9076 Y-23.8823
G01 X-28.8235 Y-24.3106
G01 X-28.5951 Y-25.1517
G01 X-28.3046 Y-25.9359
G01 X-28.1312 Y-26.3188
G01 X-27.9376 Y-26.6975
G01 X-27.5019 Y-27.4186
G01 X-27.0022 Y-28.0930
G01 X-26.7255 Y-28.4160
G01 X-26.4366 Y-28.7225
G01 X-26.1275 Y-29.0207
G01 X-25.7815 Y-29.3244
G01 X-25.1188 Y-29.8314
G01 X-24.6412 Y-30.1406
G01 X-24.1425 Y-30.4200
G01 X-23.6339 Y-30.6639
G01 X-23.0976 Y-30.8801
G01 X-22.5552 Y-31.0592
G01 X-22.0143 Y-31.2006
G01 X-21.4378 Y-31.3151
G01 X-20.8562 Y-31.3922
G01 X-20.4267 Y-31.4244
G01 X-20.0027 Y-31.4359
G01 X-8.9614 Y-31.4359
G01 X-8.9614 Y-32.7641
G01 X-20.0077 Y-32.7642
G01 X-20.4542 Y-32.7771
G01 X-20.8933 Y-32.8116
G01 X-21.4696 Y-32.8902
G01 X-22.0370 Y-33.0055
G01 X-22.6467 Y-33.1721
G01 X-23.1947 Y-33.3587
G01 X-23.7296 Y-33.5805
G01 X-24.2533 Y-33.8386
G01 X-24.7519 Y-34.1261
G01 X-25.2331 Y-34.4466
G01 X-25.5917 Y-34.7163
G01 X-25.9291 Y-34.9974
G01 X-26.2556 Y-35.2980
G01 X-26.5664 Y-35.6140
G01 X-26.8925 Y-35.9808
G01 X-27.1678 Y-36.3207
G01 X-27.4344 Y-36.6856
G01 X-27.6795 Y-37.0589
G01 X-27.9055 Y-37.4441
G01 X-28.1121 Y-37.8400
G01 X-28.2986 Y-38.2457
G01 X-28.4627 Y-38.6553
G01 X-28.6080 Y-39.0776
G01 X-28.7295 Y-39.4966
G01 X-28.8382 Y-39.9569
G01 X-28.9180 Y-40.3794
G01 X-29.0030 Y-41.0599
G01 X-29.0355 Y-41.7441
G01 X-29.0342 Y-52.6467
G01 X-28.9996 Y-53.2787
G01 X-28.9193 Y-53.9126
G01 X-28.7958 Y-54.5313
G01 X-28.6244 Y-55.1581
G01 X-40.3641 Y-55.1634
G01 X-40.3641 Y-11.1345
G01 X-29.0359 Y-13.6159
G01 X-29.3081 Y-13.8349
G01 X-29.3058 Y-22.5778
G01 X-29.2832 Y-23.0503
G01 X-29.2361 Y-23.5223
G01 X-29.1662 Y-23.9842
G01 X-29.0711 Y-24.4494
G01 X-28.8289 Y-25.3136
G01 X-28.6842 Y-25.7217
G01 X-28.5225 Y-26.1179
G01 X-28.3419 Y-26.5077
G01 X-28.1403 Y-26.8940
G01 X-27.9222 Y-27.2679
G01 X-27.6873 Y-27.6303
G01 X-27.4349 Y-27.9823
G01 X-27.1681 Y-28.3198
G01 X-26.8804 Y-28.6504
G01 X-26.5851 Y-28.9591
G01 X-26.2676 Y-29.2613
G01 X-25.9139 Y-29.5685
G01 X-25.2314 Y-30.0843
G01 X-24.7938 Y-30.3664
G01 X-24.3344 Y-30.6267
G01 X-23.8654 Y-30.8582
G01 X-23.3837 Y-31.0628
G01 X-22.8931 Y-31.2390
G01 X-22.3899 Y-31.3881
G01 X-21.8534 Y-31.5142
G01 X-21.3446 Y-31.6054
G01 X-20.6968 Y-31.6796
G01 X-20.0515 Y-31.7077
G01 X-9.2336 Y-31.7081
G01 X-9.2336 Y-32.4919
G01 X-20.0143 Y-32.4920
G01 X-20.4976 Y-32.5069
G01 X-20.9760 Y-32.5467
G01 X-21.5711 Y-32.6315
G01 X-22.1648 Y-32.7564
G01 X-22.7827 Y-32.9293
G01 X-23.3500 Y-33.1267
G01 X-23.9037 Y-33.3608
G01 X-24.4372 Y-33.6286
G01 X-24.9532 Y-33.9310
G01 X-25.4527 Y-34.2693
G01 X-25.8062 Y-34.5392
G01 X-26.1476 Y-34.8272
G01 X-26.4800 Y-35.1366
G01 X-26.7936 Y-35.4585
G01 X-27.1222 Y-35.8308
G01 X-27.3993 Y-36.1753
G01 X-27.6660 Y-36.5419
G01 X-27.9151 Y-36.9224
G01 X-28.1435 Y-37.3121
G01 X-28.3512 Y-37.7094
G01 X-28.5387 Y-38.1152
G01 X-28.7078 Y-38.5337
G01 X-28.8568 Y-38.9620
G01 X-28.9814 Y-39.3849
G01 X-29.0828 Y-39.8005
G01 X-29.1759 Y-40.2720
G01 X-29.2708 Y-40.9995
G01 X-29.3075 Y-41.7289
G01 X-29.3073 Y-52.5931
G01 X-29.2817 Y-53.1699
G01 X-29.2200 Y-53.7438
G01 X-29.1221 Y-54.3151
G01 X-28.9865 Y-54.8861
G01 X-40.0919 Y-54.8912
G01 X-40.0919 Y-11.4727
G01 X-29.3081 Y-13.8349
G01 X-29.5802 Y-14.0539
G01 X-29.5771 Y-22.6140
G01 X-29.5515 Y-23.1116
G01 X-29.5005 Y-23.6010
G01 X-29.4229 Y-24.0940
G01 X-29.3197 Y-24.5812
G01 X-29.0653 Y-25.4651
G01 X-28.9162 Y-25.8765
G01 X-28.7474 Y-26.2826
G01 X-28.5621 Y-26.6762
G01 X-28.3511 Y-27.0750
G01 X-28.1259 Y-27.4559
G01 X-27.8820 Y-27.8276
G01 X-27.6252 Y-28.1818
G01 X-27.3470 Y-28.5302
G01 X-27.0534 Y-28.8644
G01 X-26.7493 Y-29.1797
G01 X-26.4265 Y-29.4846
G01 X-26.0635 Y-29.7980
G01 X-25.7151 Y-30.0723
G01 X-25.3504 Y-30.3326
G01 X-24.8675 Y-30.6395
G01 X-24.3701 Y-30.9151
G01 X-23.8621 Y-31.1581
G01 X-23.3296 Y-31.3747
G01 X-22.7957 Y-31.5553
G01 X-22.2429 Y-31.7060
G01 X-21.6594 Y-31.8292
G01 X-21.0943 Y-31.9137
G01 X-20.5598 Y-31.9621
G01 X-20.0219 Y-31.9801
G01 X-9.5057 Y-31.9802
G01 X-9.5057 Y-32.2198
G01 X-20.0182 Y-32.2199
G01 X-20.5445 Y-32.2370
G01 X-21.0668 Y-32.2830
G01 X-21.6741 Y-32.3735
G01 X-22.2812 Y-32.5048
G01 X-22.9169 Y-32.6862
G01 X-23.5112 Y-32.8974
G01 X-24.0852 Y-33.1452
G01 X-24.6355 Y-33.4269
G01 X-25.1724 Y-33.7480
G01 X-25.6774 Y-34.0965
G01 X-26.0337 Y-34.3733
G01 X-26.3765 Y-34.6667
G01 X-26.7050 Y-34.9761
G01 X-27.0183 Y-35.3008
G01 X-27.3465 Y-35.6747
G01 X-27.6287 Y-36.0273
G01 X-27.8972 Y-36.3978
G01 X-28.1493 Y-36.7837
G01 X-28.3788 Y-37.1751
G01 X-28.5893 Y-37.5771
G01 X-28.7820 Y-37.9922
G01 X-28.9530 Y-38.4127
G01 X-29.1006 Y-38.8312
G01 X-29.2305 Y-39.2639
G01 X-29.3373 Y-39.6915
G01 X-29.4332 Y-40.1632
G01 X-29.5389 Y-40.9422
G01 X-29.5796 Y-41.7162
G01 X-29.5800 Y-52.5382
G01 X-29.5618 Y-53.0642
G01 X-29.5156 Y-53.5787
G01 X-29.4408 Y-54.0937
G01 X-29.3359 Y-54.6124
G01 X-39.8198 Y-54.6188
G01 X-39.8198 Y-11.8110
G01 X-29.5802 Y-14.0539
G01 X-29.8524 Y-14.2729
G01 X-29.8423 Y-22.8154
G01 X-29.8122 Y-23.2577
G01 X-29.7600 Y-23.7132
G01 X-29.6890 Y-24.1516
G01 X-29.5955 Y-24.5976
G01 X-29.4836 Y-25.0303
G01 X-29.3377 Y-25.5085
G01 X-29.1859 Y-25.9337
G01 X-29.0151 Y-26.3502
G01 X-28.7559 Y-26.8959
G01 X-28.4605 Y-27.4297
G01 X-28.1333 Y-27.9424
G01 X-27.7761 Y-28.4319
G01 X-27.3908 Y-28.8966
G01 X-26.9726 Y-29.3414
G01 X-26.5422 Y-29.7462
G01 X-26.0505 Y-30.1579
G01 X-25.5675 Y-30.5138
G01 X-25.0630 Y-30.8397
G01 X-24.5383 Y-31.1345
G01 X-23.9976 Y-31.3957
G01 X-23.4407 Y-31.6237
G01 X-22.8752 Y-31.8156
G01 X-22.3010 Y-31.9720
G01 X-21.6910 Y-32.1000
G01 X-22.3311 Y-32.2368
G01 X-22.9783 Y-32.4202
G01 X-23.5750 Y-32.6301
G01 X-24.1627 Y-32.8809
G01 X-24.7337 Y-33.1703
G01 X-25.2852 Y-33.4970
G01 X-25.8195 Y-33.8631
G01 X-26.3252 Y-34.2614
G01 X-26.8025 Y-34.6911
G01 X-27.2478 Y-35.1483
G01 X-27.6969 Y-35.6727
G01 X-28.0884 Y-36.1959
G01 X-28.4397 Y-36.7370
G01 X-28.7550 Y-37.3014
G01 X-29.0315 Y-37.8835
G01 X-29.2686 Y-38.4817
G01 X-29.5069 Y-39.2432
G01 X-29.6864 Y-40.0346
G01 X-29.7993 Y-40.8108
G01 X-29.8493 Y-41.5817
G01 X-29.8515 Y-52.6058
G01 X-29.8006 Y-53.4770
G01 X-29.6724 Y-54.3388
G01 X-39.5476 Y-54.3465
G01 X-39.5476 Y-12.1492
G01 X-29.8524 Y-14.2729
G01 X-30.1246 Y-14.4919
G01 X-30.1177 Y-22.7440
G01 X-30.0501 Y-23.5933
G01 X-29.9107 Y-24.4336
G01 X-29.6861 Y-25.3084
G01 X-29.4137 Y-26.0991
G01 X-29.1896 Y-26.6262
G01 X-28.9396 Y-27.1324
G01 X-28.6578 Y-27.6298
G01 X-28.3479 Y-28.1106
G01 X-28.0089 Y-28.5759
G01 X-27.6455 Y-29.0189
G01 X-27.2617 Y-29.4360
G01 X-26.8553 Y-29.8303
G01 X-26.3959 Y-30.2294
G01 X-25.9502 Y-30.5755
G01 X-25.4753 Y-30.9029
G01 X-24.9885 Y-31.1988
G01 X-24.4795 Y-31.4697
G01 X-23.9546 Y-31.7114
G01 X-23.4167 Y-31.9224
G01 X-22.8679 Y-32.1019
G01 X-23.4512 Y-32.2930
G01 X-24.0153 Y-32.5165
G01 X-24.5644 Y-32.7735
G01 X-25.0993 Y-33.0646
G01 X-25.6144 Y-33.3869
G01 X-26.1112 Y-33.7415
G01 X-26.5839 Y-34.1242
G01 X-27.0360 Y-34.5383
G01 X-27.4629 Y-34.9804
G01 X-27.8872 Y-35.4750
G01 X-28.2548 Y-35.9595
G01 X-28.5946 Y-36.4690
G01 X-28.9017 Y-36.9965
G01 X-29.1777 Y-37.5453
G01 X-29.4174 Y-38.1042
G01 X-29.6256 Y-38.6857
G01 X-29.8237 Y-39.3822
G01 X-29.9807 Y-40.1340
G01 X-30.0777 Y-40.8588
G01 X-30.1216 Y-41.5849
G01 X-30.1241 Y-52.5700
G01 X-30.0887 Y-53.3202
G01 X-29.9972 Y-54.0669
G01 X-39.2754 Y-54.0741
G01 X-39.2754 Y-12.4874
G01 X-30.1246 Y-14.4919
G01 X-30.3967 Y-14.7109
G01 X-30.3913 Y-22.7073
G01 X-30.3311 Y-23.5343
G01 X-30.2047 Y-24.3532
G01 X-30.0184 Y-25.1393
G01 X-29.7555 Y-25.9644
G01 X-29.5543 Y-26.4745
G01 X-29.3228 Y-26.9799
G01 X-29.0681 Y-27.4655
G01 X-28.7862 Y-27.9396
G01 X-28.4812 Y-28.3953
G01 X-28.1463 Y-28.8418
G01 X-27.7942 Y-29.2621
G01 X-27.4179 Y-29.6654
G01 X-27.0184 Y-30.0500
G01 X-26.5656 Y-30.4421
G01 X-26.1372 Y-30.7759
G01 X-25.6886 Y-31.0886
G01 X-25.2203 Y-31.3793
G01 X-24.7329 Y-31.6467
G01 X-24.2303 Y-31.8880
G01 X-23.7166 Y-32.1013
G01 X-24.2529 Y-32.3237
G01 X-24.7879 Y-32.5823
G01 X-25.2984 Y-32.8661
G01 X-25.7886 Y-33.1760
G01 X-26.2657 Y-33.5171
G01 X-26.7227 Y-33.8848
G01 X-27.1636 Y-34.2832
G01 X-27.5711 Y-34.6961
G01 X-27.9848 Y-35.1651
G01 X-28.3431 Y-35.6186
G01 X-28.6859 Y-36.1073
G01 X-28.9970 Y-36.6101
G01 X-29.2787 Y-37.1301
G01 X-29.5335 Y-37.6730
G01 X-29.7515 Y-38.2171
G01 X-29.9404 Y-38.7797
G01 X-30.1199 Y-39.4509
G01 X-30.2651 Y-40.1855
G01 X-30.3529 Y-40.8776
G01 X-30.3936 Y-41.5744
G01 X-30.3965 Y-52.5437
G01 X-30.3735 Y-53.1637
G01 X-30.3119 Y-53.7926
G01 X-39.0033 Y-53.8016
G01 X-39.0033 Y-12.8257
G01 X-30.3967 Y-14.7109
G01 X-30.6689 Y-14.9299
G01 X-30.6644 Y-22.6790
G01 X-30.6098 Y-23.4895
G01 X-30.4935 Y-24.2912
G01 X-30.3206 Y-25.0648
G01 X-30.0755 Y-25.8757
G01 X-29.8856 Y-26.3854
G01 X-29.6749 Y-26.8736
G01 X-29.4388 Y-27.3526
G01 X-29.1799 Y-27.8173
G01 X-28.8949 Y-28.2729
G01 X-28.5867 Y-28.7140
G01 X-28.2591 Y-29.1355
G01 X-27.9093 Y-29.5415
G01 X-27.5381 Y-29.9305
G01 X-27.1486 Y-30.2993
G01 X-26.7099 Y-30.6758
G01 X-26.2762 Y-31.0115
G01 X-25.8323 Y-31.3199
G01 X-25.3783 Y-31.6022
G01 X-24.9077 Y-31.8627
G01 X-24.4204 Y-32.1007
G01 X-24.9420 Y-32.3557
G01 X-25.4468 Y-32.6376
G01 X-25.9355 Y-32.9468
G01 X-26.4051 Y-33.2812
G01 X-26.8511 Y-33.6368
G01 X-27.2810 Y-34.0194
G01 X-27.6951 Y-34.4308
G01 X-28.0831 Y-34.8606
G01 X-28.4473 Y-35.3059
G01 X-28.7819 Y-35.7631
G01 X-29.0940 Y-36.2417
G01 X-29.3770 Y-36.7312
G01 X-29.6341 Y-37.2367
G01 X-29.8621 Y-37.7513
G01 X-30.0682 Y-38.2939
G01 X-30.2409 Y-38.8356
G01 X-30.4087 Y-39.4938
G01 X-30.5425 Y-40.1971
G01 X-30.6261 Y-40.8768
G01 X-30.6655 Y-41.5606
G01 X-30.6688 Y-52.5137
G01 X-30.6546 Y-53.0220
G01 X-30.6169 Y-53.5208
G01 X-38.7311 Y-53.5292
G01 X-38.7311 Y-13.1639
G01 X-30.6689 Y-14.9299
G01 X-30.9410 Y-15.1489
G01 X-30.9371 Y-22.6632
G01 X-30.8864 Y-23.4601
G01 X-30.7768 Y-24.2538
G01 X-30.6114 Y-25.0269
G01 X-30.3806 Y-25.8222
G01 X-30.2047 Y-26.3174
G01 X-30.0063 Y-26.8005
G01 X-29.7843 Y-27.2747
G01 X-29.5383 Y-27.7400
G01 X-29.2684 Y-28.1954
G01 X-28.9816 Y-28.6298
G01 X-28.6691 Y-29.0568
G01 X-28.3385 Y-29.4652
G01 X-27.9855 Y-29.8603
G01 X-27.6166 Y-30.2348
G01 X-27.2339 Y-30.5876
G01 X-26.7902 Y-30.9607
G01 X-26.3719 Y-31.2784
G01 X-25.9466 Y-31.5703
G01 X-25.5020 Y-31.8451
G01 X-25.0407 Y-32.1002
G01 X-25.5355 Y-32.3739
G01 X-26.0134 Y-32.6717
G01 X-26.4702 Y-32.9903
G01 X-26.9152 Y-33.3362
G01 X-27.3409 Y-33.7041
G01 X-27.7443 Y-34.0908
G01 X-28.1210 Y-34.4910
G01 X-28.5077 Y-34.9438
G01 X-28.8423 Y-35.3783
G01 X-29.1599 Y-35.8374
G01 X-29.4526 Y-36.3109
G01 X-29.7222 Y-36.8017
G01 X-29.9635 Y-37.3001
G01 X-30.1807 Y-37.8143
G01 X-30.3705 Y-38.3373
G01 X-30.5323 Y-38.8656
G01 X-30.6999 Y-39.5523
G01 X-30.8189 Y-40.2037
G01 X-30.8989 Y-40.8722
G01 X-30.9373 Y-41.5458
G01 X-30.9410 Y-52.4908
G01 X-30.9132 Y-53.2489
G01 X-38.4590 Y-53.2568
G01 X-38.4590 Y-13.5021
G01 X-30.9410 Y-15.1489
G01 X-31.2132 Y-15.3679
G01 X-31.2098 Y-22.6472
G01 X-31.1612 Y-23.4471
G01 X-31.0567 Y-24.2324
G01 X-30.8975 Y-25.0037
G01 X-30.6806 Y-25.7783
G01 X-30.5141 Y-26.2671
G01 X-30.3263 Y-26.7452
G01 X-30.1142 Y-27.2188
G01 X-29.8823 Y-27.6783
G01 X-29.6270 Y-28.1304
G01 X-29.3529 Y-28.5670
G01 X-29.0618 Y-28.9865
G01 X-28.7469 Y-29.3982
G01 X-28.4113 Y-29.7968
G01 X-28.0519 Y-30.1849
G01 X-27.6745 Y-30.5554
G01 X-27.2772 Y-30.9105
G01 X-26.8874 Y-31.2309
G01 X-26.4720 Y-31.5415
G01 X-26.0463 Y-31.8300
G01 X-25.6056 Y-32.0997
G01 X-26.0780 Y-32.3889
G01 X-26.5322 Y-32.6988
G01 X-26.9744 Y-33.0340
G01 X-27.3920 Y-33.3845
G01 X-27.7905 Y-33.7536
G01 X-28.1681 Y-34.1391
G01 X-28.5602 Y-34.5809
G01 X-28.9064 Y-35.0098
G01 X-29.2294 Y-35.4533
G01 X-29.5284 Y-35.9092
G01 X-29.8063 Y-36.3821
G01 X-30.0578 Y-36.8628
G01 X-30.2866 Y-37.3575
G01 X-30.4906 Y-37.8621
G01 X-30.6705 Y-38.3788
G01 X-30.8225 Y-38.8954
G01 X-30.9823 Y-39.5727
G01 X-31.0962 Y-40.2182
G01 X-31.1722 Y-40.8726
G01 X-31.2093 Y-41.5336
G01 X-31.2132 Y-52.4778
G01 X-31.2017 Y-52.9771
G01 X-38.1868 Y-52.9843
G01 X-38.1868 Y-13.8403
G01 X-31.2132 Y-15.3679
G01 X-31.4854 Y-15.5869
G01 X-31.4824 Y-22.6304
G01 X-31.4376 Y-23.4154
G01 X-31.3381 Y-24.1988
G01 X-31.1855 Y-24.9695
G01 X-30.9753 Y-25.7463
G01 X-30.8147 Y-26.2358
G01 X-30.6348 Y-26.7108
G01 X-30.4323 Y-27.1808
G01 X-30.2154 Y-27.6285
G01 X-29.9724 Y-28.0782
G01 X-29.7112 Y-28.5138
G01 X-29.4287 Y-28.9403
G01 X-29.1318 Y-29.3479
G01 X-28.8162 Y-29.7431
G01 X-28.4827 Y-30.1245
G01 X-28.1407 Y-30.4827
G01 X-27.7753 Y-30.8331
G01 X-27.3596 Y-31.1978
G01 X-26.9697 Y-31.5116
G01 X-26.5518 Y-31.8183
G01 X-26.1304 Y-32.0993
G01 X-26.5774 Y-32.3972
G01 X-27.0136 Y-32.7187
G01 X-27.4288 Y-33.0562
G01 X-27.8327 Y-33.4175
G01 X-28.2133 Y-33.7918
G01 X-28.5728 Y-34.1799
G01 X-28.9455 Y-34.6196
G01 X-29.2817 Y-35.0570
G01 X-29.5888 Y-35.4990
G01 X-29.8715 Y-35.9495
G01 X-30.1322 Y-36.4116
G01 X-30.3759 Y-36.8955
G01 X-30.5950 Y-37.3872
G01 X-30.7883 Y-37.8825
G01 X-30.9605 Y-38.3934
G01 X-31.1072 Y-38.9072
G01 X-31.2606 Y-39.5749
G01 X-31.3695 Y-40.2062
G01 X-31.4439 Y-40.8566
G01 X-31.4808 Y-41.5068
G01 X-31.4830 Y-52.7052
G01 X-37.9146 Y-52.7119
G01 X-37.9146 Y-14.1786
G01 X-31.4854 Y-15.5869
G00 X-31.4854 Y-15.5869
G01 F60.00
G01 Z-0.0500
G01 F120.00
G01 X-37.9146 Y-14.1786
G01 X-37.9146 Y-52.7119
G01 X-31.4830 Y-52.7052
G01 X-31.4808 Y-41.5068
G01 X-31.4439 Y-40.8566
G01 X-31.3695 Y-40.2062
G01 X-31.2606 Y-39.5749
G01 X-31.1072 Y-38.9072
G01 X-30.9605 Y-38.3934
G01 X-30.7883 Y-37.8825
G01 X-30.5950 Y-37.3872
G01 X-30.3759 Y-36.8955
G01 X-30.1322 Y-36.4116
G01 X-29.8715 Y-35.9495
G01 X-29.5888 Y-35.4990
G01 X-29.2817 Y-35.0570
G01 X-28.9455 Y-34.6196
G01 X-28.5728 Y-34.1799
G01 X-28.2133 Y-33.7918
G01 X-27.8327 Y-33.4175
G01 X-27.4288 Y-33.0562
G01 X-27.0136 Y-32.7187
G01 X-26.5774 Y-32.3972
G01 X-26.1304 Y-32.0993
G01 X-26.5518 Y-31.8183
G01 X-26.9697 Y-31.5116
G01 X-27.3596 Y-31.1978
G01 X-27.7753 Y-30.8331
G01 X-28.1407 Y-30.4827
G01 X-28.4827 Y-30.1245
G01 X-28.8162 Y-29.7431
G01 X-29.1318 Y-29.3479
G01 X-29.4287 Y-28.9403
G01 X-29.7112 Y-28.5138
G01 X-29.9724 Y-28.0782
G01 X-30.2154 Y-27.6285
G01 X-30.4323 Y-27.1808
G01 X-30.6348 Y-26.7108
G01 X-30.8147 Y-26.2358
G01 X-30.9753 Y-25.7463
G01 X-31.1855 Y-24.9695
G01 X-31.3381 Y-24.1988
G01 X-31.4376 Y-23.4154
G01 X-31.4824 Y-22.6304
G01 X-31.4854 Y-15.5869
G01 X-31.2132 Y-15.3679
G01 X-38.1868 Y-13.8403
G01 X-38.1868 Y-52.9843
G01 X-31.2017 Y-52.9771
G01 X-31.2132 Y-52.4778
G01 X-31.2093 Y-41.5336
G01 X-31.1722 Y-40.8726
G01 X-31.0962 Y-40.2182
G01 X-30.9823 Y-39.5727
G01 X-30.8225 Y-38.8954
G01 X-30.6705 Y-38.3788
G01 X-30.4906 Y-37.8621
G01 X-30.2866 Y-37.3575
G01 X-30.0578 Y-36.8628
G01 X-29.8063 Y-36.3821
G01 X-29.5284 Y-35.9092
G01 X-29.2294 Y-35.4533
G01 X-28.9064 Y-35.0098
G01 X-28.5602 Y-34.5809
G01 X-28.1681 Y-34.1391
G01 X-27.7905 Y-33.7536
G01 X-27.3920 Y-33.3845
G01 X-26.9744 Y-33.0340
G01 X-26.5322 Y-32.6988
G01 X-26.0780 Y-32.3889
G01 X-25.6056 Y-32.0997
G01 X-26.0463 Y-31.8300
G01 X-26.4720 Y-31.5415
G01 X-26.8874 Y-31.2309
G01 X-27.2772 Y-30.9105
G01 X-27.6745 Y-30.5554
G01 X-28.0519 Y-30.1849
G01 X-28.4113 Y-29.7968
G01 X-28.7469 Y-29.3982
G01 X-29.0618 Y-28.9865
G01 X-29.3529 Y-28.5670
G01 X-29.6270 Y-28.1304
G01 X-29.8823 Y-27.6783
G01 X-30.1142 Y-27.2188
G01 X-30.3263 Y-26.7452
G01 X-30.5141 Y-26.2671
G01 X-30.6806 Y-25.7783
G01 X-30.8975 Y-25.0037
G01 X-31.0567 Y-24.2324
G01 X-31.1612 Y-23.4471
G01 X-31.2098 Y-22.6472
G01 X-31.2132 Y-15.3679
G01 X-30.9410 Y-15.1489
G01 X-38.4590 Y-13.5021
G01 X-38.4590 Y-53.2568
G01 X-30.9132 Y-53.2489
G01 X-30.9410 Y-52.4908
G01 X-30.9373 Y-41.5458
G01 X-30.8989 Y-40.8722
G01 X-30.8189 Y-40.2037
G01 X-30.6999 Y-39.5523
G01 X-30.5323 Y-38.8656
G01 X-30.3705 Y-38.3373
G01 X-30.1807 Y-37.8143
G01 X-29.9635 Y-37.3001
G01 X-29.7222 Y-36.8017
G01 X-29.4526 Y-36.3109
G01 X-29.1599 Y-35.8374
G01 X-28.8423 Y-35.3783
G01 X-28.5077 Y-34.9438
G01 X-28.1210 Y-34.4910
G01 X-27.7443 Y-34.0908
G01 X-27.3409 Y-33.7041
G01 X-26.9152 Y-33.3362
G01 X-26.4702 Y-32.9903
G01 X-26.0134 Y-32.6717
G01 X-25.5355 Y-32.3739
G01 X-25.0407 Y-32.1002
G01 X-25.5020 Y-31.8451
G01 X-25.9466 Y-31.5703
G01 X-26.3719 Y-31.2784
G01 X-26.7902 Y-30.9607
G01 X-27.2339 Y-30.5876
G01 X-27.6166 Y-30.2348
G01 X-27.9855 Y-29.8603
G01 X-28.3385 Y-29.4652
G01 X-28.6691 Y-29.0568
G01 X-28.9816 Y-28.6298
G01 X-29.2684 Y-28.1954
G01 X-29.5383 Y-27.7400
G01 X-29.7843 Y-27.2747
G01 X-30.0063 Y-26.8005
G01 X-30.2047 Y-26.3174
G01 X-30.3806 Y-25.8222
G01 X-30.6114 Y-25.0269
G01 X-30.7768 Y-24.2538
G01 X-30.8864 Y-23.4601
G01 X-30.9371 Y-22.6632
G01 X-30.9410 Y-15.1489
G01 X-30.6689 Y-14.9299
G01 X-38.7311 Y-13.1639
G01 X-38.7311 Y-53.5292
G01 X-30.6169 Y-53.5208
G01 X-30.6546 Y-53.0220
G01 X-30.6688 Y-52.5137
G01 X-30.6655 Y-41.5606
G01 X-30.6261 Y-40.8768
G01 X-30.5425 Y-40.1971
G01 X-30.4087 Y-39.4938
G01 X-30.2409 Y-38.8356
G01 X-30.0682 Y-38.2939
G01 X-29.8621 Y-37.7513
G01 X-29.6341 Y-37.2367
G01 X-29.3770 Y-36.7312
G01 X-29.0940 Y-36.2417
G01 X-28.7819 Y-35.7631
G01 X-28.4473 Y-35.3059
G01 X-28.0831 Y-34.8606
G01 X-27.6951 Y-34.4308
G01 X-27.2810 Y-34.0194
G01 X-26.8511 Y-33.6368
G01 X-26.4051 Y-33.2812
G01 X-25.9355 Y-32.9468
G01 X-25.4468 Y-32.6376
G01 X-24.9420 Y-32.3557
G01 X-24.4204 Y-32.1007
G01 X-24.9077 Y-31.8627
G01 X-25.3783 Y-31.6022
G01 X-25.8323 Y-31.3199
G01 X-26.2762 Y-31.0115
G01 X-26.7099 Y-30.6758
G01 X-27.1486 Y-30.2993
G01 X-27.5381 Y-29.9305
G01 X-27.9093 Y-29.5415
G01 X-28.2591 Y-29.1355
G01 X-28.5867 Y-28.7140
G01 X-28.8949 Y-28.2729
G01 X-29.1799 Y-27.8173
G01 X-29.4388 Y-27.3526
G01 X-29.6749 Y-26.8736
G01 X-29.8856 Y-26.3854
G01 X-30.0755 Y-25.8757
G01 X-30.3206 Y-25.0648
G01 X-30.4935 Y-24.2912
G01 X-30.6098 Y-23.4895
G01 X-30.6644 Y-22.6790
G01 X-30.6689 Y-14.9299
G01 X-30.3967 Y-14.7109
G01 X-39.0033 Y-12.8257
G01 X-39.0033 Y-53.8016
G01 X-30.3119 Y-53.7926
G01 X-30.3735 Y-53.1637
G01 X-30.3965 Y-52.5437
G01 X-30.3936 Y-41.5744
G01 X-30.3529 Y-40.8776
G01 X-30.2651 Y-40.1855
G01 X-30.1199 Y-39.4509
G01 X-29.9404 Y-38.7797
G01 X-29.7515 Y-38.2171
G01 X-29.5335 Y-37.6730
G01 X-29.2787 Y-37.1301
G01 X-28.9970 Y-36.6101
G01 X-28.6859 Y-36.1073
G01 X-28.3431 Y-35.6186
G01 X-27.9848 Y-35.1651
G01 X-27.5711 Y-34.6961
G01 X-27.1636 Y-34.2832
G01 X-26.7227 Y-33.8848
G01 X-26.2657 Y-33.5171
G01 X-25.7886 Y-33.1760
G01 X-25.2984 Y-32.8661
G01 X-24.7879 Y-32.5823
G01 X-24.2529 Y-32.3237
G01 X-23.7166 Y-32.1013
G01 X-24.2303 Y-31.8880
G01 X-24.7329 Y-31.6467
G01 X-25.2203 Y-31.3793
G01 X-25.6886 Y-31.0886
G01 X-26.1372 Y-30.7759
G01 X-26.5656 Y-30.4421
G01 X-27.0184 Y-30.0500
G01 X-27.4179 Y-29.6654
G01 X-27.7942 Y-29.2621
G01 X-28.1463 Y-28.8418
G01 X-28.4812 Y-28.3953
G01 X-28.7862 Y-27.9396
G01 X-29.0681 Y-27.4655
G01 X-29.3228 Y-26.9799
G01 X-29.5543 Y-26.4745
G01 X-29.7555 Y-25.9644
G01 X-30.0184 Y-25.1393
G01 X-30.2047 Y-24.3532
G01 X-30.3311 Y-23.5343
G01 X-30.3913 Y-22.7073
G01 X-30.3967 Y-14.7109
G01 X-30.1246 Y-14.4919
G01 X-39.2754 Y-12.4874
G01 X-39.2754 Y-54.0741
G01 X-29.9972 Y-54.0669
G01 X-30.0887 Y-53.3202
G01 X-30.1241 Y-52.5700
G01 X-30.1216 Y-41.5849
G01 X-30.0777 Y-40.8588
G01 X-29.9807 Y-40.1340
G01 X-29.8237 Y-39.3822
G01 X-29.6256 Y-38.6857
G01 X-29.4174 Y-38.1042
G01 X-29.1777 Y-37.5453
G01 X-28.9017 Y-36.9965
G01 X-28.5946 Y-36.4690
G01 X-28.2548 Y-35.9595
G01 X-27.8872 Y-35.4750
G01 X-27.4629 Y-34.9804
G01 X-27.0360 Y-34.5383
G01 X-26.5839 Y-34.1242
G01 X-26.1112 Y-33.7415
G01 X-25.6144 Y-33.3869
G01 X-25.0993 Y-33.0646
G01 X-24.5644 Y-32.7735
G01 X-24.0153 Y-32.5165
G01 X-23.4512 Y-32.2930
G01 X-22.8679 Y-32.1019
G01 X-23.4167 Y-31.9224
G01 X-23.9546 Y-31.7114
G01 X-24.4795 Y-31.4697
G01 X-24.9885 Y-31.1988
G01 X-25.4753 Y-30.9029
G01 X-25.9502 Y-30.5755
G01 X-26.3959 Y-30.2294
G01 X-26.8553 Y-29.8303
G01 X-27.2617 Y-29.4360
G01 X-27.6455 Y-29.0189
G01 X-28.0089 Y-28.5759
G01 X-28.3479 Y-28.1106
G01 X-28.6578 Y-27.6298
G01 X-28.9396 Y-27.1324
G01 X-29.1896 Y-26.6262
G01 X-29.4137 Y-26.0991
G01 X-29.6861 Y-25.3084
G01 X-29.9107 Y-24.4336
G01 X-30.0501 Y-23.5933
G01 X-30.1177 Y-22.7440
G01 X-30.1246 Y-14.4919
G01 X-29.8524 Y-14.2729
G01 X-39.5476 Y-12.1492
G01 X-39.5476 Y-54.3465
G01 X-29.6724 Y-54.3388
G01 X-29.8006 Y-53.4770
G01 X-29.8515 Y-52.6058
G01 X-29.8493 Y-41.5817
G01 X-29.7993 Y-40.8108
G01 X-29.6864 Y-40.0346
G01 X-29.5069 Y-39.2432
G01 X-29.2686 Y-38.4817
G01 X-29.0315 Y-37.8835
G01 X-28.7550 Y-37.3014
G01 X-28.4397 Y-36.7370
G01 X-28.0884 Y-36.1959
G01 X-27.6969 Y-35.6727
G01 X-27.2478 Y-35.1483
G01 X-26.8025 Y-34.6911
G01 X-26.3252 Y-34.2614
G01 X-25.8195 Y-33.8631
G01 X-25.2852 Y-33.4970
G01 X-24.7337 Y-33.1703
G01 X-24.1627 Y-32.8809
G01 X-23.5750 Y-32.6301
G01 X-22.9783 Y-32.4202
G01 X-22.3311 Y-32.2368
G01 X-21.6910 Y-32.1000
G01 X-22.3010 Y-31.9720
G01 X-22.8752 Y-31.8156
G01 X-23.4407 Y-31.6237
G01 X-23.9976 Y-31.3957
G01 X-24.5383 Y-31.1345
G01 X-25.0630 Y-30.8397
G01 X-25.5675 Y-30.5138
G01 X-26.0505 Y-30.1579
G01 X-26.5422 Y-29.7462
G01 X-26.9726 Y-29.3414
G01 X-27.3908 Y-28.8966
G01 X-27.7761 Y-28.4319
G01 X-28.1333 Y-27.9424
G01 X-28.4605 Y-27.4297
G01 X-28.7559 Y-26.8959
G01 X-29.0151 Y-26.3502
G01 X-29.1859 Y-25.9337
G01 X-29.3377 Y-25.5085
G01 X-29.4836 Y-25.0303
G01 X-29.5955 Y-24.5976
G01 X-29.6890 Y-24.1516
G01 X-29.7600 Y-23.7132
G01 X-29.8122 Y-23.2577
G01 X-29.8423 Y-22.8154
G01 X-29.8524 Y-14.2729
G01 X-29.5802 Y-14.0539
G01 X-39.8198 Y-11.8110
G01 X-39.8198 Y-54.6188
G01 X-29.3359 Y-54.6124
G01 X-29.4408 Y-54.0937
G01 X-29.5156 Y-53.5787
G01 X-29.5618 Y-53.0642
G01 X-29.5800 Y-52.5382
G01 X-29.5796 Y-41.7162
G01 X-29.5389 Y-40.9422
G01 X-29.4332 Y-40.1632
G01 X-29.3373 Y-39.6915
G01 X-29.2305 Y-39.2639
G01 X-29.1006 Y-38.8312
G01 X-28.9530 Y-38.4127
G01 X-28.7820 Y-37.9922
G01 X-28.5893 Y-37.5771
G01 X-28.3788 Y-37.1751
G01 X-28.1493 Y-36.7837
G01 X-27.8972 Y-36.3978
G01 X-27.6287 Y-36.0273
G01 X-27.3465 Y-35.6747
G01 X-27.0183 Y-35.3008
G01 X-26.7050 Y-34.9761
G01 X-26.3765 Y-34.6667
G01 X-26.0337 Y-34.3733
G01 X-25.6774 Y-34.0965
G01 X-25.1724 Y-33.7480
G01 X-24.6355 Y-33.4269
G01 X-24.0852 Y-33.1452
G01 X-23.5112 Y-32.8974
G01 X-22.9169 Y-32.6862
G01 X-22.2812 Y-32.5048
G01 X-21.6741 Y-32.3735
G01 X-21.0668 Y-32.2830
G01 X-20.5445 Y-32.2370
G01 X-20.0182 Y-32.2199
G01 X-9.5057 Y-32.2198
G01 X-9.5057 Y-31.9802
G01 X-20.0219 Y-31.9801
G01 X-20.5598 Y-31.9621
G01 X-21.0943 Y-31.9137
G01 X-21.6594 Y-31.8292
G01 X-22.2429 Y-31.7060
G01 X-22.7957 Y-31.5553
G01 X-23.3296 Y-31.3747
G01 X-23.8621 Y-31.1581
G01 X-24.3701 Y-30.9151
G01 X-24.8675 Y-30.6395
G01 X-25.3504 Y-30.3326
G01 X-25.7151 Y-30.0723
G01 X-26.0635 Y-29.7980
G01 X-26.4265 Y-29.4846
G01 X-26.7493 Y-29.1797
G01 X-27.0534 Y-28.8644
G01 X-27.3470 Y-28.5302
G01 X-27.6252 Y-28.1818
G01 X-27.8820 Y-27.8276
G01 X-28.1259 Y-27.4559
G01 X-28.3511 Y-27.0750
G01 X-28.5621 Y-26.6762
G01 X-28.7474 Y-26.2826
G01 X-28.9162 Y-25.8765
G01 X-29.0653 Y-25.4651
G01 X-29.3197 Y-24.5812
G01 X-29.4229 Y-24.0940
G01 X-29.5005 Y-23.6010
G01 X-29.5515 Y-23.1116
G01 X-29.5771 Y-22.6140
G01 X-29.5802 Y-14.0539
G01 X-29.3081 Y-13.8349
G01 X-40.0919 Y-11.4727
G01 X-40.0919 Y-54.8912
G01 X-28.9865 Y-54.8861
G01 X-29.1221 Y-54.3151
G01 X-29.2200 Y-53.7438
G01 X-29.2817 Y-53.1699
G01 X-29.3073 Y-52.5931
G01 X-29.3075 Y-41.7289
G01 X-29.2708 Y-40.9995
G01 X-29.1759 Y-40.2720
G01 X-29.0828 Y-39.8005
G01 X-28.9814 Y-39.3849
G01 X-28.8568 Y-38.9620
G01 X-28.7078 Y-38.5337
G01 X-28.5387 Y-38.1152
G01 X-28.3512 Y-37.7094
G01 X-28.1435 Y-37.3121
G01 X-27.9151 Y-36.9224
G01 X-27.6660 Y-36.5419
G01 X-27.3993 Y-36.1753
G01 X-27.1222 Y-35.8308
G01 X-26.7936 Y-35.4585
G01 X-26.4800 Y-35.1366
G01 X-26.1476 Y-34.8272
G01 X-25.8062 Y-34.5392
G01 X-25.4527 Y-34.2693
G01 X-24.9532 Y-33.9310
G01 X-24.4372 Y-33.6286
G01 X-23.9037 Y-33.3608
G01 X-23.3500 Y-33.1267
G01 X-22.7827 Y-32.9293
G01 X-22.1648 Y-32.7564
G01 X-21.5711 Y-32.6315
G01 X-20.9760 Y-32.5467
G01 X-20.4976 Y-32.5069
G01 X-20.0143 Y-32.4920
G01 X-9.2336 Y-32.4919
G01 X-9.2336 Y-31.7081
G01 X-20.0515 Y-31.7077
G01 X-20.6968 Y-31.6796
G01 X-21.3446 Y-31.6054
G01 X-21.8534 Y-31.5142
G01 X-22.3899 Y-31.3881
G01 X-22.8931 Y-31.2390
G01 X-23.3837 Y-31.0628
G01 X-23.8654 Y-30.8582
G01 X-24.3344 Y-30.6267
G01 X-24.7938 Y-30.3664
G01 X-25.2314 Y-30.0843
G01 X-25.9139 Y-29.5685
G01 X-26.2676 Y-29.2613
G01 X-26.5851 Y-28.9591
G01 X-26.8804 Y-28.6504
G01 X-27.1681 Y-28.3198
G01 X-27.4349 Y-27.9823
G01 X-27.6873 Y-27.6303
G01 X-27.9222 Y-27.2679
G01 X-28.1403 Y-26.8940
G01 X-28.3419 Y-26.5077
G01 X-28.5225 Y-26.1179
G01 X-28.6842 Y-25.7217
G01 X-28.8289 Y-25.3136
G01 X-29.0711 Y-24.4494
G01 X-29.1662 Y-23.9842
G01 X-29.2361 Y-23.5223
G01 X-29.2832 Y-23.0503
G01 X-29.3058 Y-22.5778
G01 X-29.3081 Y-13.8349
G01 X-29.0359 Y-13.6159
G01 X-40.3641 Y-11.1345
G01 X-40.3641 Y-55.1634
G01 X-28.6244 Y-55.1581
G01 X-28.7958 Y-54.5313
G01 X-28.9193 Y-53.9126
G01 X-28.9996 Y-53.2787
G01 X-29.0342 Y-52.6467
G01 X-29.0355 Y-41.7441
G01 X-29.0030 Y-41.0599
G01 X-28.9180 Y-40.3794
G01 X-28.8382 Y-39.9569
G01 X-28.7295 Y-39.4966
G01 X-28.6080 Y-39.0776
G01 X-28.4627 Y-38.6553
G01 X-28.2986 Y-38.2457
G01 X-28.1121 Y-37.8400
G01 X-27.9055 Y-37.4441
G01 X-27.6795 Y-37.0589
G01 X-27.4344 Y-36.6856
G01 X-27.1678 Y-36.3207
G01 X-26.8925 Y-35.9808
G01 X-26.5664 Y-35.6140
G01 X-26.2556 Y-35.2980
G01 X-25.9291 Y-34.9974
G01 X-25.5917 Y-34.7163
G01 X-25.2331 Y-34.4466
G01 X-24.7519 Y-34.1261
G01 X-24.2533 Y-33.8386
G01 X-23.7296 Y-33.5805
G01 X-23.1947 Y-33.3587
G01 X-22.6467 Y-33.1721
G01 X-22.0370 Y-33.0055
G01 X-21.4696 Y-32.8902
G01 X-20.8933 Y-32.8116
G01 X-20.4542 Y-32.7771
G01 X-20.0077 Y-32.7642
G01 X-8.9614 Y-32.7641
G01 X-8.9614 Y-31.4359
G01 X-20.0027 Y-31.4359
G01 X-20.4267 Y-31.4244
G01 X-20.8562 Y-31.3922
G01 X-21.4378 Y-31.3151
G01 X-22.0143 Y-31.2006
G01 X-22.5552 Y-31.0592
G01 X-23.0976 Y-30.8801
G01 X-23.6339 Y-30.6639
G01 X-24.1425 Y-30.4200
G01 X-24.6412 Y-30.1406
G01 X-25.1188 Y-29.8314
G01 X-25.7815 Y-29.3244
G01 X-26.1275 Y-29.0207
G01 X-26.4366 Y-28.7225
G01 X-26.7255 Y-28.4160
G01 X-27.0022 Y-28.0930
G01 X-27.5019 Y-27.4186
G01 X-27.9376 Y-26.6975
G01 X-28.1312 Y-26.3188
G01 X-28.3046 Y-25.9359
G01 X-28.5951 Y-25.1517
G01 X-28.8235 Y-24.3106
G01 X-28.9076 Y-23.8823
G01 X-28.9721 Y-23.4396
G01 X-29.0145 Y-22.9918
G01 X-29.0342 Y-22.5467
G01 X-29.0359 Y-13.6159
G01 X-28.7638 Y-13.3969
G01 X-40.6362 Y-10.7963
G01 X-40.6362 Y-55.4357
G01 X-28.2474 Y-55.4324
G01 X-28.4615 Y-54.7423
G01 X-28.6144 Y-54.0757
G01 X-28.7137 Y-53.4031
G01 X-28.7603 Y-52.7172
G01 X-28.7635 Y-41.7593
G01 X-28.7348 Y-41.1186
G01 X-28.6616 Y-40.5002
G01 X-28.5837 Y-40.0691
G01 X-28.4772 Y-39.6076
G01 X-28.3585 Y-39.1912
G01 X-28.2191 Y-38.7813
G01 X-28.0562 Y-38.3711
G01 X-27.8735 Y-37.9716
G01 X-27.6714 Y-37.5830
G01 X-27.4483 Y-37.2026
G01 X-27.2044 Y-36.8315
G01 X-26.9411 Y-36.4724
G01 X-26.6698 Y-36.1390
G01 X-26.3436 Y-35.7743
G01 X-26.0350 Y-35.4634
G01 X-25.7063 Y-35.1644
G01 X-25.3673 Y-34.8861
G01 X-25.0155 Y-34.6260
G01 X-24.5417 Y-34.3164
G01 X-24.0596 Y-34.0441
G01 X-23.5572 Y-33.8014
G01 X-23.0346 Y-33.5895
G01 X-22.5143 Y-33.4164
G01 X-21.9270 Y-33.2593
G01 X-21.3737 Y-33.1501
G01 X-20.8172 Y-33.0774
G01 X-20.0004 Y-33.0363
G01 X-8.6893 Y-33.0362
G01 X-8.6893 Y-31.1638
G01 X-20.0016 Y-31.1637
G01 X-20.8095 Y-31.1233
G01 X-21.3821 Y-31.0485
G01 X-21.9535 Y-30.9353
G01 X-22.4884 Y-30.7951
G01 X-23.0187 Y-30.6191
G01 X-23.5376 Y-30.4089
G01 X-24.0389 Y-30.1671
G01 X-24.5276 Y-29.8912
G01 X-24.9946 Y-29.5862
G01 X-25.6338 Y-29.0929
G01 X-25.9655 Y-28.7998
G01 X-26.2701 Y-28.5036
G01 X-26.8152 Y-27.8916
G01 X-27.3027 Y-27.2267
G01 X-27.7212 Y-26.5252
G01 X-28.0748 Y-25.7803
G01 X-28.3518 Y-25.0184
G01 X-28.4762 Y-24.5874
G01 X-28.5736 Y-24.1789
G01 X-28.6507 Y-23.7688
G01 X-28.7080 Y-23.3547
G01 X-28.7624 Y-22.5263
G01 X-28.7638 Y-13.3969
G01 X-28.4916 Y-13.1779
G01 X-40.9084 Y-10.4581
G01 X-40.9084 Y-55.7079
G01 X-27.8529 Y-55.7045
G01 X-28.1003 Y-55.0104
G01 X-28.3027 Y-54.2444
G01 X-28.4270 Y-53.5129
G01 X-28.4860 Y-52.7790
G01 X-28.4914 Y-41.7738
G01 X-28.4676 Y-41.1932
G01 X-28.4038 Y-40.6160
G01 X-28.3301 Y-40.1878
G01 X-28.2296 Y-39.7382
G01 X-28.1142 Y-39.3225
G01 X-27.9790 Y-38.9172
G01 X-27.8223 Y-38.5165
G01 X-27.6419 Y-38.1177
G01 X-27.4410 Y-37.7288
G01 X-27.2213 Y-37.3529
G01 X-26.9843 Y-36.9916
G01 X-26.7242 Y-36.6368
G01 X-26.4523 Y-36.3035
G01 X-26.1287 Y-35.9432
G01 X-25.8145 Y-35.6293
G01 X-25.4923 Y-35.3393
G01 X-25.1549 Y-35.0659
G01 X-24.8056 Y-34.8115
G01 X-24.3486 Y-34.5178
G01 X-23.8767 Y-34.2558
G01 X-23.3923 Y-34.0262
G01 X-22.8921 Y-33.8272
G01 X-22.3250 Y-33.6445
G01 X-21.8113 Y-33.5121
G01 X-21.2788 Y-33.4105
G01 X-20.7344 Y-33.3430
G01 X-19.9949 Y-33.3084
G01 X-8.4171 Y-33.3084
G01 X-8.4171 Y-30.8916
G01 X-19.9959 Y-30.8916
G01 X-20.7681 Y-30.8539
G01 X-21.3293 Y-30.7813
G01 X-21.8849 Y-30.6718
G01 X-22.4109 Y-30.5342
G01 X-22.9323 Y-30.3609
G01 X-23.4434 Y-30.1529
G01 X-23.9354 Y-29.9141
G01 X-24.4130 Y-29.6423
G01 X-24.8781 Y-29.3354
G01 X-25.4965 Y-28.8523
G01 X-25.8173 Y-28.5660
G01 X-26.1145 Y-28.2733
G01 X-26.6415 Y-27.6733
G01 X-27.1090 Y-27.0259
G01 X-27.5129 Y-26.3370
G01 X-27.8495 Y-25.6128
G01 X-28.1118 Y-24.8728
G01 X-28.2279 Y-24.4608
G01 X-28.3221 Y-24.0519
G01 X-28.4422 Y-23.2829
G01 X-28.4906 Y-22.5000
G01 X-28.4916 Y-13.1779
G01 X-28.2194 Y-12.9589
G01 X-41.1806 Y-10.1198
G01 X-41.1806 Y-55.9802
G01 X-27.4373 Y-55.9765
G01 X-27.7409 Y-55.2318
G01 X-27.9819 Y-54.4232
G01 X-28.1347 Y-53.6438
G01 X-28.2108 Y-52.8460
G01 X-28.2193 Y-41.7859
G01 X-28.1992 Y-41.2542
G01 X-28.1452 Y-40.7307
G01 X-28.0749 Y-40.3014
G01 X-27.9802 Y-39.8639
G01 X-27.8677 Y-39.4478
G01 X-27.7357 Y-39.0449
G01 X-27.5815 Y-38.6462
G01 X-27.4047 Y-38.2524
G01 X-27.2095 Y-37.8727
G01 X-26.9925 Y-37.5004
G01 X-26.7576 Y-37.1423
G01 X-26.4996 Y-36.7914
G01 X-26.2337 Y-36.4668
G01 X-25.9053 Y-36.1033
G01 X-25.5984 Y-35.7995
G01 X-25.2789 Y-35.5151
G01 X-24.9474 Y-35.2499
G01 X-24.5999 Y-35.0005
G01 X-24.1635 Y-34.7244
G01 X-23.7054 Y-34.4740
G01 X-23.2285 Y-34.2520
G01 X-22.7540 Y-34.0669
G01 X-22.2105 Y-33.8947
G01 X-21.7173 Y-33.7700
G01 X-21.2001 Y-33.6737
G01 X-20.6718 Y-33.6106
G01 X-19.9942 Y-33.5806
G01 X-8.1449 Y-33.5806
G01 X-8.1449 Y-30.6194
G01 X-19.9950 Y-30.6194
G01 X-20.7156 Y-30.5854
G01 X-21.2567 Y-30.5174
G01 X-21.8138 Y-30.4088
G01 X-22.3282 Y-30.2749
G01 X-22.8435 Y-30.1036
G01 X-23.3411 Y-29.9006
G01 X-23.8244 Y-29.6649
G01 X-24.2946 Y-29.3956
G01 X-24.7470 Y-29.0947
G01 X-25.3411 Y-28.6269
G01 X-25.6520 Y-28.3478
G01 X-25.9432 Y-28.0588
G01 X-26.4505 Y-27.4761
G01 X-26.9054 Y-26.8396
G01 X-27.2902 Y-26.1754
G01 X-27.6155 Y-25.4654
G01 X-27.8669 Y-24.7420
G01 X-27.9775 Y-24.3409
G01 X-28.0677 Y-23.9362
G01 X-28.1755 Y-23.2168
G01 X-28.2187 Y-22.4840
G01 X-28.2194 Y-12.9589
G01 X-27.9473 Y-12.7400
G01 X-41.4527 Y-9.7816
G01 X-41.4527 Y-56.2524
G01 X-26.9967 Y-56.2486
G01 X-27.1939 Y-55.8545
G01 X-27.3693 Y-55.4480
G01 X-27.5188 Y-55.0408
G01 X-27.6514 Y-54.6084
G01 X-27.7556 Y-54.1974
G01 X-27.8377 Y-53.7802
G01 X-27.8980 Y-53.3513
G01 X-27.9342 Y-52.9261
G01 X-27.9473 Y-52.4820
G01 X-27.9472 Y-41.7952
G01 X-27.9313 Y-41.3262
G01 X-27.8875 Y-40.8595
G01 X-27.8223 Y-40.4315
G01 X-27.7307 Y-39.9909
G01 X-27.6253 Y-39.5880
G01 X-27.4973 Y-39.1872
G01 X-27.3451 Y-38.7867
G01 X-27.1742 Y-38.4013
G01 X-26.9828 Y-38.0255
G01 X-26.7680 Y-37.6548
G01 X-26.5341 Y-37.2977
G01 X-26.2804 Y-36.9529
G01 X-25.9694 Y-36.5773
G01 X-25.6942 Y-36.2764
G01 X-25.3933 Y-35.9803
G01 X-25.0753 Y-35.6995
G01 X-24.7365 Y-35.4318
G01 X-24.3952 Y-35.1909
G01 X-23.9780 Y-34.9312
G01 X-23.5358 Y-34.6934
G01 X-23.0809 Y-34.4850
G01 X-22.6174 Y-34.3074
G01 X-22.0894 Y-34.1433
G01 X-21.6089 Y-34.0250
G01 X-21.1159 Y-33.9363
G01 X-20.6059 Y-33.8783
G01 X-19.9865 Y-33.8527
G01 X-7.8728 Y-33.8527
G01 X-7.8728 Y-30.3473
G01 X-19.9880 Y-30.3473
G01 X-20.6720 Y-30.3161
G01 X-21.2062 Y-30.2499
G01 X-21.7489 Y-30.1445
G01 X-22.2508 Y-30.0139
G01 X-22.7531 Y-29.8469
G01 X-23.2487 Y-29.6437
G01 X-23.7226 Y-29.4108
G01 X-24.1747 Y-29.1497
G01 X-24.6149 Y-28.8544
G01 X-25.2412 Y-28.3532
G01 X-25.7786 Y-27.8370
G01 X-26.2726 Y-27.2620
G01 X-26.7055 Y-26.6471
G01 X-27.0802 Y-25.9883
G01 X-27.3880 Y-25.3009
G01 X-27.6437 Y-24.5357
G01 X-27.8137 Y-23.8153
G01 X-27.9088 Y-23.1494
G01 X-27.9467 Y-22.4673
G01 X-27.9473 Y-12.7400
G01 X-27.6751 Y-12.5210
G01 X-41.7249 Y-9.4434
G01 X-41.7249 Y-56.5246
G01 X-26.5262 Y-56.5206
G01 X-26.7536 Y-56.1261
G01 X-26.9538 Y-55.7254
G01 X-27.1323 Y-55.3075
G01 X-27.2840 Y-54.8841
G01 X-27.4226 Y-54.4134
G01 X-27.5252 Y-53.9732
G01 X-27.6033 Y-53.5144
G01 X-27.6529 Y-53.0533
G01 X-27.6751 Y-52.4860
G01 X-27.6709 Y-41.5763
G01 X-27.6235 Y-40.9437
G01 X-27.5247 Y-40.3241
G01 X-27.3686 Y-39.6799
G01 X-27.1619 Y-39.0626
G01 X-26.9113 Y-38.4824
G01 X-26.6106 Y-37.9207
G01 X-26.2635 Y-37.3859
G01 X-25.8750 Y-36.8850
G01 X-25.4042 Y-36.3693
G01 X-24.8905 Y-35.8998
G01 X-24.3368 Y-35.4800
G01 X-23.7439 Y-35.1110
G01 X-23.1296 Y-34.8027
G01 X-22.4878 Y-34.5506
G01 X-21.7879 Y-34.3453
G01 X-21.1074 Y-34.2102
G01 X-20.5641 Y-34.1480
G01 X-20.0202 Y-34.1250
G01 X-7.6006 Y-34.1249
G01 X-7.6006 Y-30.0751
G01 X-20.0109 Y-30.0750
G01 X-20.5202 Y-30.0553
G01 X-21.0316 Y-30.0009
G01 X-21.7105 Y-29.8741
G01 X-22.3424 Y-29.7009
G01 X-22.9662 Y-29.4699
G01 X-23.5695 Y-29.1840
G01 X-24.1432 Y-28.8473
G01 X-24.6797 Y-28.4658
G01 X-25.2226 Y-28.0041
G01 X-25.6920 Y-27.5301
G01 X-26.0744 Y-27.0734
G01 X-26.4198 Y-26.5880
G01 X-26.7246 Y-26.0795
G01 X-26.9927 Y-25.5399
G01 X-27.2185 Y-24.9765
G01 X-27.4064 Y-24.3735
G01 X-27.5403 Y-23.7966
G01 X-27.6278 Y-23.2191
G01 X-27.6625 Y-22.8105
G01 X-27.6751 Y-22.4026
G01 X-27.6751 Y-12.5210
G01 X-27.4030 Y-12.3020
G01 X-41.9970 Y-9.1051
G01 X-41.9970 Y-56.7969
G01 X-26.0178 Y-56.7935
G01 X-26.2859 Y-56.3917
G01 X-26.5293 Y-55.9684
G01 X-26.7450 Y-55.5270
G01 X-26.9298 Y-55.0744
G01 X-27.0808 Y-54.6210
G01 X-27.2194 Y-54.1010
G01 X-27.3124 Y-53.6204
G01 X-27.3729 Y-53.1358
G01 X-27.4029 Y-52.4923
G01 X-27.4020 Y-41.7092
G01 X-27.3657 Y-41.0896
G01 X-27.2776 Y-40.4792
G01 X-27.1310 Y-39.8404
G01 X-26.9380 Y-39.2401
G01 X-26.6944 Y-38.6598
G01 X-26.4096 Y-38.1161
G01 X-26.0774 Y-37.5943
G01 X-25.6953 Y-37.0942
G01 X-25.2327 Y-36.5828
G01 X-24.7357 Y-36.1251
G01 X-24.1952 Y-35.7130
G01 X-23.6226 Y-35.3551
G01 X-23.0233 Y-35.0533
G01 X-22.3961 Y-34.8069
G01 X-21.7129 Y-34.6072
G01 X-21.0372 Y-34.4749
G01 X-20.5309 Y-34.4184
G01 X-20.0150 Y-34.3972
G01 X-7.3285 Y-34.3970
G01 X-7.3285 Y-29.8030
G01 X-20.0094 Y-29.8029
G01 X-20.4937 Y-29.7844
G01 X-20.9721 Y-29.7344
G01 X-21.6429 Y-29.6104
G01 X-22.2653 Y-29.4398
G01 X-22.8779 Y-29.2118
G01 X-23.4723 Y-28.9274
G01 X-24.0336 Y-28.5939
G01 X-24.5572 Y-28.2161
G01 X-25.0803 Y-27.7647
G01 X-25.5397 Y-27.2923
G01 X-25.9036 Y-26.8487
G01 X-26.2307 Y-26.3793
G01 X-26.5189 Y-25.8878
G01 X-26.7680 Y-25.3752
G01 X-26.9792 Y-24.8365
G01 X-27.1582 Y-24.2485
G01 X-27.2825 Y-23.6945
G01 X-27.3630 Y-23.1363
G01 X-27.4029 Y-22.3963
G01 X-27.4030 Y-12.3020
G01 X-27.1308 Y-12.0830
G01 X-42.2692 Y-8.7669
G01 X-42.2692 Y-57.0691
G01 X-25.4612 Y-57.0669
G01 X-25.8359 Y-56.5795
G01 X-26.1621 Y-56.0691
G01 X-26.4477 Y-55.5227
G01 X-26.6844 Y-54.9532
G01 X-26.8829 Y-54.3245
G01 X-27.0173 Y-53.7318
G01 X-27.1018 Y-53.1111
G01 X-27.1308 Y-52.4955
G01 X-27.1308 Y-41.8046
G01 X-27.0920 Y-41.0895
G01 X-27.0193 Y-40.5790
G01 X-26.9042 Y-40.0477
G01 X-26.7590 Y-39.5516
G01 X-26.5816 Y-39.0770
G01 X-26.3638 Y-38.6030
G01 X-26.1160 Y-38.1541
G01 X-25.8388 Y-37.7281
G01 X-25.5237 Y-37.3137
G01 X-25.0669 Y-36.8023
G01 X-24.5867 Y-36.3554
G01 X-24.0598 Y-35.9503
G01 X-23.4966 Y-35.5964
G01 X-22.9078 Y-35.2998
G01 X-22.2943 Y-35.0598
G01 X-21.6154 Y-34.8635
G01 X-20.9641 Y-34.7393
G01 X-20.4917 Y-34.6883
G01 X-20.0063 Y-34.6693
G01 X-7.0563 Y-34.6692
G01 X-7.0563 Y-29.5308
G01 X-20.0033 Y-29.5307
G01 X-20.4651 Y-29.5136
G01 X-20.9228 Y-29.4664
G01 X-21.5824 Y-29.3450
G01 X-22.1899 Y-29.1782
G01 X-22.7918 Y-28.9526
G01 X-23.3682 Y-28.6744
G01 X-23.9096 Y-28.3496
G01 X-24.4239 Y-27.9743
G01 X-24.9394 Y-27.5232
G01 X-25.3846 Y-27.0564
G01 X-25.7265 Y-26.6313
G01 X-26.0343 Y-26.1808
G01 X-26.3051 Y-25.7101
G01 X-26.5411 Y-25.2145
G01 X-26.7407 Y-24.6928
G01 X-26.9087 Y-24.1269
G01 X-27.0241 Y-23.5942
G01 X-27.0976 Y-23.0557
G01 X-27.1308 Y-22.3916
G01 X-27.1308 Y-12.0830
G01 X-26.8586 Y-11.8640
G01 X-42.5414 Y-8.4287
G01 X-42.5414 Y-57.3413
G01 X-24.8410 Y-57.3391
G01 X-25.2756 Y-56.8647
G01 X-25.6649 Y-56.3483
G01 X-26.0014 Y-55.8002
G01 X-26.2881 Y-55.2138
G01 X-26.5128 Y-54.6150
G01 X-26.6977 Y-53.9398
G01 X-26.8077 Y-53.3014
G01 X-26.8563 Y-52.6506
G01 X-26.8586 Y-41.8093
G01 X-26.8257 Y-41.1600
G01 X-26.7583 Y-40.6661
G01 X-26.6499 Y-40.1525
G01 X-26.5184 Y-39.6914
G01 X-26.3505 Y-39.2307
G01 X-26.1485 Y-38.7810
G01 X-25.9128 Y-38.3448
G01 X-25.6451 Y-37.9261
G01 X-25.3499 Y-37.5313
G01 X-24.9049 Y-37.0262
G01 X-24.4391 Y-36.5872
G01 X-23.9232 Y-36.1869
G01 X-23.3797 Y-35.8430
G01 X-22.8046 Y-35.5518
G01 X-22.2071 Y-35.3176
G01 X-21.5439 Y-35.1263
G01 X-20.9060 Y-35.0060
G01 X-20.4613 Y-34.9590
G01 X-20.0034 Y-34.9414
G01 X-6.7841 Y-34.9414
G01 X-6.7841 Y-29.2586
G01 X-19.9998 Y-29.2586
G01 X-20.4344 Y-29.2429
G01 X-20.8565 Y-29.2007
G01 X-21.5072 Y-29.0830
G01 X-22.1016 Y-28.9207
G01 X-22.6880 Y-28.7010
G01 X-23.2574 Y-28.4248
