(G-code generated by FlatCAM Evo vUnstable - Version Date: 2023/6/31)

(Name: func_amp.drl_cnc)
(Type: G-code from Excellon)
(Units: MM)

(Created on Friday, 20 October 2023 at 08:33)

(This preprocessor is the default preprocessor.)
(It is made to work with MACH3 compatible motion controllers.)


(TOOLS DIAMETER: )
(Tool: 1 -> Dia: 0.8000999999999999)

(FEEDRATE Z: )
(Tool: 1 -> Feedrate: 120.0)

(FEEDRATE RAPIDS: )
(Tool: 1 -> Feedrate Rapids: 1500)

(Z_CUT: )
(Tool: 1 -> Z_Cut: -2.5)

(Tools Offset: )
(Tool: 1 -> Offset Z: 0.0)

(Z_MOVE: )
(Tool: 1 -> Z_Move: 2)

(Z Start: None mm)
(Z End: 15 mm)
(X,Y End: 0.0000, 0.0000 mm)
(Steps per circle: 16)
(Preprocessor Excellon: default)

(X range: -129.1006 ...   -2.9007  mm)
(Y range: -129.1006 ...   -2.9007  mm)

(Spindle Speed: 13000 RPM)
G21
G90
G94

G01 F120.00
G00 Z2.0000

M03 S13000
G4 P1
G00 X-51.8008 Y-98.6993
G01 Z-2.5000
G01 Z0
G00 Z2.0000
G00 X-51.7398 Y-103.7006
G01 Z-2.5000
G01 Z0
G00 Z2.0000
G00 X-48.3997 Y-108.1989
G01 Z-2.5000
G01 Z0
G00 Z2.0000
G00 X-48.3997 Y-111.9988
G01 Z-2.5000
G01 Z0
G00 Z2.0000
G00 X-41.3588 Y-111.8997
G01 Z-2.5000
G01 Z0
G00 Z2.0000
G00 X-31.1988 Y-111.8997
G01 Z-2.5000
G01 Z0
G00 Z2.0000
G00 X-55.5904 Y-112.2248
G01 Z-2.5000
G01 Z0
G00 Z2.0000
G00 X-65.7504 Y-112.2248
G01 Z-2.5000
G01 Z0
G00 Z2.0000
G00 X-65.7504 Y-108.8847
G01 Z-2.5000
G01 Z0
G00 Z2.0000
G00 X-69.2506 Y-112.2248
G01 Z-2.5000
G01 Z0
G00 Z2.0000
G00 X-71.0006 Y-103.7006
G01 Z-2.5000
G01 Z0
G00 Z2.0000
G00 X-71.0006 Y-98.6993
G01 Z-2.5000
G01 Z0
G00 Z2.0000
G00 X-65.7504 Y-98.7247
G01 Z-2.5000
G01 Z0
G00 Z2.0000
G00 X-61.9608 Y-98.6993
G01 Z-2.5000
G01 Z0
G00 Z2.0000
G00 X-61.8998 Y-103.7006
G01 Z-2.5000
G01 Z0
G00 Z2.0000
G00 X-69.2506 Y-122.3848
G01 Z-2.5000
G01 Z0
G00 Z2.0000
G00 X-89.7001 Y-122.7988
G01 Z-2.5000
G01 Z0
G00 Z2.0000
G00 X-89.7001 Y-118.9990
G01 Z-2.5000
G01 Z0
G00 Z2.0000
G00 X-91.0006 Y-103.5990
G01 Z-2.5000
G01 Z0
G00 Z2.0000
G00 X-91.0006 Y-99.7991
G01 Z-2.5000
G01 Z0
G00 Z2.0000
G00 X-118.8009 Y-48.2600
G01 Z-2.5000
G01 Z0
G00 Z2.0000
G00 X-118.8009 Y-38.1000
G01 Z-2.5000
G01 Z0
G00 Z2.0000
G00 X-118.8009 Y-26.4592
G01 Z-2.5000
G01 Z0
G00 Z2.0000
G00 X-118.8009 Y-16.2992
G01 Z-2.5000
G01 Z0
G00 Z2.0000
M05
G00 Z15.00
G00 X0.0 Y0.0


