(G-code generated by FlatCAM Evo vUnstable - Version Date: 2023/6/31)

(Name: func_amp.drl_cnc)
(Type: G-code from Excellon)
(Units: MM)

(Created on Friday, 20 October 2023 at 08:34)

(This preprocessor is the default preprocessor.)
(It is made to work with MACH3 compatible motion controllers.)


(TOOLS DIAMETER: )
(Tool: 3 -> Dia: 1.0998199999999998)

(FEEDRATE Z: )
(Tool: 3 -> Feedrate: 120.0)

(FEEDRATE RAPIDS: )
(Tool: 3 -> Feedrate Rapids: 1500)

(Z_CUT: )
(Tool: 3 -> Z_Cut: -2.5)

(Tools Offset: )
(Tool: 3 -> Offset Z: 0.0)

(Z_MOVE: )
(Tool: 3 -> Z_Move: 2)

(Z Start: None mm)
(Z End: 15 mm)
(X,Y End: 0.0000, 0.0000 mm)
(Steps per circle: 16)
(Preprocessor Excellon: default)

(X range: -129.1006 ...   -2.9007  mm)
(Y range: -129.1006 ...   -2.9007  mm)

(Spindle Speed: 13000 RPM)
G21
G90
G94

G01 F120.00
G00 Z2.0000

M03 S13000
G4 P1
G00 X-67.4497 Y-85.0240
G01 Z-2.5000
G01 Z0
G00 Z2.0000
G00 X-70.8508 Y-85.0240
G01 Z-2.5000
G01 Z0
G00 Z2.0000
G00 X-72.5500 Y-88.7247
G01 Z-2.5000
G01 Z0
G00 Z2.0000
G00 X-69.1490 Y-88.7247
G01 Z-2.5000
G01 Z0
G00 Z2.0000
G00 X-65.7504 Y-88.7247
G01 Z-2.5000
G01 Z0
G00 Z2.0000
G00 X-69.1388 Y-93.7006
G01 Z-2.5000
G01 Z0
G00 Z2.0000
G00 X-79.2988 Y-93.7006
G01 Z-2.5000
G01 Z0
G00 Z2.0000
G00 X-83.7489 Y-93.8657
G01 Z-2.5000
G01 Z0
G00 Z2.0000
G00 X-83.7489 Y-104.0257
G01 Z-2.5000
G01 Z0
G00 Z2.0000
M05
G00 Z15.00
G00 X0.0 Y0.0


