(G-code generated by FlatCAM Evo vUnstable - Version Date: 2023/6/31)

(Name: func_amp.drl_cnc)
(Type: G-code from Excellon)
(Units: MM)

(Created on Friday, 20 October 2023 at 08:36)

(This preprocessor is the default preprocessor.)
(It is made to work with MACH3 compatible motion controllers.)


(TOOLS DIAMETER: )
(Tool: 5 -> Dia: 1.39954)

(FEEDRATE Z: )
(Tool: 5 -> Feedrate: 120.0)

(FEEDRATE RAPIDS: )
(Tool: 5 -> Feedrate Rapids: 1500)

(Z_CUT: )
(Tool: 5 -> Z_Cut: -2.5)

(Tools Offset: )
(Tool: 5 -> Offset Z: 0.0)

(Z_MOVE: )
(Tool: 5 -> Z_Move: 2)

(Z Start: None mm)
(Z End: 15 mm)
(X,Y End: 0.0000, 0.0000 mm)
(Steps per circle: 16)
(Preprocessor Excellon: default)

(X range: -129.1006 ...   -2.9007  mm)
(Y range: -129.1006 ...   -2.9007  mm)

(Spindle Speed: 13000 RPM)
G21
G90
G94

G01 F120.00
G00 Z2.0000

M03 S13000
G4 P1
G00 X-4.0005 Y-14.3002
G01 Z-2.5000
G01 Z0
G00 Z2.0000
G00 X-4.0005 Y-19.3802
G01 Z-2.5000
G01 Z0
G00 Z2.0000
G00 X-4.0005 Y-44.8208
G01 Z-2.5000
G01 Z0
G00 Z2.0000
G00 X-4.0005 Y-49.9008
G01 Z-2.5000
G01 Z0
G00 Z2.0000
G00 X-18.6588 Y-96.9010
G01 Z-2.5000
G01 Z0
G00 Z2.0000
G00 X-23.7388 Y-96.9010
G01 Z-2.5000
G01 Z0
G00 Z2.0000
G00 X-23.7388 Y-104.3991
G01 Z-2.5000
G01 Z0
G00 Z2.0000
G00 X-18.6588 Y-104.3991
G01 Z-2.5000
G01 Z0
G00 Z2.0000
G00 X-18.6588 Y-111.8997
G01 Z-2.5000
G01 Z0
G00 Z2.0000
G00 X-23.7388 Y-111.8997
G01 Z-2.5000
G01 Z0
G00 Z2.0000
G00 X-103.4593 Y-83.5000
G01 Z-2.5000
G01 Z0
G00 Z2.0000
G00 X-108.5393 Y-83.5000
G01 Z-2.5000
G01 Z0
G00 Z2.0000
G00 X-108.5393 Y-75.9993
G01 Z-2.5000
G01 Z0
G00 Z2.0000
G00 X-103.4593 Y-75.9993
G01 Z-2.5000
G01 Z0
G00 Z2.0000
G00 X-103.4593 Y-68.5013
G01 Z-2.5000
G01 Z0
G00 Z2.0000
G00 X-108.5393 Y-68.5013
G01 Z-2.5000
G01 Z0
G00 Z2.0000
G00 X-111.4603 Y-104.0003
G01 Z-2.5000
G01 Z0
G00 Z2.0000
G00 X-116.5403 Y-104.0003
G01 Z-2.5000
G01 Z0
G00 Z2.0000
G00 X-111.0412 Y-5.9995
G01 Z-2.5000
G01 Z0
G00 Z2.0000
G00 X-105.9612 Y-5.9995
G01 Z-2.5000
G01 Z0
G00 Z2.0000
G00 X-98.5393 Y-5.9995
G01 Z-2.5000
G01 Z0
G00 Z2.0000
G00 X-93.4593 Y-5.9995
G01 Z-2.5000
G01 Z0
G00 Z2.0000
G00 X-86.0400 Y-5.9995
G01 Z-2.5000
G01 Z0
G00 Z2.0000
G00 X-80.9600 Y-5.9995
G01 Z-2.5000
G01 Z0
G00 Z2.0000
G00 X-73.5406 Y-5.9995
G01 Z-2.5000
G01 Z0
G00 Z2.0000
G00 X-68.4606 Y-5.9995
G01 Z-2.5000
G01 Z0
G00 Z2.0000
M05
G00 Z15.00
G00 X0.0 Y0.0


