(G-code generated by FlatCAM Evo vUnstable - Version Date: 2023/6/31)

(Name: func_amp.drl_cnc)
(Type: G-code from Excellon)
(Units: MM)

(Created on Friday, 20 October 2023 at 08:36)

(This preprocessor is the default preprocessor.)
(It is made to work with MACH3 compatible motion controllers.)


(TOOLS DIAMETER: )
(Tool: 6 -> Dia: 1.6205199999999997)

(FEEDRATE Z: )
(Tool: 6 -> Feedrate: 120.0)

(FEEDRATE RAPIDS: )
(Tool: 6 -> Feedrate Rapids: 1500)

(Z_CUT: )
(Tool: 6 -> Z_Cut: -2.5)

(Tools Offset: )
(Tool: 6 -> Offset Z: 0.0)

(Z_MOVE: )
(Tool: 6 -> Z_Move: 2)

(Z Start: None mm)
(Z End: 15 mm)
(X,Y End: 0.0000, 0.0000 mm)
(Steps per circle: 16)
(Preprocessor Excellon: default)

(X range: -129.1006 ...   -2.9007  mm)
(Y range: -129.1006 ...   -2.9007  mm)

(Spindle Speed: 13000 RPM)
G21
G90
G94

G01 F120.00
G00 Z2.0000

M03 S13000
G4 P1
G00 X-17.0561 Y-19.4005
G01 Z-2.5000
G01 Z0
G00 Z2.0000
G00 X-17.0561 Y-44.8005
G01 Z-2.5000
G01 Z0
G00 Z2.0000
G00 X-57.6961 Y-44.8005
G01 Z-2.5000
G01 Z0
G00 Z2.0000
G00 X-57.6961 Y-37.1805
G01 Z-2.5000
G01 Z0
G00 Z2.0000
G00 X-57.6961 Y-27.0205
G01 Z-2.5000
G01 Z0
G00 Z2.0000
G00 X-57.6961 Y-19.4005
G01 Z-2.5000
G01 Z0
G00 Z2.0000
M05
G00 Z15.00
G00 X0.0 Y0.0


