(G-code generated by FlatCAM Evo vUnstable - Version Date: 2023/6/31)

(Name: func_amp.drl_exc_cnc_cnc)
(Type: G-code from Geometry)
(Units: MM)

(Created on Friday, 20 October 2023 at 08:43)

(This preprocessor is the default preprocessor.)
(It is made to work with MACH3 compatible motion controllers.)

(TOOL DIAMETER: 1.0 mm)
(Feedrate_XY: 120.0 mm/min)
(Feedrate_Z: 60.0 mm/min)
(Feedrate rapids 1500.0 mm/min)

(Z_Cut: -2.5 mm)
(DepthPerCut: 0.5 mm <=>5 passes)
(Z_Move: 2.0 mm)
(Z Start: None mm)
(Z End: 15.0 mm)
(X,Y End: 0.0000, 0.0000 mm)
(Steps per circle: 16)
(Preprocessor Geometry: default)

(X range: -129.1006 ...   -2.9007  mm)
(Y range: -129.1006 ...   -2.9007  mm)

(Spindle Speed: 13000.0 RPM)
G21
G90
G94

G01 F120.00
G00 Z2.0000

M03 S13000.0
G4 P1.0
G01 F120.00
G00 X-3.4013 Y-4.5009
G01 F60.00
G01 Z-0.5000
G01 F120.00
G01 X-3.4066 Y-4.6087
G01 X-3.4224 Y-4.7154
G01 X-3.4486 Y-4.8201
G01 X-3.4850 Y-4.9217
G01 X-3.5311 Y-5.0192
G01 X-3.5866 Y-5.1118
G01 X-3.6509 Y-5.1985
G01 X-3.7233 Y-5.2784
G01 X-3.8033 Y-5.3509
G01 X-3.8900 Y-5.4152
G01 X-3.9825 Y-5.4706
G01 X-4.0801 Y-5.5168
G01 X-4.1817 Y-5.5531
G01 X-4.2864 Y-5.5793
G01 X-4.3931 Y-5.5952
G01 X-4.5009 Y-5.6005
G01 X-4.6087 Y-5.5952
G01 X-4.7154 Y-5.5793
G01 X-4.8201 Y-5.5531
G01 X-4.9217 Y-5.5168
G01 X-5.0192 Y-5.4706
G01 X-5.1118 Y-5.4152
G01 X-5.1985 Y-5.3509
G01 X-5.2784 Y-5.2784
G01 X-5.3509 Y-5.1985
G01 X-5.4152 Y-5.1118
G01 X-5.4706 Y-5.0192
G01 X-5.5168 Y-4.9217
G01 X-5.5531 Y-4.8201
G01 X-5.5793 Y-4.7154
G01 X-5.5952 Y-4.6087
G01 X-5.6005 Y-4.5009
G01 X-5.5952 Y-4.3931
G01 X-5.5793 Y-4.2864
G01 X-5.5531 Y-4.1817
G01 X-5.5168 Y-4.0801
G01 X-5.4706 Y-3.9825
G01 X-5.4152 Y-3.8900
G01 X-5.3509 Y-3.8033
G01 X-5.2784 Y-3.7233
G01 X-5.1985 Y-3.6509
G01 X-5.1118 Y-3.5866
G01 X-5.0192 Y-3.5311
G01 X-4.9217 Y-3.4850
G01 X-4.8201 Y-3.4486
G01 X-4.7154 Y-3.4224
G01 X-4.6087 Y-3.4066
G01 X-4.5009 Y-3.4013
G01 X-4.3931 Y-3.4066
G01 X-4.2864 Y-3.4224
G01 X-4.1817 Y-3.4486
G01 X-4.0801 Y-3.4850
G01 X-3.9825 Y-3.5311
G01 X-3.8900 Y-3.5866
G01 X-3.8033 Y-3.6509
G01 X-3.7233 Y-3.7233
G01 X-3.6509 Y-3.8033
G01 X-3.5866 Y-3.8900
G01 X-3.5311 Y-3.9825
G01 X-3.4850 Y-4.0801
G01 X-3.4486 Y-4.1817
G01 X-3.4224 Y-4.2864
G01 X-3.4066 Y-4.3931
G01 X-3.4013 Y-4.5009
G00 X-3.4013 Y-4.5009
G01 F60.00
G01 Z-1.0000
G01 F120.00
G01 X-3.4066 Y-4.3931
G01 X-3.4224 Y-4.2864
G01 X-3.4486 Y-4.1817
G01 X-3.4850 Y-4.0801
G01 X-3.5311 Y-3.9825
G01 X-3.5866 Y-3.8900
G01 X-3.6509 Y-3.8033
G01 X-3.7233 Y-3.7233
G01 X-3.8033 Y-3.6509
G01 X-3.8900 Y-3.5866
G01 X-3.9825 Y-3.5311
G01 X-4.0801 Y-3.4850
G01 X-4.1817 Y-3.4486
G01 X-4.2864 Y-3.4224
G01 X-4.3931 Y-3.4066
G01 X-4.5009 Y-3.4013
G01 X-4.6087 Y-3.4066
G01 X-4.7154 Y-3.4224
G01 X-4.8201 Y-3.4486
G01 X-4.9217 Y-3.4850
G01 X-5.0192 Y-3.5311
G01 X-5.1118 Y-3.5866
G01 X-5.1985 Y-3.6509
G01 X-5.2784 Y-3.7233
G01 X-5.3509 Y-3.8033
G01 X-5.4152 Y-3.8900
G01 X-5.4706 Y-3.9825
G01 X-5.5168 Y-4.0801
G01 X-5.5531 Y-4.1817
G01 X-5.5793 Y-4.2864
G01 X-5.5952 Y-4.3931
G01 X-5.6005 Y-4.5009
G01 X-5.5952 Y-4.6087
G01 X-5.5793 Y-4.7154
G01 X-5.5531 Y-4.8201
G01 X-5.5168 Y-4.9217
G01 X-5.4706 Y-5.0192
G01 X-5.4152 Y-5.1118
G01 X-5.3509 Y-5.1985
G01 X-5.2784 Y-5.2784
G01 X-5.1985 Y-5.3509
G01 X-5.1118 Y-5.4152
G01 X-5.0192 Y-5.4706
G01 X-4.9217 Y-5.5168
G01 X-4.8201 Y-5.5531
G01 X-4.7154 Y-5.5793
G01 X-4.6087 Y-5.5952
G01 X-4.5009 Y-5.6005
G01 X-4.3931 Y-5.5952
G01 X-4.2864 Y-5.5793
G01 X-4.1817 Y-5.5531
G01 X-4.0801 Y-5.5168
G01 X-3.9825 Y-5.4706
G01 X-3.8900 Y-5.4152
G01 X-3.8033 Y-5.3509
G01 X-3.7233 Y-5.2784
G01 X-3.6509 Y-5.1985
G01 X-3.5866 Y-5.1118
G01 X-3.5311 Y-5.0192
G01 X-3.4850 Y-4.9217
G01 X-3.4486 Y-4.8201
G01 X-3.4224 Y-4.7154
G01 X-3.4066 Y-4.6087
G01 X-3.4013 Y-4.5009
G00 X-3.4013 Y-4.5009
G01 F60.00
G01 Z-1.5000
G01 F120.00
G01 X-3.4066 Y-4.6087
G01 X-3.4224 Y-4.7154
G01 X-3.4486 Y-4.8201
G01 X-3.4850 Y-4.9217
G01 X-3.5311 Y-5.0192
G01 X-3.5866 Y-5.1118
G01 X-3.6509 Y-5.1985
G01 X-3.7233 Y-5.2784
G01 X-3.8033 Y-5.3509
G01 X-3.8900 Y-5.4152
G01 X-3.9825 Y-5.4706
G01 X-4.0801 Y-5.5168
G01 X-4.1817 Y-5.5531
G01 X-4.2864 Y-5.5793
G01 X-4.3931 Y-5.5952
G01 X-4.5009 Y-5.6005
G01 X-4.6087 Y-5.5952
G01 X-4.7154 Y-5.5793
G01 X-4.8201 Y-5.5531
G01 X-4.9217 Y-5.5168
G01 X-5.0192 Y-5.4706
G01 X-5.1118 Y-5.4152
G01 X-5.1985 Y-5.3509
G01 X-5.2784 Y-5.2784
G01 X-5.3509 Y-5.1985
G01 X-5.4152 Y-5.1118
G01 X-5.4706 Y-5.0192
G01 X-5.5168 Y-4.9217
G01 X-5.5531 Y-4.8201
G01 X-5.5793 Y-4.7154
G01 X-5.5952 Y-4.6087
G01 X-5.6005 Y-4.5009
G01 X-5.5952 Y-4.3931
G01 X-5.5793 Y-4.2864
G01 X-5.5531 Y-4.1817
G01 X-5.5168 Y-4.0801
G01 X-5.4706 Y-3.9825
G01 X-5.4152 Y-3.8900
G01 X-5.3509 Y-3.8033
G01 X-5.2784 Y-3.7233
G01 X-5.1985 Y-3.6509
G01 X-5.1118 Y-3.5866
G01 X-5.0192 Y-3.5311
G01 X-4.9217 Y-3.4850
G01 X-4.8201 Y-3.4486
G01 X-4.7154 Y-3.4224
G01 X-4.6087 Y-3.4066
G01 X-4.5009 Y-3.4013
G01 X-4.3931 Y-3.4066
G01 X-4.2864 Y-3.4224
G01 X-4.1817 Y-3.4486
G01 X-4.0801 Y-3.4850
G01 X-3.9825 Y-3.5311
G01 X-3.8900 Y-3.5866
G01 X-3.8033 Y-3.6509
G01 X-3.7233 Y-3.7233
G01 X-3.6509 Y-3.8033
G01 X-3.5866 Y-3.8900
G01 X-3.5311 Y-3.9825
G01 X-3.4850 Y-4.0801
G01 X-3.4486 Y-4.1817
G01 X-3.4224 Y-4.2864
G01 X-3.4066 Y-4.3931
G01 X-3.4013 Y-4.5009
G00 X-3.4013 Y-4.5009
G01 F60.00
G01 Z-2.0000
G01 F120.00
G01 X-3.4066 Y-4.3931
G01 X-3.4224 Y-4.2864
G01 X-3.4486 Y-4.1817
G01 X-3.4850 Y-4.0801
G01 X-3.5311 Y-3.9825
G01 X-3.5866 Y-3.8900
G01 X-3.6509 Y-3.8033
G01 X-3.7233 Y-3.7233
G01 X-3.8033 Y-3.6509
G01 X-3.8900 Y-3.5866
G01 X-3.9825 Y-3.5311
G01 X-4.0801 Y-3.4850
G01 X-4.1817 Y-3.4486
G01 X-4.2864 Y-3.4224
G01 X-4.3931 Y-3.4066
G01 X-4.5009 Y-3.4013
G01 X-4.6087 Y-3.4066
G01 X-4.7154 Y-3.4224
G01 X-4.8201 Y-3.4486
G01 X-4.9217 Y-3.4850
G01 X-5.0192 Y-3.5311
G01 X-5.1118 Y-3.5866
G01 X-5.1985 Y-3.6509
G01 X-5.2784 Y-3.7233
G01 X-5.3509 Y-3.8033
G01 X-5.4152 Y-3.8900
G01 X-5.4706 Y-3.9825
G01 X-5.5168 Y-4.0801
G01 X-5.5531 Y-4.1817
G01 X-5.5793 Y-4.2864
G01 X-5.5952 Y-4.3931
G01 X-5.6005 Y-4.5009
G01 X-5.5952 Y-4.6087
G01 X-5.5793 Y-4.7154
G01 X-5.5531 Y-4.8201
G01 X-5.5168 Y-4.9217
G01 X-5.4706 Y-5.0192
G01 X-5.4152 Y-5.1118
G01 X-5.3509 Y-5.1985
G01 X-5.2784 Y-5.2784
G01 X-5.1985 Y-5.3509
G01 X-5.1118 Y-5.4152
G01 X-5.0192 Y-5.4706
G01 X-4.9217 Y-5.5168
G01 X-4.8201 Y-5.5531
G01 X-4.7154 Y-5.5793
G01 X-4.6087 Y-5.5952
G01 X-4.5009 Y-5.6005
G01 X-4.3931 Y-5.5952
G01 X-4.2864 Y-5.5793
G01 X-4.1817 Y-5.5531
G01 X-4.0801 Y-5.5168
G01 X-3.9825 Y-5.4706
G01 X-3.8900 Y-5.4152
G01 X-3.8033 Y-5.3509
G01 X-3.7233 Y-5.2784
G01 X-3.6509 Y-5.1985
G01 X-3.5866 Y-5.1118
G01 X-3.5311 Y-5.0192
G01 X-3.4850 Y-4.9217
G01 X-3.4486 Y-4.8201
G01 X-3.4224 Y-4.7154
G01 X-3.4066 Y-4.6087
G01 X-3.4013 Y-4.5009
G00 X-3.4013 Y-4.5009
G01 F60.00
G01 Z-2.5000
G01 F120.00
G01 X-3.4066 Y-4.6087
G01 X-3.4224 Y-4.7154
G01 X-3.4486 Y-4.8201
G01 X-3.4850 Y-4.9217
G01 X-3.5311 Y-5.0192
G01 X-3.5866 Y-5.1118
G01 X-3.6509 Y-5.1985
G01 X-3.7233 Y-5.2784
G01 X-3.8033 Y-5.3509
G01 X-3.8900 Y-5.4152
G01 X-3.9825 Y-5.4706
G01 X-4.0801 Y-5.5168
G01 X-4.1817 Y-5.5531
G01 X-4.2864 Y-5.5793
G01 X-4.3931 Y-5.5952
G01 X-4.5009 Y-5.6005
G01 X-4.6087 Y-5.5952
G01 X-4.7154 Y-5.5793
G01 X-4.8201 Y-5.5531
G01 X-4.9217 Y-5.5168
G01 X-5.0192 Y-5.4706
G01 X-5.1118 Y-5.4152
G01 X-5.1985 Y-5.3509
G01 X-5.2784 Y-5.2784
G01 X-5.3509 Y-5.1985
G01 X-5.4152 Y-5.1118
G01 X-5.4706 Y-5.0192
G01 X-5.5168 Y-4.9217
G01 X-5.5531 Y-4.8201
G01 X-5.5793 Y-4.7154
G01 X-5.5952 Y-4.6087
G01 X-5.6005 Y-4.5009
G01 X-5.5952 Y-4.3931
G01 X-5.5793 Y-4.2864
G01 X-5.5531 Y-4.1817
G01 X-5.5168 Y-4.0801
G01 X-5.4706 Y-3.9825
G01 X-5.4152 Y-3.8900
G01 X-5.3509 Y-3.8033
G01 X-5.2784 Y-3.7233
G01 X-5.1985 Y-3.6509
G01 X-5.1118 Y-3.5866
G01 X-5.0192 Y-3.5311
G01 X-4.9217 Y-3.4850
G01 X-4.8201 Y-3.4486
G01 X-4.7154 Y-3.4224
G01 X-4.6087 Y-3.4066
G01 X-4.5009 Y-3.4013
G01 X-4.3931 Y-3.4066
G01 X-4.2864 Y-3.4224
G01 X-4.1817 Y-3.4486
G01 X-4.0801 Y-3.4850
G01 X-3.9825 Y-3.5311
G01 X-3.8900 Y-3.5866
G01 X-3.8033 Y-3.6509
G01 X-3.7233 Y-3.7233
G01 X-3.6509 Y-3.8033
G01 X-3.5866 Y-3.8900
G01 X-3.5311 Y-3.9825
G01 X-3.4850 Y-4.0801
G01 X-3.4486 Y-4.1817
G01 X-3.4224 Y-4.2864
G01 X-3.4066 Y-4.3931
G01 X-3.4013 Y-4.5009
G00 Z2.0000
G00 X-4.0509 Y-4.5009
G01 F60.00
G01 Z-0.5000
G01 F120.00
G01 X-4.0595 Y-4.5887
G01 X-4.0851 Y-4.6731
G01 X-4.1267 Y-4.7509
G01 X-4.1827 Y-4.8191
G01 X-4.2509 Y-4.8750
G01 X-4.3287 Y-4.9166
G01 X-4.4131 Y-4.9422
G01 X-4.5009 Y-4.9509
G01 X-4.5887 Y-4.9422
G01 X-4.6731 Y-4.9166
G01 X-4.7509 Y-4.8750
G01 X-4.8191 Y-4.8191
G01 X-4.8750 Y-4.7509
G01 X-4.9166 Y-4.6731
G01 X-4.9422 Y-4.5887
G01 X-4.9509 Y-4.5009
G01 X-4.9422 Y-4.4131
G01 X-4.9166 Y-4.3287
G01 X-4.8750 Y-4.2509
G01 X-4.8191 Y-4.1827
G01 X-4.7509 Y-4.1267
G01 X-4.6731 Y-4.0851
G01 X-4.5887 Y-4.0595
G01 X-4.5009 Y-4.0509
G01 X-4.4131 Y-4.0595
G01 X-4.3287 Y-4.0851
G01 X-4.2509 Y-4.1267
G01 X-4.1827 Y-4.1827
G01 X-4.1267 Y-4.2509
G01 X-4.0851 Y-4.3287
G01 X-4.0595 Y-4.4131
G01 X-4.0509 Y-4.5009
G00 X-4.0509 Y-4.5009
G01 F60.00
G01 Z-1.0000
G01 F120.00
G01 X-4.0595 Y-4.4131
G01 X-4.0851 Y-4.3287
G01 X-4.1267 Y-4.2509
G01 X-4.1827 Y-4.1827
G01 X-4.2509 Y-4.1267
G01 X-4.3287 Y-4.0851
G01 X-4.4131 Y-4.0595
G01 X-4.5009 Y-4.0509
G01 X-4.5887 Y-4.0595
G01 X-4.6731 Y-4.0851
G01 X-4.7509 Y-4.1267
G01 X-4.8191 Y-4.1827
G01 X-4.8750 Y-4.2509
G01 X-4.9166 Y-4.3287
G01 X-4.9422 Y-4.4131
G01 X-4.9509 Y-4.5009
G01 X-4.9422 Y-4.5887
G01 X-4.9166 Y-4.6731
G01 X-4.8750 Y-4.7509
G01 X-4.8191 Y-4.8191
G01 X-4.7509 Y-4.8750
G01 X-4.6731 Y-4.9166
G01 X-4.5887 Y-4.9422
G01 X-4.5009 Y-4.9509
G01 X-4.4131 Y-4.9422
G01 X-4.3287 Y-4.9166
G01 X-4.2509 Y-4.8750
G01 X-4.1827 Y-4.8191
G01 X-4.1267 Y-4.7509
G01 X-4.0851 Y-4.6731
G01 X-4.0595 Y-4.5887
G01 X-4.0509 Y-4.5009
G00 X-4.0509 Y-4.5009
G01 F60.00
G01 Z-1.5000
G01 F120.00
G01 X-4.0595 Y-4.5887
G01 X-4.0851 Y-4.6731
G01 X-4.1267 Y-4.7509
G01 X-4.1827 Y-4.8191
G01 X-4.2509 Y-4.8750
G01 X-4.3287 Y-4.9166
G01 X-4.4131 Y-4.9422
G01 X-4.5009 Y-4.9509
G01 X-4.5887 Y-4.9422
G01 X-4.6731 Y-4.9166
G01 X-4.7509 Y-4.8750
G01 X-4.8191 Y-4.8191
G01 X-4.8750 Y-4.7509
G01 X-4.9166 Y-4.6731
G01 X-4.9422 Y-4.5887
G01 X-4.9509 Y-4.5009
G01 X-4.9422 Y-4.4131
G01 X-4.9166 Y-4.3287
G01 X-4.8750 Y-4.2509
G01 X-4.8191 Y-4.1827
G01 X-4.7509 Y-4.1267
G01 X-4.6731 Y-4.0851
G01 X-4.5887 Y-4.0595
G01 X-4.5009 Y-4.0509
G01 X-4.4131 Y-4.0595
G01 X-4.3287 Y-4.0851
G01 X-4.2509 Y-4.1267
G01 X-4.1827 Y-4.1827
G01 X-4.1267 Y-4.2509
G01 X-4.0851 Y-4.3287
G01 X-4.0595 Y-4.4131
G01 X-4.0509 Y-4.5009
G00 X-4.0509 Y-4.5009
G01 F60.00
G01 Z-2.0000
G01 F120.00
G01 X-4.0595 Y-4.4131
G01 X-4.0851 Y-4.3287
G01 X-4.1267 Y-4.2509
G01 X-4.1827 Y-4.1827
G01 X-4.2509 Y-4.1267
G01 X-4.3287 Y-4.0851
G01 X-4.4131 Y-4.0595
G01 X-4.5009 Y-4.0509
G01 X-4.5887 Y-4.0595
G01 X-4.6731 Y-4.0851
G01 X-4.7509 Y-4.1267
G01 X-4.8191 Y-4.1827
G01 X-4.8750 Y-4.2509
G01 X-4.9166 Y-4.3287
G01 X-4.9422 Y-4.4131
G01 X-4.9509 Y-4.5009
G01 X-4.9422 Y-4.5887
G01 X-4.9166 Y-4.6731
G01 X-4.8750 Y-4.7509
G01 X-4.8191 Y-4.8191
G01 X-4.7509 Y-4.8750
G01 X-4.6731 Y-4.9166
G01 X-4.5887 Y-4.9422
G01 X-4.5009 Y-4.9509
G01 X-4.4131 Y-4.9422
G01 X-4.3287 Y-4.9166
G01 X-4.2509 Y-4.8750
G01 X-4.1827 Y-4.8191
G01 X-4.1267 Y-4.7509
G01 X-4.0851 Y-4.6731
G01 X-4.0595 Y-4.5887
G01 X-4.0509 Y-4.5009
G00 X-4.0509 Y-4.5009
G01 F60.00
G01 Z-2.5000
G01 F120.00
G01 X-4.0595 Y-4.5887
G01 X-4.0851 Y-4.6731
G01 X-4.1267 Y-4.7509
G01 X-4.1827 Y-4.8191
G01 X-4.2509 Y-4.8750
G01 X-4.3287 Y-4.9166
G01 X-4.4131 Y-4.9422
G01 X-4.5009 Y-4.9509
G01 X-4.5887 Y-4.9422
G01 X-4.6731 Y-4.9166
G01 X-4.7509 Y-4.8750
G01 X-4.8191 Y-4.8191
G01 X-4.8750 Y-4.7509
G01 X-4.9166 Y-4.6731
G01 X-4.9422 Y-4.5887
G01 X-4.9509 Y-4.5009
G01 X-4.9422 Y-4.4131
G01 X-4.9166 Y-4.3287
G01 X-4.8750 Y-4.2509
G01 X-4.8191 Y-4.1827
G01 X-4.7509 Y-4.1267
G01 X-4.6731 Y-4.0851
G01 X-4.5887 Y-4.0595
G01 X-4.5009 Y-4.0509
G01 X-4.4131 Y-4.0595
G01 X-4.3287 Y-4.0851
G01 X-4.2509 Y-4.1267
G01 X-4.1827 Y-4.1827
G01 X-4.1267 Y-4.2509
G01 X-4.0851 Y-4.3287
G01 X-4.0595 Y-4.4131
G01 X-4.0509 Y-4.5009
G00 Z2.0000
G00 X-126.4008 Y-4.5009
G01 F60.00
G01 Z-0.5000
G01 F120.00
G01 X-126.4061 Y-4.6087
G01 X-126.4219 Y-4.7154
G01 X-126.4481 Y-4.8201
G01 X-126.4845 Y-4.9217
G01 X-126.5306 Y-5.0192
G01 X-126.5861 Y-5.1118
G01 X-126.6504 Y-5.1985
G01 X-126.7228 Y-5.2784
G01 X-126.8028 Y-5.3509
G01 X-126.8895 Y-5.4152
G01 X-126.9820 Y-5.4706
G01 X-127.0796 Y-5.5168
G01 X-127.1812 Y-5.5531
G01 X-127.2859 Y-5.5793
G01 X-127.3926 Y-5.5952
G01 X-127.5004 Y-5.6005
G01 X-127.6082 Y-5.5952
G01 X-127.7149 Y-5.5793
G01 X-127.8196 Y-5.5531
G01 X-127.9212 Y-5.5168
G01 X-128.0187 Y-5.4706
G01 X-128.1113 Y-5.4152
G01 X-128.1980 Y-5.3509
G01 X-128.2779 Y-5.2784
G01 X-128.3504 Y-5.1985
G01 X-128.4147 Y-5.1118
G01 X-128.4701 Y-5.0192
G01 X-128.5163 Y-4.9217
G01 X-128.5526 Y-4.8201
G01 X-128.5788 Y-4.7154
G01 X-128.5947 Y-4.6087
G01 X-128.6000 Y-4.5009
G01 X-128.5947 Y-4.3931
G01 X-128.5788 Y-4.2864
G01 X-128.5526 Y-4.1817
G01 X-128.5163 Y-4.0801
G01 X-128.4701 Y-3.9825
G01 X-128.4147 Y-3.8900
G01 X-128.3504 Y-3.8033
G01 X-128.2779 Y-3.7233
G01 X-128.1980 Y-3.6509
G01 X-128.1113 Y-3.5866
G01 X-128.0187 Y-3.5311
G01 X-127.9212 Y-3.4850
G01 X-127.8196 Y-3.4486
G01 X-127.7149 Y-3.4224
G01 X-127.6082 Y-3.4066
G01 X-127.5004 Y-3.4013
G01 X-127.3926 Y-3.4066
G01 X-127.2859 Y-3.4224
G01 X-127.1812 Y-3.4486
G01 X-127.0796 Y-3.4850
G01 X-126.9820 Y-3.5311
G01 X-126.8895 Y-3.5866
G01 X-126.8028 Y-3.6509
G01 X-126.7228 Y-3.7233
G01 X-126.6504 Y-3.8033
G01 X-126.5861 Y-3.8900
G01 X-126.5306 Y-3.9825
G01 X-126.4845 Y-4.0801
G01 X-126.4481 Y-4.1817
G01 X-126.4219 Y-4.2864
G01 X-126.4061 Y-4.3931
G01 X-126.4008 Y-4.5009
G01 X-127.0504 Y-4.5009
G01 X-127.0553 Y-4.5669
G01 X-127.0767 Y-4.6525
G01 X-127.1144 Y-4.7322
G01 X-127.1670 Y-4.8031
G01 X-127.2323 Y-4.8623
G01 X-127.3080 Y-4.9077
G01 X-127.3698 Y-4.9315
G01 X-127.4563 Y-4.9487
G01 X-127.5225 Y-4.9503
G01 X-127.6097 Y-4.9374
G01 X-127.7317 Y-4.8869
G01 X-127.8338 Y-4.8031
G01 X-127.8864 Y-4.7322
G01 X-127.9161 Y-4.6731
G01 X-127.9455 Y-4.5669
G01 X-127.9498 Y-4.4788
G01 X-127.9369 Y-4.3915
G01 X-127.8972 Y-4.2888
G01 X-127.8338 Y-4.1987
G01 X-127.7684 Y-4.1394
G01 X-127.6928 Y-4.0941
G01 X-127.5882 Y-4.0595
G01 X-127.4783 Y-4.0514
G01 X-127.3910 Y-4.0644
G01 X-127.3080 Y-4.0941
G01 X-127.2149 Y-4.1530
G01 X-127.1389 Y-4.2328
G01 X-127.0936 Y-4.3085
G01 X-127.0639 Y-4.3915
G01 X-127.0504 Y-4.5009
G00 X-127.0504 Y-4.5009
G01 F60.00
G01 Z-1.0000
G01 F120.00
G01 X-127.0639 Y-4.3915
G01 X-127.0936 Y-4.3085
G01 X-127.1389 Y-4.2328
G01 X-127.2149 Y-4.1530
G01 X-127.3080 Y-4.0941
G01 X-127.3910 Y-4.0644
G01 X-127.4783 Y-4.0514
G01 X-127.5882 Y-4.0595
G01 X-127.6928 Y-4.0941
G01 X-127.7684 Y-4.1394
G01 X-127.8338 Y-4.1987
G01 X-127.8972 Y-4.2888
G01 X-127.9369 Y-4.3915
G01 X-127.9498 Y-4.4788
G01 X-127.9455 Y-4.5669
G01 X-127.9161 Y-4.6731
G01 X-127.8864 Y-4.7322
G01 X-127.8338 Y-4.8031
G01 X-127.7317 Y-4.8869
G01 X-127.6097 Y-4.9374
G01 X-127.5225 Y-4.9503
G01 X-127.4563 Y-4.9487
G01 X-127.3698 Y-4.9315
G01 X-127.3080 Y-4.9077
G01 X-127.2323 Y-4.8623
G01 X-127.1670 Y-4.8031
G01 X-127.1144 Y-4.7322
G01 X-127.0767 Y-4.6525
G01 X-127.0553 Y-4.5669
G01 X-127.0504 Y-4.5009
G01 X-126.4008 Y-4.5009
G01 X-126.4061 Y-4.3931
G01 X-126.4219 Y-4.2864
G01 X-126.4481 Y-4.1817
G01 X-126.4845 Y-4.0801
G01 X-126.5306 Y-3.9825
G01 X-126.5861 Y-3.8900
G01 X-126.6504 Y-3.8033
G01 X-126.7228 Y-3.7233
G01 X-126.8028 Y-3.6509
G01 X-126.8895 Y-3.5866
G01 X-126.9820 Y-3.5311
G01 X-127.0796 Y-3.4850
G01 X-127.1812 Y-3.4486
G01 X-127.2859 Y-3.4224
G01 X-127.3926 Y-3.4066
G01 X-127.5004 Y-3.4013
G01 X-127.6082 Y-3.4066
G01 X-127.7149 Y-3.4224
G01 X-127.8196 Y-3.4486
G01 X-127.9212 Y-3.4850
G01 X-128.0187 Y-3.5311
G01 X-128.1113 Y-3.5866
G01 X-128.1980 Y-3.6509
G01 X-128.2779 Y-3.7233
G01 X-128.3504 Y-3.8033
G01 X-128.4147 Y-3.8900
G01 X-128.4701 Y-3.9825
G01 X-128.5163 Y-4.0801
G01 X-128.5526 Y-4.1817
G01 X-128.5788 Y-4.2864
G01 X-128.5947 Y-4.3931
G01 X-128.6000 Y-4.5009
G01 X-128.5947 Y-4.6087
G01 X-128.5788 Y-4.7154
G01 X-128.5526 Y-4.8201
G01 X-128.5163 Y-4.9217
G01 X-128.4701 Y-5.0192
G01 X-128.4147 Y-5.1118
G01 X-128.3504 Y-5.1985
G01 X-128.2779 Y-5.2784
G01 X-128.1980 Y-5.3509
G01 X-128.1113 Y-5.4152
G01 X-128.0187 Y-5.4706
G01 X-127.9212 Y-5.5168
G01 X-127.8196 Y-5.5531
G01 X-127.7149 Y-5.5793
G01 X-127.6082 Y-5.5952
G01 X-127.5004 Y-5.6005
G01 X-127.3926 Y-5.5952
G01 X-127.2859 Y-5.5793
G01 X-127.1812 Y-5.5531
G01 X-127.0796 Y-5.5168
G01 X-126.9820 Y-5.4706
G01 X-126.8895 Y-5.4152
G01 X-126.8028 Y-5.3509
G01 X-126.7228 Y-5.2784
G01 X-126.6504 Y-5.1985
G01 X-126.5861 Y-5.1118
G01 X-126.5306 Y-5.0192
G01 X-126.4845 Y-4.9217
G01 X-126.4481 Y-4.8201
G01 X-126.4219 Y-4.7154
G01 X-126.4061 Y-4.6087
G01 X-126.4008 Y-4.5009
G00 X-126.4008 Y-4.5009
G01 F60.00
G01 Z-1.5000
G01 F120.00
G01 X-126.4061 Y-4.6087
G01 X-126.4219 Y-4.7154
G01 X-126.4481 Y-4.8201
G01 X-126.4845 Y-4.9217
G01 X-126.5306 Y-5.0192
G01 X-126.5861 Y-5.1118
G01 X-126.6504 Y-5.1985
G01 X-126.7228 Y-5.2784
G01 X-126.8028 Y-5.3509
G01 X-126.8895 Y-5.4152
G01 X-126.9820 Y-5.4706
G01 X-127.0796 Y-5.5168
G01 X-127.1812 Y-5.5531
G01 X-127.2859 Y-5.5793
G01 X-127.3926 Y-5.5952
G01 X-127.5004 Y-5.6005
G01 X-127.6082 Y-5.5952
G01 X-127.7149 Y-5.5793
G01 X-127.8196 Y-5.5531
G01 X-127.9212 Y-5.5168
G01 X-128.0187 Y-5.4706
G01 X-128.1113 Y-5.4152
G01 X-128.1980 Y-5.3509
G01 X-128.2779 Y-5.2784
G01 X-128.3504 Y-5.1985
G01 X-128.4147 Y-5.1118
G01 X-128.4701 Y-5.0192
G01 X-128.5163 Y-4.9217
G01 X-128.5526 Y-4.8201
G01 X-128.5788 Y-4.7154
G01 X-128.5947 Y-4.6087
G01 X-128.6000 Y-4.5009
G01 X-128.5947 Y-4.3931
G01 X-128.5788 Y-4.2864
G01 X-128.5526 Y-4.1817
G01 X-128.5163 Y-4.0801
G01 X-128.4701 Y-3.9825
G01 X-128.4147 Y-3.8900
G01 X-128.3504 Y-3.8033
G01 X-128.2779 Y-3.7233
G01 X-128.1980 Y-3.6509
G01 X-128.1113 Y-3.5866
G01 X-128.0187 Y-3.5311
G01 X-127.9212 Y-3.4850
G01 X-127.8196 Y-3.4486
G01 X-127.7149 Y-3.4224
G01 X-127.6082 Y-3.4066
G01 X-127.5004 Y-3.4013
G01 X-127.3926 Y-3.4066
G01 X-127.2859 Y-3.4224
G01 X-127.1812 Y-3.4486
G01 X-127.0796 Y-3.4850
G01 X-126.9820 Y-3.5311
G01 X-126.8895 Y-3.5866
G01 X-126.8028 Y-3.6509
G01 X-126.7228 Y-3.7233
G01 X-126.6504 Y-3.8033
G01 X-126.5861 Y-3.8900
G01 X-126.5306 Y-3.9825
G01 X-126.4845 Y-4.0801
G01 X-126.4481 Y-4.1817
G01 X-126.4219 Y-4.2864
G01 X-126.4061 Y-4.3931
G01 X-126.4008 Y-4.5009
G01 X-127.0504 Y-4.5009
G01 X-127.0553 Y-4.5669
G01 X-127.0767 Y-4.6525
G01 X-127.1144 Y-4.7322
G01 X-127.1670 Y-4.8031
G01 X-127.2323 Y-4.8623
G01 X-127.3080 Y-4.9077
G01 X-127.3698 Y-4.9315
G01 X-127.4563 Y-4.9487
G01 X-127.5225 Y-4.9503
G01 X-127.6097 Y-4.9374
G01 X-127.7317 Y-4.8869
G01 X-127.8338 Y-4.8031
G01 X-127.8864 Y-4.7322
G01 X-127.9161 Y-4.6731
G01 X-127.9455 Y-4.5669
G01 X-127.9498 Y-4.4788
G01 X-127.9369 Y-4.3915
G01 X-127.8972 Y-4.2888
G01 X-127.8338 Y-4.1987
G01 X-127.7684 Y-4.1394
G01 X-127.6928 Y-4.0941
G01 X-127.5882 Y-4.0595
G01 X-127.4783 Y-4.0514
G01 X-127.3910 Y-4.0644
G01 X-127.3080 Y-4.0941
G01 X-127.2149 Y-4.1530
G01 X-127.1389 Y-4.2328
G01 X-127.0936 Y-4.3085
G01 X-127.0639 Y-4.3915
G01 X-127.0504 Y-4.5009
G00 X-127.0504 Y-4.5009
G01 F60.00
G01 Z-2.0000
G01 F120.00
G01 X-127.0639 Y-4.3915
G01 X-127.0936 Y-4.3085
G01 X-127.1389 Y-4.2328
G01 X-127.2149 Y-4.1530
G01 X-127.3080 Y-4.0941
G01 X-127.3910 Y-4.0644
G01 X-127.4783 Y-4.0514
G01 X-127.5882 Y-4.0595
G01 X-127.6928 Y-4.0941
G01 X-127.7684 Y-4.1394
G01 X-127.8338 Y-4.1987
G01 X-127.8972 Y-4.2888
G01 X-127.9369 Y-4.3915
G01 X-127.9498 Y-4.4788
G01 X-127.9455 Y-4.5669
G01 X-127.9161 Y-4.6731
G01 X-127.8864 Y-4.7322
G01 X-127.8338 Y-4.8031
G01 X-127.7317 Y-4.8869
G01 X-127.6097 Y-4.9374
G01 X-127.5225 Y-4.9503
G01 X-127.4563 Y-4.9487
G01 X-127.3698 Y-4.9315
G01 X-127.3080 Y-4.9077
G01 X-127.2323 Y-4.8623
G01 X-127.1670 Y-4.8031
G01 X-127.1144 Y-4.7322
G01 X-127.0767 Y-4.6525
G01 X-127.0553 Y-4.5669
G01 X-127.0504 Y-4.5009
G01 X-126.4008 Y-4.5009
G01 X-126.4061 Y-4.3931
G01 X-126.4219 Y-4.2864
G01 X-126.4481 Y-4.1817
G01 X-126.4845 Y-4.0801
G01 X-126.5306 Y-3.9825
G01 X-126.5861 Y-3.8900
G01 X-126.6504 Y-3.8033
G01 X-126.7228 Y-3.7233
G01 X-126.8028 Y-3.6509
G01 X-126.8895 Y-3.5866
G01 X-126.9820 Y-3.5311
G01 X-127.0796 Y-3.4850
G01 X-127.1812 Y-3.4486
G01 X-127.2859 Y-3.4224
G01 X-127.3926 Y-3.4066
G01 X-127.5004 Y-3.4013
G01 X-127.6082 Y-3.4066
G01 X-127.7149 Y-3.4224
G01 X-127.8196 Y-3.4486
G01 X-127.9212 Y-3.4850
G01 X-128.0187 Y-3.5311
G01 X-128.1113 Y-3.5866
G01 X-128.1980 Y-3.6509
G01 X-128.2779 Y-3.7233
G01 X-128.3504 Y-3.8033
G01 X-128.4147 Y-3.8900
G01 X-128.4701 Y-3.9825
G01 X-128.5163 Y-4.0801
G01 X-128.5526 Y-4.1817
G01 X-128.5788 Y-4.2864
G01 X-128.5947 Y-4.3931
G01 X-128.6000 Y-4.5009
G01 X-128.5947 Y-4.6087
G01 X-128.5788 Y-4.7154
G01 X-128.5526 Y-4.8201
G01 X-128.5163 Y-4.9217
G01 X-128.4701 Y-5.0192
G01 X-128.4147 Y-5.1118
G01 X-128.3504 Y-5.1985
G01 X-128.2779 Y-5.2784
G01 X-128.1980 Y-5.3509
G01 X-128.1113 Y-5.4152
G01 X-128.0187 Y-5.4706
G01 X-127.9212 Y-5.5168
G01 X-127.8196 Y-5.5531
G01 X-127.7149 Y-5.5793
G01 X-127.6082 Y-5.5952
G01 X-127.5004 Y-5.6005
G01 X-127.3926 Y-5.5952
G01 X-127.2859 Y-5.5793
G01 X-127.1812 Y-5.5531
G01 X-127.0796 Y-5.5168
G01 X-126.9820 Y-5.4706
G01 X-126.8895 Y-5.4152
G01 X-126.8028 Y-5.3509
G01 X-126.7228 Y-5.2784
G01 X-126.6504 Y-5.1985
G01 X-126.5861 Y-5.1118
G01 X-126.5306 Y-5.0192
G01 X-126.4845 Y-4.9217
G01 X-126.4481 Y-4.8201
G01 X-126.4219 Y-4.7154
G01 X-126.4061 Y-4.6087
G01 X-126.4008 Y-4.5009
G00 X-126.4008 Y-4.5009
G01 F60.00
G01 Z-2.5000
G01 F120.00
G01 X-126.4061 Y-4.6087
G01 X-126.4219 Y-4.7154
G01 X-126.4481 Y-4.8201
G01 X-126.4845 Y-4.9217
G01 X-126.5306 Y-5.0192
G01 X-126.5861 Y-5.1118
G01 X-126.6504 Y-5.1985
G01 X-126.7228 Y-5.2784
G01 X-126.8028 Y-5.3509
G01 X-126.8895 Y-5.4152
G01 X-126.9820 Y-5.4706
G01 X-127.0796 Y-5.5168
G01 X-127.1812 Y-5.5531
G01 X-127.2859 Y-5.5793
G01 X-127.3926 Y-5.5952
G01 X-127.5004 Y-5.6005
G01 X-127.6082 Y-5.5952
G01 X-127.7149 Y-5.5793
G01 X-127.8196 Y-5.5531
G01 X-127.9212 Y-5.5168
G01 X-128.0187 Y-5.4706
G01 X-128.1113 Y-5.4152
G01 X-128.1980 Y-5.3509
G01 X-128.2779 Y-5.2784
G01 X-128.3504 Y-5.1985
G01 X-128.4147 Y-5.1118
G01 X-128.4701 Y-5.0192
G01 X-128.5163 Y-4.9217
G01 X-128.5526 Y-4.8201
G01 X-128.5788 Y-4.7154
G01 X-128.5947 Y-4.6087
G01 X-128.6000 Y-4.5009
G01 X-128.5947 Y-4.3931
G01 X-128.5788 Y-4.2864
G01 X-128.5526 Y-4.1817
G01 X-128.5163 Y-4.0801
G01 X-128.4701 Y-3.9825
G01 X-128.4147 Y-3.8900
G01 X-128.3504 Y-3.8033
G01 X-128.2779 Y-3.7233
G01 X-128.1980 Y-3.6509
G01 X-128.1113 Y-3.5866
G01 X-128.0187 Y-3.5311
G01 X-127.9212 Y-3.4850
G01 X-127.8196 Y-3.4486
G01 X-127.7149 Y-3.4224
G01 X-127.6082 Y-3.4066
G01 X-127.5004 Y-3.4013
G01 X-127.3926 Y-3.4066
G01 X-127.2859 Y-3.4224
G01 X-127.1812 Y-3.4486
G01 X-127.0796 Y-3.4850
G01 X-126.9820 Y-3.5311
G01 X-126.8895 Y-3.5866
G01 X-126.8028 Y-3.6509
G01 X-126.7228 Y-3.7233
G01 X-126.6504 Y-3.8033
G01 X-126.5861 Y-3.8900
G01 X-126.5306 Y-3.9825
G01 X-126.4845 Y-4.0801
G01 X-126.4481 Y-4.1817
G01 X-126.4219 Y-4.2864
G01 X-126.4061 Y-4.3931
G01 X-126.4008 Y-4.5009
G01 X-127.0504 Y-4.5009
G01 X-127.0553 Y-4.5669
G01 X-127.0767 Y-4.6525
G01 X-127.1144 Y-4.7322
G01 X-127.1670 Y-4.8031
G01 X-127.2323 Y-4.8623
G01 X-127.3080 Y-4.9077
G01 X-127.3698 Y-4.9315
G01 X-127.4563 Y-4.9487
G01 X-127.5225 Y-4.9503
G01 X-127.6097 Y-4.9374
G01 X-127.7317 Y-4.8869
G01 X-127.8338 Y-4.8031
G01 X-127.8864 Y-4.7322
G01 X-127.9161 Y-4.6731
G01 X-127.9455 Y-4.5669
G01 X-127.9498 Y-4.4788
G01 X-127.9369 Y-4.3915
G01 X-127.8972 Y-4.2888
G01 X-127.8338 Y-4.1987
G01 X-127.7684 Y-4.1394
G01 X-127.6928 Y-4.0941
G01 X-127.5882 Y-4.0595
G01 X-127.4783 Y-4.0514
G01 X-127.3910 Y-4.0644
G01 X-127.3080 Y-4.0941
G01 X-127.2149 Y-4.1530
G01 X-127.1389 Y-4.2328
G01 X-127.0936 Y-4.3085
G01 X-127.0639 Y-4.3915
G01 X-127.0504 Y-4.5009
G00 Z2.0000
G00 X-127.0504 Y-127.5004
G01 F60.00
G01 Z-0.5000
G01 F120.00
G01 X-127.0590 Y-127.5882
G01 X-127.0846 Y-127.6726
G01 X-127.1262 Y-127.7504
G01 X-127.1822 Y-127.8186
G01 X-127.2504 Y-127.8745
G01 X-127.3282 Y-127.9161
G01 X-127.4126 Y-127.9417
G01 X-127.5004 Y-127.9504
G01 X-127.5882 Y-127.9417
G01 X-127.6726 Y-127.9161
G01 X-127.7504 Y-127.8745
G01 X-127.8186 Y-127.8186
G01 X-127.8745 Y-127.7504
G01 X-127.9161 Y-127.6726
G01 X-127.9417 Y-127.5882
G01 X-127.9504 Y-127.5004
G01 X-127.9417 Y-127.4126
G01 X-127.9161 Y-127.3282
G01 X-127.8745 Y-127.2504
G01 X-127.8186 Y-127.1822
G01 X-127.7504 Y-127.1262
G01 X-127.6726 Y-127.0846
G01 X-127.5882 Y-127.0590
G01 X-127.5004 Y-127.0504
G01 X-127.4126 Y-127.0590
G01 X-127.3282 Y-127.0846
G01 X-127.2504 Y-127.1262
G01 X-127.1822 Y-127.1822
G01 X-127.1262 Y-127.2504
G01 X-127.0846 Y-127.3282
G01 X-127.0590 Y-127.4126
G01 X-127.0504 Y-127.5004
G00 X-127.0504 Y-127.5004
G01 F60.00
G01 Z-1.0000
G01 F120.00
G01 X-127.0590 Y-127.4126
G01 X-127.0846 Y-127.3282
G01 X-127.1262 Y-127.2504
G01 X-127.1822 Y-127.1822
G01 X-127.2504 Y-127.1262
G01 X-127.3282 Y-127.0846
G01 X-127.4126 Y-127.0590
G01 X-127.5004 Y-127.0504
G01 X-127.5882 Y-127.0590
G01 X-127.6726 Y-127.0846
G01 X-127.7504 Y-127.1262
G01 X-127.8186 Y-127.1822
G01 X-127.8745 Y-127.2504
G01 X-127.9161 Y-127.3282
G01 X-127.9417 Y-127.4126
G01 X-127.9504 Y-127.5004
G01 X-127.9417 Y-127.5882
G01 X-127.9161 Y-127.6726
G01 X-127.8745 Y-127.7504
G01 X-127.8186 Y-127.8186
G01 X-127.7504 Y-127.8745
G01 X-127.6726 Y-127.9161
G01 X-127.5882 Y-127.9417
G01 X-127.5004 Y-127.9504
G01 X-127.4126 Y-127.9417
G01 X-127.3282 Y-127.9161
G01 X-127.2504 Y-127.8745
G01 X-127.1822 Y-127.8186
G01 X-127.1262 Y-127.7504
G01 X-127.0846 Y-127.6726
G01 X-127.0590 Y-127.5882
G01 X-127.0504 Y-127.5004
G00 X-127.0504 Y-127.5004
G01 F60.00
G01 Z-1.5000
G01 F120.00
G01 X-127.0590 Y-127.5882
G01 X-127.0846 Y-127.6726
G01 X-127.1262 Y-127.7504
G01 X-127.1822 Y-127.8186
G01 X-127.2504 Y-127.8745
G01 X-127.3282 Y-127.9161
G01 X-127.4126 Y-127.9417
G01 X-127.5004 Y-127.9504
G01 X-127.5882 Y-127.9417
G01 X-127.6726 Y-127.9161
G01 X-127.7504 Y-127.8745
G01 X-127.8186 Y-127.8186
G01 X-127.8745 Y-127.7504
G01 X-127.9161 Y-127.6726
G01 X-127.9417 Y-127.5882
G01 X-127.9504 Y-127.5004
G01 X-127.9417 Y-127.4126
G01 X-127.9161 Y-127.3282
G01 X-127.8745 Y-127.2504
G01 X-127.8186 Y-127.1822
G01 X-127.7504 Y-127.1262
G01 X-127.6726 Y-127.0846
G01 X-127.5882 Y-127.0590
G01 X-127.5004 Y-127.0504
G01 X-127.4126 Y-127.0590
G01 X-127.3282 Y-127.0846
G01 X-127.2504 Y-127.1262
G01 X-127.1822 Y-127.1822
G01 X-127.1262 Y-127.2504
G01 X-127.0846 Y-127.3282
G01 X-127.0590 Y-127.4126
G01 X-127.0504 Y-127.5004
G00 X-127.0504 Y-127.5004
G01 F60.00
G01 Z-2.0000
G01 F120.00
G01 X-127.0590 Y-127.4126
G01 X-127.0846 Y-127.3282
G01 X-127.1262 Y-127.2504
G01 X-127.1822 Y-127.1822
G01 X-127.2504 Y-127.1262
G01 X-127.3282 Y-127.0846
G01 X-127.4126 Y-127.0590
G01 X-127.5004 Y-127.0504
G01 X-127.5882 Y-127.0590
G01 X-127.6726 Y-127.0846
G01 X-127.7504 Y-127.1262
G01 X-127.8186 Y-127.1822
G01 X-127.8745 Y-127.2504
G01 X-127.9161 Y-127.3282
G01 X-127.9417 Y-127.4126
G01 X-127.9504 Y-127.5004
G01 X-127.9417 Y-127.5882
G01 X-127.9161 Y-127.6726
G01 X-127.8745 Y-127.7504
G01 X-127.8186 Y-127.8186
G01 X-127.7504 Y-127.8745
G01 X-127.6726 Y-127.9161
G01 X-127.5882 Y-127.9417
G01 X-127.5004 Y-127.9504
G01 X-127.4126 Y-127.9417
G01 X-127.3282 Y-127.9161
G01 X-127.2504 Y-127.8745
G01 X-127.1822 Y-127.8186
G01 X-127.1262 Y-127.7504
G01 X-127.0846 Y-127.6726
G01 X-127.0590 Y-127.5882
G01 X-127.0504 Y-127.5004
G00 X-127.0504 Y-127.5004
G01 F60.00
G01 Z-2.5000
G01 F120.00
G01 X-127.0590 Y-127.5882
G01 X-127.0846 Y-127.6726
G01 X-127.1262 Y-127.7504
G01 X-127.1822 Y-127.8186
G01 X-127.2504 Y-127.8745
G01 X-127.3282 Y-127.9161
G01 X-127.4126 Y-127.9417
G01 X-127.5004 Y-127.9504
G01 X-127.5882 Y-127.9417
G01 X-127.6726 Y-127.9161
G01 X-127.7504 Y-127.8745
G01 X-127.8186 Y-127.8186
G01 X-127.8745 Y-127.7504
G01 X-127.9161 Y-127.6726
G01 X-127.9417 Y-127.5882
G01 X-127.9504 Y-127.5004
G01 X-127.9417 Y-127.4126
G01 X-127.9161 Y-127.3282
G01 X-127.8745 Y-127.2504
G01 X-127.8186 Y-127.1822
G01 X-127.7504 Y-127.1262
G01 X-127.6726 Y-127.0846
G01 X-127.5882 Y-127.0590
G01 X-127.5004 Y-127.0504
G01 X-127.4126 Y-127.0590
G01 X-127.3282 Y-127.0846
G01 X-127.2504 Y-127.1262
G01 X-127.1822 Y-127.1822
G01 X-127.1262 Y-127.2504
G01 X-127.0846 Y-127.3282
G01 X-127.0590 Y-127.4126
G01 X-127.0504 Y-127.5004
G00 Z2.0000
G00 X-126.4008 Y-127.5004
G01 F60.00
G01 Z-0.5000
G01 F120.00
G01 X-126.4061 Y-127.6082
G01 X-126.4219 Y-127.7149
G01 X-126.4481 Y-127.8196
G01 X-126.4845 Y-127.9212
G01 X-126.5306 Y-128.0187
G01 X-126.5861 Y-128.1113
G01 X-126.6504 Y-128.1980
G01 X-126.7228 Y-128.2779
G01 X-126.8028 Y-128.3504
G01 X-126.8895 Y-128.4147
G01 X-126.9820 Y-128.4701
G01 X-127.0796 Y-128.5163
G01 X-127.1812 Y-128.5526
G01 X-127.2859 Y-128.5788
G01 X-127.3926 Y-128.5947
G01 X-127.5004 Y-128.6000
G01 X-127.6082 Y-128.5947
G01 X-127.7149 Y-128.5788
G01 X-127.8196 Y-128.5526
G01 X-127.9212 Y-128.5163
G01 X-128.0187 Y-128.4701
G01 X-128.1113 Y-128.4147
G01 X-128.1980 Y-128.3504
G01 X-128.2779 Y-128.2779
G01 X-128.3504 Y-128.1980
G01 X-128.4147 Y-128.1113
G01 X-128.4701 Y-128.0187
G01 X-128.5163 Y-127.9212
G01 X-128.5526 Y-127.8196
G01 X-128.5788 Y-127.7149
G01 X-128.5947 Y-127.6082
G01 X-128.6000 Y-127.5004
G01 X-128.5947 Y-127.3926
G01 X-128.5788 Y-127.2859
G01 X-128.5526 Y-127.1812
G01 X-128.5163 Y-127.0796
G01 X-128.4701 Y-126.9820
G01 X-128.4147 Y-126.8895
G01 X-128.3504 Y-126.8028
G01 X-128.2779 Y-126.7228
G01 X-128.1980 Y-126.6504
G01 X-128.1113 Y-126.5861
G01 X-128.0187 Y-126.5306
G01 X-127.9212 Y-126.4845
G01 X-127.8196 Y-126.4481
G01 X-127.7149 Y-126.4219
G01 X-127.6082 Y-126.4061
G01 X-127.5004 Y-126.4008
G01 X-127.3926 Y-126.4061
G01 X-127.2859 Y-126.4219
G01 X-127.1812 Y-126.4481
G01 X-127.0796 Y-126.4845
G01 X-126.9820 Y-126.5306
G01 X-126.8895 Y-126.5861
G01 X-126.8028 Y-126.6504
G01 X-126.7228 Y-126.7228
G01 X-126.6504 Y-126.8028
G01 X-126.5861 Y-126.8895
G01 X-126.5306 Y-126.9820
G01 X-126.4845 Y-127.0796
G01 X-126.4481 Y-127.1812
G01 X-126.4219 Y-127.2859
G01 X-126.4061 Y-127.3926
G01 X-126.4008 Y-127.5004
G00 X-126.4008 Y-127.5004
G01 F60.00
G01 Z-1.0000
G01 F120.00
G01 X-126.4061 Y-127.3926
G01 X-126.4219 Y-127.2859
G01 X-126.4481 Y-127.1812
G01 X-126.4845 Y-127.0796
G01 X-126.5306 Y-126.9820
G01 X-126.5861 Y-126.8895
G01 X-126.6504 Y-126.8028
G01 X-126.7228 Y-126.7228
G01 X-126.8028 Y-126.6504
G01 X-126.8895 Y-126.5861
G01 X-126.9820 Y-126.5306
G01 X-127.0796 Y-126.4845
G01 X-127.1812 Y-126.4481
G01 X-127.2859 Y-126.4219
G01 X-127.3926 Y-126.4061
G01 X-127.5004 Y-126.4008
G01 X-127.6082 Y-126.4061
G01 X-127.7149 Y-126.4219
G01 X-127.8196 Y-126.4481
G01 X-127.9212 Y-126.4845
G01 X-128.0187 Y-126.5306
G01 X-128.1113 Y-126.5861
G01 X-128.1980 Y-126.6504
G01 X-128.2779 Y-126.7228
G01 X-128.3504 Y-126.8028
G01 X-128.4147 Y-126.8895
G01 X-128.4701 Y-126.9820
G01 X-128.5163 Y-127.0796
G01 X-128.5526 Y-127.1812
G01 X-128.5788 Y-127.2859
G01 X-128.5947 Y-127.3926
G01 X-128.6000 Y-127.5004
G01 X-128.5947 Y-127.6082
G01 X-128.5788 Y-127.7149
G01 X-128.5526 Y-127.8196
G01 X-128.5163 Y-127.9212
G01 X-128.4701 Y-128.0187
G01 X-128.4147 Y-128.1113
G01 X-128.3504 Y-128.1980
G01 X-128.2779 Y-128.2779
G01 X-128.1980 Y-128.3504
G01 X-128.1113 Y-128.4147
G01 X-128.0187 Y-128.4701
G01 X-127.9212 Y-128.5163
G01 X-127.8196 Y-128.5526
G01 X-127.7149 Y-128.5788
G01 X-127.6082 Y-128.5947
G01 X-127.5004 Y-128.6000
G01 X-127.3926 Y-128.5947
G01 X-127.2859 Y-128.5788
G01 X-127.1812 Y-128.5526
G01 X-127.0796 Y-128.5163
G01 X-126.9820 Y-128.4701
G01 X-126.8895 Y-128.4147
G01 X-126.8028 Y-128.3504
G01 X-126.7228 Y-128.2779
G01 X-126.6504 Y-128.1980
G01 X-126.5861 Y-128.1113
G01 X-126.5306 Y-128.0187
G01 X-126.4845 Y-127.9212
G01 X-126.4481 Y-127.8196
G01 X-126.4219 Y-127.7149
G01 X-126.4061 Y-127.6082
G01 X-126.4008 Y-127.5004
G00 X-126.4008 Y-127.5004
G01 F60.00
G01 Z-1.5000
G01 F120.00
G01 X-126.4061 Y-127.6082
G01 X-126.4219 Y-127.7149
G01 X-126.4481 Y-127.8196
G01 X-126.4845 Y-127.9212
G01 X-126.5306 Y-128.0187
G01 X-126.5861 Y-128.1113
G01 X-126.6504 Y-128.1980
G01 X-126.7228 Y-128.2779
G01 X-126.8028 Y-128.3504
G01 X-126.8895 Y-128.4147
G01 X-126.9820 Y-128.4701
G01 X-127.0796 Y-128.5163
G01 X-127.1812 Y-128.5526
G01 X-127.2859 Y-128.5788
G01 X-127.3926 Y-128.5947
G01 X-127.5004 Y-128.6000
G01 X-127.6082 Y-128.5947
G01 X-127.7149 Y-128.5788
G01 X-127.8196 Y-128.5526
G01 X-127.9212 Y-128.5163
G01 X-128.0187 Y-128.4701
G01 X-128.1113 Y-128.4147
G01 X-128.1980 Y-128.3504
G01 X-128.2779 Y-128.2779
G01 X-128.3504 Y-128.1980
G01 X-128.4147 Y-128.1113
G01 X-128.4701 Y-128.0187
G01 X-128.5163 Y-127.9212
G01 X-128.5526 Y-127.8196
G01 X-128.5788 Y-127.7149
G01 X-128.5947 Y-127.6082
G01 X-128.6000 Y-127.5004
G01 X-128.5947 Y-127.3926
G01 X-128.5788 Y-127.2859
G01 X-128.5526 Y-127.1812
G01 X-128.5163 Y-127.0796
G01 X-128.4701 Y-126.9820
G01 X-128.4147 Y-126.8895
G01 X-128.3504 Y-126.8028
G01 X-128.2779 Y-126.7228
G01 X-128.1980 Y-126.6504
G01 X-128.1113 Y-126.5861
G01 X-128.0187 Y-126.5306
G01 X-127.9212 Y-126.4845
G01 X-127.8196 Y-126.4481
G01 X-127.7149 Y-126.4219
G01 X-127.6082 Y-126.4061
G01 X-127.5004 Y-126.4008
G01 X-127.3926 Y-126.4061
G01 X-127.2859 Y-126.4219
G01 X-127.1812 Y-126.4481
G01 X-127.0796 Y-126.4845
G01 X-126.9820 Y-126.5306
G01 X-126.8895 Y-126.5861
G01 X-126.8028 Y-126.6504
G01 X-126.7228 Y-126.7228
G01 X-126.6504 Y-126.8028
G01 X-126.5861 Y-126.8895
G01 X-126.5306 Y-126.9820
G01 X-126.4845 Y-127.0796
G01 X-126.4481 Y-127.1812
G01 X-126.4219 Y-127.2859
G01 X-126.4061 Y-127.3926
G01 X-126.4008 Y-127.5004
G00 X-126.4008 Y-127.5004
G01 F60.00
G01 Z-2.0000
G01 F120.00
G01 X-126.4061 Y-127.3926
G01 X-126.4219 Y-127.2859
G01 X-126.4481 Y-127.1812
G01 X-126.4845 Y-127.0796
G01 X-126.5306 Y-126.9820
G01 X-126.5861 Y-126.8895
G01 X-126.6504 Y-126.8028
G01 X-126.7228 Y-126.7228
G01 X-126.8028 Y-126.6504
G01 X-126.8895 Y-126.5861
G01 X-126.9820 Y-126.5306
G01 X-127.0796 Y-126.4845
G01 X-127.1812 Y-126.4481
G01 X-127.2859 Y-126.4219
G01 X-127.3926 Y-126.4061
G01 X-127.5004 Y-126.4008
G01 X-127.6082 Y-126.4061
G01 X-127.7149 Y-126.4219
G01 X-127.8196 Y-126.4481
G01 X-127.9212 Y-126.4845
G01 X-128.0187 Y-126.5306
G01 X-128.1113 Y-126.5861
G01 X-128.1980 Y-126.6504
G01 X-128.2779 Y-126.7228
G01 X-128.3504 Y-126.8028
G01 X-128.4147 Y-126.8895
G01 X-128.4701 Y-126.9820
G01 X-128.5163 Y-127.0796
G01 X-128.5526 Y-127.1812
G01 X-128.5788 Y-127.2859
G01 X-128.5947 Y-127.3926
G01 X-128.6000 Y-127.5004
G01 X-128.5947 Y-127.6082
G01 X-128.5788 Y-127.7149
G01 X-128.5526 Y-127.8196
G01 X-128.5163 Y-127.9212
G01 X-128.4701 Y-128.0187
G01 X-128.4147 Y-128.1113
G01 X-128.3504 Y-128.1980
G01 X-128.2779 Y-128.2779
G01 X-128.1980 Y-128.3504
G01 X-128.1113 Y-128.4147
G01 X-128.0187 Y-128.4701
G01 X-127.9212 Y-128.5163
G01 X-127.8196 Y-128.5526
G01 X-127.7149 Y-128.5788
G01 X-127.6082 Y-128.5947
G01 X-127.5004 Y-128.6000
G01 X-127.3926 Y-128.5947
G01 X-127.2859 Y-128.5788
G01 X-127.1812 Y-128.5526
G01 X-127.0796 Y-128.5163
G01 X-126.9820 Y-128.4701
G01 X-126.8895 Y-128.4147
G01 X-126.8028 Y-128.3504
G01 X-126.7228 Y-128.2779
G01 X-126.6504 Y-128.1980
G01 X-126.5861 Y-128.1113
G01 X-126.5306 Y-128.0187
G01 X-126.4845 Y-127.9212
G01 X-126.4481 Y-127.8196
G01 X-126.4219 Y-127.7149
G01 X-126.4061 Y-127.6082
G01 X-126.4008 Y-127.5004
G00 X-126.4008 Y-127.5004
G01 F60.00
G01 Z-2.5000
G01 F120.00
G01 X-126.4061 Y-127.6082
G01 X-126.4219 Y-127.7149
G01 X-126.4481 Y-127.8196
G01 X-126.4845 Y-127.9212
G01 X-126.5306 Y-128.0187
G01 X-126.5861 Y-128.1113
G01 X-126.6504 Y-128.1980
G01 X-126.7228 Y-128.2779
G01 X-126.8028 Y-128.3504
G01 X-126.8895 Y-128.4147
G01 X-126.9820 Y-128.4701
G01 X-127.0796 Y-128.5163
G01 X-127.1812 Y-128.5526
G01 X-127.2859 Y-128.5788
G01 X-127.3926 Y-128.5947
G01 X-127.5004 Y-128.6000
G01 X-127.6082 Y-128.5947
G01 X-127.7149 Y-128.5788
G01 X-127.8196 Y-128.5526
G01 X-127.9212 Y-128.5163
G01 X-128.0187 Y-128.4701
G01 X-128.1113 Y-128.4147
G01 X-128.1980 Y-128.3504
G01 X-128.2779 Y-128.2779
G01 X-128.3504 Y-128.1980
G01 X-128.4147 Y-128.1113
G01 X-128.4701 Y-128.0187
G01 X-128.5163 Y-127.9212
G01 X-128.5526 Y-127.8196
G01 X-128.5788 Y-127.7149
G01 X-128.5947 Y-127.6082
G01 X-128.6000 Y-127.5004
G01 X-128.5947 Y-127.3926
G01 X-128.5788 Y-127.2859
G01 X-128.5526 Y-127.1812
G01 X-128.5163 Y-127.0796
G01 X-128.4701 Y-126.9820
G01 X-128.4147 Y-126.8895
G01 X-128.3504 Y-126.8028
G01 X-128.2779 Y-126.7228
G01 X-128.1980 Y-126.6504
G01 X-128.1113 Y-126.5861
G01 X-128.0187 Y-126.5306
G01 X-127.9212 Y-126.4845
G01 X-127.8196 Y-126.4481
G01 X-127.7149 Y-126.4219
G01 X-127.6082 Y-126.4061
G01 X-127.5004 Y-126.4008
G01 X-127.3926 Y-126.4061
G01 X-127.2859 Y-126.4219
G01 X-127.1812 Y-126.4481
G01 X-127.0796 Y-126.4845
G01 X-126.9820 Y-126.5306
G01 X-126.8895 Y-126.5861
G01 X-126.8028 Y-126.6504
G01 X-126.7228 Y-126.7228
G01 X-126.6504 Y-126.8028
G01 X-126.5861 Y-126.8895
G01 X-126.5306 Y-126.9820
G01 X-126.4845 Y-127.0796
G01 X-126.4481 Y-127.1812
G01 X-126.4219 Y-127.2859
G01 X-126.4061 Y-127.3926
G01 X-126.4008 Y-127.5004
G00 Z2.0000
G00 X-4.0509 Y-127.5004
G01 F60.00
G01 Z-0.5000
G01 F120.00
G01 X-4.0644 Y-127.3910
G01 X-4.0941 Y-127.3080
G01 X-4.1530 Y-127.2149
G01 X-4.2154 Y-127.1525
G01 X-4.3085 Y-127.0936
G01 X-4.3915 Y-127.0639
G01 X-4.4788 Y-127.0509
G01 X-4.5887 Y-127.0590
G01 X-4.6731 Y-127.0846
G01 X-4.7689 Y-127.1389
G01 X-4.8487 Y-127.2149
G01 X-4.8977 Y-127.2883
G01 X-4.9315 Y-127.3698
G01 X-4.9503 Y-127.4783
G01 X-4.9422 Y-127.5882
G01 X-4.9166 Y-127.6726
G01 X-4.8487 Y-127.7859
G01 X-4.8031 Y-127.8338
G01 X-4.7322 Y-127.8864
G01 X-4.6102 Y-127.9369
G01 X-4.5230 Y-127.9498
G01 X-4.4568 Y-127.9482
G01 X-4.3915 Y-127.9369
G01 X-4.3085 Y-127.9072
G01 X-4.2328 Y-127.8618
G01 X-4.1675 Y-127.8026
G01 X-4.1149 Y-127.7317
G01 X-4.0772 Y-127.6520
G01 X-4.0595 Y-127.5882
G01 X-4.0509 Y-127.5004
G01 X-3.4013 Y-127.5004
G01 X-3.4066 Y-127.3926
G01 X-3.4224 Y-127.2859
G01 X-3.4486 Y-127.1812
G01 X-3.4850 Y-127.0796
G01 X-3.5311 Y-126.9820
G01 X-3.5866 Y-126.8895
G01 X-3.6509 Y-126.8028
G01 X-3.7233 Y-126.7228
G01 X-3.8033 Y-126.6504
G01 X-3.8900 Y-126.5861
G01 X-3.9825 Y-126.5306
G01 X-4.0801 Y-126.4845
G01 X-4.1817 Y-126.4481
G01 X-4.2864 Y-126.4219
G01 X-4.3931 Y-126.4061
G01 X-4.5009 Y-126.4008
G01 X-4.6087 Y-126.4061
G01 X-4.7154 Y-126.4219
G01 X-4.8201 Y-126.4481
G01 X-4.9217 Y-126.4845
G01 X-5.0192 Y-126.5306
G01 X-5.1118 Y-126.5861
G01 X-5.1985 Y-126.6504
G01 X-5.2784 Y-126.7228
G01 X-5.3509 Y-126.8028
G01 X-5.4152 Y-126.8895
G01 X-5.4706 Y-126.9820
G01 X-5.5168 Y-127.0796
G01 X-5.5531 Y-127.1812
G01 X-5.5793 Y-127.2859
G01 X-5.5952 Y-127.3926
G01 X-5.6005 Y-127.5004
G01 X-5.5952 Y-127.6082
G01 X-5.5793 Y-127.7149
G01 X-5.5531 Y-127.8196
G01 X-5.5168 Y-127.9212
G01 X-5.4706 Y-128.0187
G01 X-5.4152 Y-128.1113
G01 X-5.3509 Y-128.1980
G01 X-5.2784 Y-128.2779
G01 X-5.1985 Y-128.3504
G01 X-5.1118 Y-128.4147
G01 X-5.0192 Y-128.4701
G01 X-4.9217 Y-128.5163
G01 X-4.8201 Y-128.5526
G01 X-4.7154 Y-128.5788
G01 X-4.6087 Y-128.5947
G01 X-4.5009 Y-128.6000
G01 X-4.3931 Y-128.5947
G01 X-4.2864 Y-128.5788
G01 X-4.1817 Y-128.5526
G01 X-4.0801 Y-128.5163
G01 X-3.9825 Y-128.4701
G01 X-3.8900 Y-128.4147
G01 X-3.8033 Y-128.3504
G01 X-3.7233 Y-128.2779
G01 X-3.6509 Y-128.1980
G01 X-3.5866 Y-128.1113
G01 X-3.5311 Y-128.0187
G01 X-3.4850 Y-127.9212
G01 X-3.4486 Y-127.8196
G01 X-3.4224 Y-127.7149
G01 X-3.4066 Y-127.6082
G01 X-3.4013 Y-127.5004
G00 X-3.4013 Y-127.5004
G01 F60.00
G01 Z-1.0000
G01 F120.00
G01 X-3.4066 Y-127.6082
G01 X-3.4224 Y-127.7149
G01 X-3.4486 Y-127.8196
G01 X-3.4850 Y-127.9212
G01 X-3.5311 Y-128.0187
G01 X-3.5866 Y-128.1113
G01 X-3.6509 Y-128.1980
G01 X-3.7233 Y-128.2779
G01 X-3.8033 Y-128.3504
G01 X-3.8900 Y-128.4147
G01 X-3.9825 Y-128.4701
G01 X-4.0801 Y-128.5163
G01 X-4.1817 Y-128.5526
G01 X-4.2864 Y-128.5788
G01 X-4.3931 Y-128.5947
G01 X-4.5009 Y-128.6000
G01 X-4.6087 Y-128.5947
G01 X-4.7154 Y-128.5788
G01 X-4.8201 Y-128.5526
G01 X-4.9217 Y-128.5163
G01 X-5.0192 Y-128.4701
G01 X-5.1118 Y-128.4147
G01 X-5.1985 Y-128.3504
G01 X-5.2784 Y-128.2779
G01 X-5.3509 Y-128.1980
G01 X-5.4152 Y-128.1113
G01 X-5.4706 Y-128.0187
G01 X-5.5168 Y-127.9212
G01 X-5.5531 Y-127.8196
G01 X-5.5793 Y-127.7149
G01 X-5.5952 Y-127.6082
G01 X-5.6005 Y-127.5004
G01 X-5.5952 Y-127.3926
G01 X-5.5793 Y-127.2859
G01 X-5.5531 Y-127.1812
G01 X-5.5168 Y-127.0796
G01 X-5.4706 Y-126.9820
G01 X-5.4152 Y-126.8895
G01 X-5.3509 Y-126.8028
G01 X-5.2784 Y-126.7228
G01 X-5.1985 Y-126.6504
G01 X-5.1118 Y-126.5861
G01 X-5.0192 Y-126.5306
G01 X-4.9217 Y-126.4845
G01 X-4.8201 Y-126.4481
G01 X-4.7154 Y-126.4219
G01 X-4.6087 Y-126.4061
G01 X-4.5009 Y-126.4008
G01 X-4.3931 Y-126.4061
G01 X-4.2864 Y-126.4219
G01 X-4.1817 Y-126.4481
G01 X-4.0801 Y-126.4845
G01 X-3.9825 Y-126.5306
G01 X-3.8900 Y-126.5861
G01 X-3.8033 Y-126.6504
G01 X-3.7233 Y-126.7228
G01 X-3.6509 Y-126.8028
G01 X-3.5866 Y-126.8895
G01 X-3.5311 Y-126.9820
G01 X-3.4850 Y-127.0796
G01 X-3.4486 Y-127.1812
G01 X-3.4224 Y-127.2859
G01 X-3.4066 Y-127.3926
G01 X-3.4013 Y-127.5004
G01 X-4.0509 Y-127.5004
G01 X-4.0595 Y-127.5882
G01 X-4.0772 Y-127.6520
G01 X-4.1149 Y-127.7317
G01 X-4.1675 Y-127.8026
G01 X-4.2328 Y-127.8618
G01 X-4.3085 Y-127.9072
G01 X-4.3915 Y-127.9369
G01 X-4.4568 Y-127.9482
G01 X-4.5230 Y-127.9498
G01 X-4.6102 Y-127.9369
G01 X-4.7322 Y-127.8864
G01 X-4.8031 Y-127.8338
G01 X-4.8487 Y-127.7859
G01 X-4.9166 Y-127.6726
G01 X-4.9422 Y-127.5882
G01 X-4.9503 Y-127.4783
G01 X-4.9315 Y-127.3698
G01 X-4.8977 Y-127.2883
G01 X-4.8487 Y-127.2149
G01 X-4.7689 Y-127.1389
G01 X-4.6731 Y-127.0846
G01 X-4.5887 Y-127.0590
G01 X-4.4788 Y-127.0509
G01 X-4.3915 Y-127.0639
G01 X-4.3085 Y-127.0936
G01 X-4.2154 Y-127.1525
G01 X-4.1530 Y-127.2149
G01 X-4.0941 Y-127.3080
G01 X-4.0644 Y-127.3910
G01 X-4.0509 Y-127.5004
G00 X-4.0509 Y-127.5004
G01 F60.00
G01 Z-1.5000
G01 F120.00
G01 X-4.0644 Y-127.3910
G01 X-4.0941 Y-127.3080
G01 X-4.1530 Y-127.2149
G01 X-4.2154 Y-127.1525
G01 X-4.3085 Y-127.0936
G01 X-4.3915 Y-127.0639
G01 X-4.4788 Y-127.0509
G01 X-4.5887 Y-127.0590
G01 X-4.6731 Y-127.0846
G01 X-4.7689 Y-127.1389
G01 X-4.8487 Y-127.2149
G01 X-4.8977 Y-127.2883
G01 X-4.9315 Y-127.3698
G01 X-4.9503 Y-127.4783
G01 X-4.9422 Y-127.5882
G01 X-4.9166 Y-127.6726
G01 X-4.8487 Y-127.7859
G01 X-4.8031 Y-127.8338
G01 X-4.7322 Y-127.8864
G01 X-4.6102 Y-127.9369
G01 X-4.5230 Y-127.9498
G01 X-4.4568 Y-127.9482
G01 X-4.3915 Y-127.9369
G01 X-4.3085 Y-127.9072
G01 X-4.2328 Y-127.8618
G01 X-4.1675 Y-127.8026
G01 X-4.1149 Y-127.7317
G01 X-4.0772 Y-127.6520
G01 X-4.0595 Y-127.5882
G01 X-4.0509 Y-127.5004
G01 X-3.4013 Y-127.5004
G01 X-3.4066 Y-127.3926
G01 X-3.4224 Y-127.2859
G01 X-3.4486 Y-127.1812
G01 X-3.4850 Y-127.0796
G01 X-3.5311 Y-126.9820
G01 X-3.5866 Y-126.8895
G01 X-3.6509 Y-126.8028
G01 X-3.7233 Y-126.7228
G01 X-3.8033 Y-126.6504
G01 X-3.8900 Y-126.5861
G01 X-3.9825 Y-126.5306
G01 X-4.0801 Y-126.4845
G01 X-4.1817 Y-126.4481
G01 X-4.2864 Y-126.4219
G01 X-4.3931 Y-126.4061
G01 X-4.5009 Y-126.4008
G01 X-4.6087 Y-126.4061
G01 X-4.7154 Y-126.4219
G01 X-4.8201 Y-126.4481
G01 X-4.9217 Y-126.4845
G01 X-5.0192 Y-126.5306
G01 X-5.1118 Y-126.5861
G01 X-5.1985 Y-126.6504
G01 X-5.2784 Y-126.7228
G01 X-5.3509 Y-126.8028
G01 X-5.4152 Y-126.8895
G01 X-5.4706 Y-126.9820
G01 X-5.5168 Y-127.0796
G01 X-5.5531 Y-127.1812
G01 X-5.5793 Y-127.2859
G01 X-5.5952 Y-127.3926
G01 X-5.6005 Y-127.5004
G01 X-5.5952 Y-127.6082
G01 X-5.5793 Y-127.7149
G01 X-5.5531 Y-127.8196
G01 X-5.5168 Y-127.9212
G01 X-5.4706 Y-128.0187
G01 X-5.4152 Y-128.1113
G01 X-5.3509 Y-128.1980
G01 X-5.2784 Y-128.2779
G01 X-5.1985 Y-128.3504
G01 X-5.1118 Y-128.4147
G01 X-5.0192 Y-128.4701
G01 X-4.9217 Y-128.5163
G01 X-4.8201 Y-128.5526
G01 X-4.7154 Y-128.5788
G01 X-4.6087 Y-128.5947
G01 X-4.5009 Y-128.6000
G01 X-4.3931 Y-128.5947
G01 X-4.2864 Y-128.5788
G01 X-4.1817 Y-128.5526
G01 X-4.0801 Y-128.5163
G01 X-3.9825 Y-128.4701
G01 X-3.8900 Y-128.4147
G01 X-3.8033 Y-128.3504
G01 X-3.7233 Y-128.2779
G01 X-3.6509 Y-128.1980
G01 X-3.5866 Y-128.1113
G01 X-3.5311 Y-128.0187
G01 X-3.4850 Y-127.9212
G01 X-3.4486 Y-127.8196
G01 X-3.4224 Y-127.7149
G01 X-3.4066 Y-127.6082
G01 X-3.4013 Y-127.5004
G00 X-3.4013 Y-127.5004
G01 F60.00
G01 Z-2.0000
G01 F120.00
G01 X-3.4066 Y-127.6082
G01 X-3.4224 Y-127.7149
G01 X-3.4486 Y-127.8196
G01 X-3.4850 Y-127.9212
G01 X-3.5311 Y-128.0187
G01 X-3.5866 Y-128.1113
G01 X-3.6509 Y-128.1980
G01 X-3.7233 Y-128.2779
G01 X-3.8033 Y-128.3504
G01 X-3.8900 Y-128.4147
G01 X-3.9825 Y-128.4701
G01 X-4.0801 Y-128.5163
G01 X-4.1817 Y-128.5526
G01 X-4.2864 Y-128.5788
G01 X-4.3931 Y-128.5947
G01 X-4.5009 Y-128.6000
G01 X-4.6087 Y-128.5947
G01 X-4.7154 Y-128.5788
G01 X-4.8201 Y-128.5526
G01 X-4.9217 Y-128.5163
G01 X-5.0192 Y-128.4701
G01 X-5.1118 Y-128.4147
G01 X-5.1985 Y-128.3504
G01 X-5.2784 Y-128.2779
G01 X-5.3509 Y-128.1980
G01 X-5.4152 Y-128.1113
G01 X-5.4706 Y-128.0187
G01 X-5.5168 Y-127.9212
G01 X-5.5531 Y-127.8196
G01 X-5.5793 Y-127.7149
G01 X-5.5952 Y-127.6082
G01 X-5.6005 Y-127.5004
G01 X-5.5952 Y-127.3926
G01 X-5.5793 Y-127.2859
G01 X-5.5531 Y-127.1812
G01 X-5.5168 Y-127.0796
G01 X-5.4706 Y-126.9820
G01 X-5.4152 Y-126.8895
G01 X-5.3509 Y-126.8028
G01 X-5.2784 Y-126.7228
G01 X-5.1985 Y-126.6504
G01 X-5.1118 Y-126.5861
G01 X-5.0192 Y-126.5306
G01 X-4.9217 Y-126.4845
G01 X-4.8201 Y-126.4481
G01 X-4.7154 Y-126.4219
G01 X-4.6087 Y-126.4061
G01 X-4.5009 Y-126.4008
G01 X-4.3931 Y-126.4061
G01 X-4.2864 Y-126.4219
G01 X-4.1817 Y-126.4481
G01 X-4.0801 Y-126.4845
G01 X-3.9825 Y-126.5306
G01 X-3.8900 Y-126.5861
G01 X-3.8033 Y-126.6504
G01 X-3.7233 Y-126.7228
G01 X-3.6509 Y-126.8028
G01 X-3.5866 Y-126.8895
G01 X-3.5311 Y-126.9820
G01 X-3.4850 Y-127.0796
G01 X-3.4486 Y-127.1812
G01 X-3.4224 Y-127.2859
G01 X-3.4066 Y-127.3926
G01 X-3.4013 Y-127.5004
G01 X-4.0509 Y-127.5004
G01 X-4.0595 Y-127.5882
G01 X-4.0772 Y-127.6520
G01 X-4.1149 Y-127.7317
G01 X-4.1675 Y-127.8026
G01 X-4.2328 Y-127.8618
G01 X-4.3085 Y-127.9072
G01 X-4.3915 Y-127.9369
G01 X-4.4568 Y-127.9482
G01 X-4.5230 Y-127.9498
G01 X-4.6102 Y-127.9369
G01 X-4.7322 Y-127.8864
G01 X-4.8031 Y-127.8338
G01 X-4.8487 Y-127.7859
G01 X-4.9166 Y-127.6726
G01 X-4.9422 Y-127.5882
G01 X-4.9503 Y-127.4783
G01 X-4.9315 Y-127.3698
G01 X-4.8977 Y-127.2883
G01 X-4.8487 Y-127.2149
G01 X-4.7689 Y-127.1389
G01 X-4.6731 Y-127.0846
G01 X-4.5887 Y-127.0590
G01 X-4.4788 Y-127.0509
G01 X-4.3915 Y-127.0639
G01 X-4.3085 Y-127.0936
G01 X-4.2154 Y-127.1525
G01 X-4.1530 Y-127.2149
G01 X-4.0941 Y-127.3080
G01 X-4.0644 Y-127.3910
G01 X-4.0509 Y-127.5004
G00 X-4.0509 Y-127.5004
G01 F60.00
G01 Z-2.5000
G01 F120.00
G01 X-4.0644 Y-127.3910
G01 X-4.0941 Y-127.3080
G01 X-4.1530 Y-127.2149
G01 X-4.2154 Y-127.1525
G01 X-4.3085 Y-127.0936
G01 X-4.3915 Y-127.0639
G01 X-4.4788 Y-127.0509
G01 X-4.5887 Y-127.0590
G01 X-4.6731 Y-127.0846
G01 X-4.7689 Y-127.1389
G01 X-4.8487 Y-127.2149
G01 X-4.8977 Y-127.2883
G01 X-4.9315 Y-127.3698
G01 X-4.9503 Y-127.4783
G01 X-4.9422 Y-127.5882
G01 X-4.9166 Y-127.6726
G01 X-4.8487 Y-127.7859
G01 X-4.8031 Y-127.8338
G01 X-4.7322 Y-127.8864
G01 X-4.6102 Y-127.9369
G01 X-4.5230 Y-127.9498
G01 X-4.4568 Y-127.9482
G01 X-4.3915 Y-127.9369
G01 X-4.3085 Y-127.9072
G01 X-4.2328 Y-127.8618
G01 X-4.1675 Y-127.8026
G01 X-4.1149 Y-127.7317
G01 X-4.0772 Y-127.6520
G01 X-4.0595 Y-127.5882
G01 X-4.0509 Y-127.5004
G01 X-3.4013 Y-127.5004
G01 X-3.4066 Y-127.3926
G01 X-3.4224 Y-127.2859
G01 X-3.4486 Y-127.1812
G01 X-3.4850 Y-127.0796
G01 X-3.5311 Y-126.9820
G01 X-3.5866 Y-126.8895
G01 X-3.6509 Y-126.8028
G01 X-3.7233 Y-126.7228
G01 X-3.8033 Y-126.6504
G01 X-3.8900 Y-126.5861
G01 X-3.9825 Y-126.5306
G01 X-4.0801 Y-126.4845
G01 X-4.1817 Y-126.4481
G01 X-4.2864 Y-126.4219
G01 X-4.3931 Y-126.4061
G01 X-4.5009 Y-126.4008
G01 X-4.6087 Y-126.4061
G01 X-4.7154 Y-126.4219
G01 X-4.8201 Y-126.4481
G01 X-4.9217 Y-126.4845
G01 X-5.0192 Y-126.5306
G01 X-5.1118 Y-126.5861
G01 X-5.1985 Y-126.6504
G01 X-5.2784 Y-126.7228
G01 X-5.3509 Y-126.8028
G01 X-5.4152 Y-126.8895
G01 X-5.4706 Y-126.9820
G01 X-5.5168 Y-127.0796
G01 X-5.5531 Y-127.1812
G01 X-5.5793 Y-127.2859
G01 X-5.5952 Y-127.3926
G01 X-5.6005 Y-127.5004
G01 X-5.5952 Y-127.6082
G01 X-5.5793 Y-127.7149
G01 X-5.5531 Y-127.8196
G01 X-5.5168 Y-127.9212
G01 X-5.4706 Y-128.0187
G01 X-5.4152 Y-128.1113
G01 X-5.3509 Y-128.1980
G01 X-5.2784 Y-128.2779
G01 X-5.1985 Y-128.3504
G01 X-5.1118 Y-128.4147
G01 X-5.0192 Y-128.4701
G01 X-4.9217 Y-128.5163
G01 X-4.8201 Y-128.5526
G01 X-4.7154 Y-128.5788
G01 X-4.6087 Y-128.5947
G01 X-4.5009 Y-128.6000
G01 X-4.3931 Y-128.5947
G01 X-4.2864 Y-128.5788
G01 X-4.1817 Y-128.5526
G01 X-4.0801 Y-128.5163
G01 X-3.9825 Y-128.4701
G01 X-3.8900 Y-128.4147
G01 X-3.8033 Y-128.3504
G01 X-3.7233 Y-128.2779
G01 X-3.6509 Y-128.1980
G01 X-3.5866 Y-128.1113
G01 X-3.5311 Y-128.0187
G01 X-3.4850 Y-127.9212
G01 X-3.4486 Y-127.8196
G01 X-3.4224 Y-127.7149
G01 X-3.4066 Y-127.6082
G01 X-3.4013 Y-127.5004
G00 Z2.0000
G01 F120.00
G00 Z2.0000

M03 S13000.0
G4 P1.0
G01 F120.00
G00 X-17.1770 Y-32.1005
G01 F60.00
G01 Z-0.5000
G01 F120.00
G01 X-17.1825 Y-32.2132
G01 X-17.1991 Y-32.3247
G01 X-17.2265 Y-32.4341
G01 X-17.2644 Y-32.5403
G01 X-17.3127 Y-32.6422
G01 X-17.3706 Y-32.7389
G01 X-17.4378 Y-32.8295
G01 X-17.5135 Y-32.9131
G01 X-17.5971 Y-32.9888
G01 X-17.6877 Y-33.0560
G01 X-17.7844 Y-33.1140
G01 X-17.8863 Y-33.1622
G01 X-17.9925 Y-33.2002
G01 X-18.1019 Y-33.2276
G01 X-18.2135 Y-33.2441
G01 X-18.3261 Y-33.2496
G01 X-18.4387 Y-33.2441
G01 X-18.5503 Y-33.2276
G01 X-18.6597 Y-33.2002
G01 X-18.7659 Y-33.1622
G01 X-18.8678 Y-33.1140
G01 X-18.9645 Y-33.0560
G01 X-19.0551 Y-32.9888
G01 X-19.1387 Y-32.9131
G01 X-19.2144 Y-32.8295
G01 X-19.2816 Y-32.7389
G01 X-19.3395 Y-32.6422
G01 X-19.3878 Y-32.5403
G01 X-19.4257 Y-32.4341
G01 X-19.4531 Y-32.3247
G01 X-19.4697 Y-32.2132
G01 X-19.4752 Y-32.1005
G01 X-19.4697 Y-31.9879
G01 X-19.4531 Y-31.8763
G01 X-19.4257 Y-31.7669
G01 X-19.3878 Y-31.6608
G01 X-19.3395 Y-31.5588
G01 X-19.2816 Y-31.4621
G01 X-19.2144 Y-31.3715
G01 X-19.1387 Y-31.2880
G01 X-19.0551 Y-31.2122
G01 X-18.9645 Y-31.1451
G01 X-18.8678 Y-31.0871
G01 X-18.7659 Y-31.0389
G01 X-18.6597 Y-31.0009
G01 X-18.5503 Y-30.9735
G01 X-18.4387 Y-30.9569
G01 X-18.3261 Y-30.9514
G01 X-18.2135 Y-30.9569
G01 X-18.1019 Y-30.9735
G01 X-17.9925 Y-31.0009
G01 X-17.8863 Y-31.0389
G01 X-17.7844 Y-31.0871
G01 X-17.6877 Y-31.1451
G01 X-17.5971 Y-31.2122
G01 X-17.5135 Y-31.2880
G01 X-17.4378 Y-31.3715
G01 X-17.3706 Y-31.4621
G01 X-17.3127 Y-31.5588
G01 X-17.2644 Y-31.6608
G01 X-17.2265 Y-31.7669
G01 X-17.1991 Y-31.8763
G01 X-17.1825 Y-31.9879
G01 X-17.1770 Y-32.1005
G00 X-17.1770 Y-32.1005
G01 F60.00
G01 Z-1.0000
G01 F120.00
G01 X-17.1825 Y-31.9879
G01 X-17.1991 Y-31.8763
G01 X-17.2265 Y-31.7669
G01 X-17.2644 Y-31.6608
G01 X-17.3127 Y-31.5588
G01 X-17.3706 Y-31.4621
G01 X-17.4378 Y-31.3715
G01 X-17.5135 Y-31.2880
G01 X-17.5971 Y-31.2122
G01 X-17.6877 Y-31.1451
G01 X-17.7844 Y-31.0871
G01 X-17.8863 Y-31.0389
G01 X-17.9925 Y-31.0009
G01 X-18.1019 Y-30.9735
G01 X-18.2135 Y-30.9569
G01 X-18.3261 Y-30.9514
G01 X-18.4387 Y-30.9569
G01 X-18.5503 Y-30.9735
G01 X-18.6597 Y-31.0009
G01 X-18.7659 Y-31.0389
G01 X-18.8678 Y-31.0871
G01 X-18.9645 Y-31.1451
G01 X-19.0551 Y-31.2122
G01 X-19.1387 Y-31.2880
G01 X-19.2144 Y-31.3715
G01 X-19.2816 Y-31.4621
G01 X-19.3395 Y-31.5588
G01 X-19.3878 Y-31.6608
G01 X-19.4257 Y-31.7669
G01 X-19.4531 Y-31.8763
G01 X-19.4697 Y-31.9879
G01 X-19.4752 Y-32.1005
G01 X-19.4697 Y-32.2132
G01 X-19.4531 Y-32.3247
G01 X-19.4257 Y-32.4341
G01 X-19.3878 Y-32.5403
G01 X-19.3395 Y-32.6422
G01 X-19.2816 Y-32.7389
G01 X-19.2144 Y-32.8295
G01 X-19.1387 Y-32.9131
G01 X-19.0551 Y-32.9888
G01 X-18.9645 Y-33.0560
G01 X-18.8678 Y-33.1140
G01 X-18.7659 Y-33.1622
G01 X-18.6597 Y-33.2002
G01 X-18.5503 Y-33.2276
G01 X-18.4387 Y-33.2441
G01 X-18.3261 Y-33.2496
G01 X-18.2135 Y-33.2441
G01 X-18.1019 Y-33.2276
G01 X-17.9925 Y-33.2002
G01 X-17.8863 Y-33.1622
G01 X-17.7844 Y-33.1140
G01 X-17.6877 Y-33.0560
G01 X-17.5971 Y-32.9888
G01 X-17.5135 Y-32.9131
G01 X-17.4378 Y-32.8295
G01 X-17.3706 Y-32.7389
G01 X-17.3127 Y-32.6422
G01 X-17.2644 Y-32.5403
G01 X-17.2265 Y-32.4341
G01 X-17.1991 Y-32.3247
G01 X-17.1825 Y-32.2132
G01 X-17.1770 Y-32.1005
G00 X-17.1770 Y-32.1005
G01 F60.00
G01 Z-1.5000
G01 F120.00
G01 X-17.1825 Y-32.2132
G01 X-17.1991 Y-32.3247
G01 X-17.2265 Y-32.4341
G01 X-17.2644 Y-32.5403
G01 X-17.3127 Y-32.6422
G01 X-17.3706 Y-32.7389
G01 X-17.4378 Y-32.8295
G01 X-17.5135 Y-32.9131
G01 X-17.5971 Y-32.9888
G01 X-17.6877 Y-33.0560
G01 X-17.7844 Y-33.1140
G01 X-17.8863 Y-33.1622
G01 X-17.9925 Y-33.2002
G01 X-18.1019 Y-33.2276
G01 X-18.2135 Y-33.2441
G01 X-18.3261 Y-33.2496
G01 X-18.4387 Y-33.2441
G01 X-18.5503 Y-33.2276
G01 X-18.6597 Y-33.2002
G01 X-18.7659 Y-33.1622
G01 X-18.8678 Y-33.1140
G01 X-18.9645 Y-33.0560
G01 X-19.0551 Y-32.9888
G01 X-19.1387 Y-32.9131
G01 X-19.2144 Y-32.8295
G01 X-19.2816 Y-32.7389
G01 X-19.3395 Y-32.6422
G01 X-19.3878 Y-32.5403
G01 X-19.4257 Y-32.4341
G01 X-19.4531 Y-32.3247
G01 X-19.4697 Y-32.2132
G01 X-19.4752 Y-32.1005
G01 X-19.4697 Y-31.9879
G01 X-19.4531 Y-31.8763
G01 X-19.4257 Y-31.7669
G01 X-19.3878 Y-31.6608
G01 X-19.3395 Y-31.5588
G01 X-19.2816 Y-31.4621
G01 X-19.2144 Y-31.3715
G01 X-19.1387 Y-31.2880
G01 X-19.0551 Y-31.2122
G01 X-18.9645 Y-31.1451
G01 X-18.8678 Y-31.0871
G01 X-18.7659 Y-31.0389
G01 X-18.6597 Y-31.0009
G01 X-18.5503 Y-30.9735
G01 X-18.4387 Y-30.9569
G01 X-18.3261 Y-30.9514
G01 X-18.2135 Y-30.9569
G01 X-18.1019 Y-30.9735
G01 X-17.9925 Y-31.0009
G01 X-17.8863 Y-31.0389
G01 X-17.7844 Y-31.0871
G01 X-17.6877 Y-31.1451
G01 X-17.5971 Y-31.2122
G01 X-17.5135 Y-31.2880
G01 X-17.4378 Y-31.3715
G01 X-17.3706 Y-31.4621
G01 X-17.3127 Y-31.5588
G01 X-17.2644 Y-31.6608
G01 X-17.2265 Y-31.7669
G01 X-17.1991 Y-31.8763
G01 X-17.1825 Y-31.9879
G01 X-17.1770 Y-32.1005
G00 X-17.1770 Y-32.1005
G01 F60.00
G01 Z-2.0000
G01 F120.00
G01 X-17.1825 Y-31.9879
G01 X-17.1991 Y-31.8763
G01 X-17.2265 Y-31.7669
G01 X-17.2644 Y-31.6608
G01 X-17.3127 Y-31.5588
G01 X-17.3706 Y-31.4621
G01 X-17.4378 Y-31.3715
G01 X-17.5135 Y-31.2880
G01 X-17.5971 Y-31.2122
G01 X-17.6877 Y-31.1451
G01 X-17.7844 Y-31.0871
G01 X-17.8863 Y-31.0389
G01 X-17.9925 Y-31.0009
G01 X-18.1019 Y-30.9735
G01 X-18.2135 Y-30.9569
G01 X-18.3261 Y-30.9514
G01 X-18.4387 Y-30.9569
G01 X-18.5503 Y-30.9735
G01 X-18.6597 Y-31.0009
G01 X-18.7659 Y-31.0389
G01 X-18.8678 Y-31.0871
G01 X-18.9645 Y-31.1451
G01 X-19.0551 Y-31.2122
G01 X-19.1387 Y-31.2880
G01 X-19.2144 Y-31.3715
G01 X-19.2816 Y-31.4621
G01 X-19.3395 Y-31.5588
G01 X-19.3878 Y-31.6608
G01 X-19.4257 Y-31.7669
G01 X-19.4531 Y-31.8763
G01 X-19.4697 Y-31.9879
G01 X-19.4752 Y-32.1005
G01 X-19.4697 Y-32.2132
G01 X-19.4531 Y-32.3247
G01 X-19.4257 Y-32.4341
G01 X-19.3878 Y-32.5403
G01 X-19.3395 Y-32.6422
G01 X-19.2816 Y-32.7389
G01 X-19.2144 Y-32.8295
G01 X-19.1387 Y-32.9131
G01 X-19.0551 Y-32.9888
G01 X-18.9645 Y-33.0560
G01 X-18.8678 Y-33.1140
G01 X-18.7659 Y-33.1622
G01 X-18.6597 Y-33.2002
G01 X-18.5503 Y-33.2276
G01 X-18.4387 Y-33.2441
G01 X-18.3261 Y-33.2496
G01 X-18.2135 Y-33.2441
G01 X-18.1019 Y-33.2276
G01 X-17.9925 Y-33.2002
G01 X-17.8863 Y-33.1622
G01 X-17.7844 Y-33.1140
G01 X-17.6877 Y-33.0560
G01 X-17.5971 Y-32.9888
G01 X-17.5135 Y-32.9131
G01 X-17.4378 Y-32.8295
G01 X-17.3706 Y-32.7389
G01 X-17.3127 Y-32.6422
G01 X-17.2644 Y-32.5403
G01 X-17.2265 Y-32.4341
G01 X-17.1991 Y-32.3247
G01 X-17.1825 Y-32.2132
G01 X-17.1770 Y-32.1005
G00 X-17.1770 Y-32.1005
G01 F60.00
G01 Z-2.5000
G01 F120.00
G01 X-17.1825 Y-32.2132
G01 X-17.1991 Y-32.3247
G01 X-17.2265 Y-32.4341
G01 X-17.2644 Y-32.5403
G01 X-17.3127 Y-32.6422
G01 X-17.3706 Y-32.7389
G01 X-17.4378 Y-32.8295
G01 X-17.5135 Y-32.9131
G01 X-17.5971 Y-32.9888
G01 X-17.6877 Y-33.0560
G01 X-17.7844 Y-33.1140
G01 X-17.8863 Y-33.1622
G01 X-17.9925 Y-33.2002
G01 X-18.1019 Y-33.2276
G01 X-18.2135 Y-33.2441
G01 X-18.3261 Y-33.2496
G01 X-18.4387 Y-33.2441
G01 X-18.5503 Y-33.2276
G01 X-18.6597 Y-33.2002
G01 X-18.7659 Y-33.1622
G01 X-18.8678 Y-33.1140
G01 X-18.9645 Y-33.0560
G01 X-19.0551 Y-32.9888
G01 X-19.1387 Y-32.9131
G01 X-19.2144 Y-32.8295
G01 X-19.2816 Y-32.7389
G01 X-19.3395 Y-32.6422
G01 X-19.3878 Y-32.5403
G01 X-19.4257 Y-32.4341
G01 X-19.4531 Y-32.3247
G01 X-19.4697 Y-32.2132
G01 X-19.4752 Y-32.1005
G01 X-19.4697 Y-31.9879
G01 X-19.4531 Y-31.8763
G01 X-19.4257 Y-31.7669
G01 X-19.3878 Y-31.6608
G01 X-19.3395 Y-31.5588
G01 X-19.2816 Y-31.4621
G01 X-19.2144 Y-31.3715
G01 X-19.1387 Y-31.2880
G01 X-19.0551 Y-31.2122
G01 X-18.9645 Y-31.1451
G01 X-18.8678 Y-31.0871
G01 X-18.7659 Y-31.0389
G01 X-18.6597 Y-31.0009
G01 X-18.5503 Y-30.9735
G01 X-18.4387 Y-30.9569
G01 X-18.3261 Y-30.9514
G01 X-18.2135 Y-30.9569
G01 X-18.1019 Y-30.9735
G01 X-17.9925 Y-31.0009
G01 X-17.8863 Y-31.0389
G01 X-17.7844 Y-31.0871
G01 X-17.6877 Y-31.1451
G01 X-17.5971 Y-31.2122
G01 X-17.5135 Y-31.2880
G01 X-17.4378 Y-31.3715
G01 X-17.3706 Y-31.4621
G01 X-17.3127 Y-31.5588
G01 X-17.2644 Y-31.6608
G01 X-17.2265 Y-31.7669
G01 X-17.1991 Y-31.8763
G01 X-17.1825 Y-31.9879
G01 X-17.1770 Y-32.1005
G00 Z2.0000
G00 X-17.8761 Y-32.1005
G01 F60.00
G01 Z-0.5000
G01 F120.00
G01 X-17.8847 Y-32.1883
G01 X-17.9104 Y-32.2727
G01 X-17.9519 Y-32.3505
G01 X-18.0079 Y-32.4187
G01 X-18.0761 Y-32.4747
G01 X-18.1539 Y-32.5163
G01 X-18.2383 Y-32.5419
G01 X-18.3261 Y-32.5505
G01 X-18.4139 Y-32.5419
G01 X-18.4983 Y-32.5163
G01 X-18.5761 Y-32.4747
G01 X-18.6443 Y-32.4187
G01 X-18.7003 Y-32.3505
G01 X-18.7418 Y-32.2727
G01 X-18.7675 Y-32.1883
G01 X-18.7761 Y-32.1005
G01 X-18.7675 Y-32.0127
G01 X-18.7418 Y-31.9283
G01 X-18.7003 Y-31.8505
G01 X-18.6443 Y-31.7823
G01 X-18.5761 Y-31.7264
G01 X-18.4983 Y-31.6848
G01 X-18.4139 Y-31.6592
G01 X-18.3261 Y-31.6505
G01 X-18.2383 Y-31.6592
G01 X-18.1539 Y-31.6848
G01 X-18.0761 Y-31.7264
G01 X-18.0079 Y-31.7823
G01 X-17.9519 Y-31.8505
G01 X-17.9104 Y-31.9283
G01 X-17.8847 Y-32.0127
G01 X-17.8761 Y-32.1005
G00 X-17.8761 Y-32.1005
G01 F60.00
G01 Z-1.0000
G01 F120.00
G01 X-17.8847 Y-32.0127
G01 X-17.9104 Y-31.9283
G01 X-17.9519 Y-31.8505
G01 X-18.0079 Y-31.7823
G01 X-18.0761 Y-31.7264
G01 X-18.1539 Y-31.6848
G01 X-18.2383 Y-31.6592
G01 X-18.3261 Y-31.6505
G01 X-18.4139 Y-31.6592
G01 X-18.4983 Y-31.6848
G01 X-18.5761 Y-31.7264
G01 X-18.6443 Y-31.7823
G01 X-18.7003 Y-31.8505
G01 X-18.7418 Y-31.9283
G01 X-18.7675 Y-32.0127
G01 X-18.7761 Y-32.1005
G01 X-18.7675 Y-32.1883
G01 X-18.7418 Y-32.2727
G01 X-18.7003 Y-32.3505
G01 X-18.6443 Y-32.4187
G01 X-18.5761 Y-32.4747
G01 X-18.4983 Y-32.5163
G01 X-18.4139 Y-32.5419
G01 X-18.3261 Y-32.5505
G01 X-18.2383 Y-32.5419
G01 X-18.1539 Y-32.5163
G01 X-18.0761 Y-32.4747
G01 X-18.0079 Y-32.4187
G01 X-17.9519 Y-32.3505
G01 X-17.9104 Y-32.2727
G01 X-17.8847 Y-32.1883
G01 X-17.8761 Y-32.1005
G00 X-17.8761 Y-32.1005
G01 F60.00
G01 Z-1.5000
G01 F120.00
G01 X-17.8847 Y-32.1883
G01 X-17.9104 Y-32.2727
G01 X-17.9519 Y-32.3505
G01 X-18.0079 Y-32.4187
G01 X-18.0761 Y-32.4747
G01 X-18.1539 Y-32.5163
G01 X-18.2383 Y-32.5419
G01 X-18.3261 Y-32.5505
G01 X-18.4139 Y-32.5419
G01 X-18.4983 Y-32.5163
G01 X-18.5761 Y-32.4747
G01 X-18.6443 Y-32.4187
G01 X-18.7003 Y-32.3505
G01 X-18.7418 Y-32.2727
G01 X-18.7675 Y-32.1883
G01 X-18.7761 Y-32.1005
G01 X-18.7675 Y-32.0127
G01 X-18.7418 Y-31.9283
G01 X-18.7003 Y-31.8505
G01 X-18.6443 Y-31.7823
G01 X-18.5761 Y-31.7264
G01 X-18.4983 Y-31.6848
G01 X-18.4139 Y-31.6592
G01 X-18.3261 Y-31.6505
G01 X-18.2383 Y-31.6592
G01 X-18.1539 Y-31.6848
G01 X-18.0761 Y-31.7264
G01 X-18.0079 Y-31.7823
G01 X-17.9519 Y-31.8505
G01 X-17.9104 Y-31.9283
G01 X-17.8847 Y-32.0127
G01 X-17.8761 Y-32.1005
G00 X-17.8761 Y-32.1005
G01 F60.00
G01 Z-2.0000
G01 F120.00
G01 X-17.8847 Y-32.0127
G01 X-17.9104 Y-31.9283
G01 X-17.9519 Y-31.8505
G01 X-18.0079 Y-31.7823
G01 X-18.0761 Y-31.7264
G01 X-18.1539 Y-31.6848
G01 X-18.2383 Y-31.6592
G01 X-18.3261 Y-31.6505
G01 X-18.4139 Y-31.6592
G01 X-18.4983 Y-31.6848
G01 X-18.5761 Y-31.7264
G01 X-18.6443 Y-31.7823
G01 X-18.7003 Y-31.8505
G01 X-18.7418 Y-31.9283
G01 X-18.7675 Y-32.0127
G01 X-18.7761 Y-32.1005
G01 X-18.7675 Y-32.1883
G01 X-18.7418 Y-32.2727
G01 X-18.7003 Y-32.3505
G01 X-18.6443 Y-32.4187
G01 X-18.5761 Y-32.4747
G01 X-18.4983 Y-32.5163
G01 X-18.4139 Y-32.5419
G01 X-18.3261 Y-32.5505
G01 X-18.2383 Y-32.5419
G01 X-18.1539 Y-32.5163
G01 X-18.0761 Y-32.4747
G01 X-18.0079 Y-32.4187
G01 X-17.9519 Y-32.3505
G01 X-17.9104 Y-32.2727
G01 X-17.8847 Y-32.1883
G01 X-17.8761 Y-32.1005
G00 X-17.8761 Y-32.1005
G01 F60.00
G01 Z-2.5000
G01 F120.00
G01 X-17.8847 Y-32.1883
G01 X-17.9104 Y-32.2727
G01 X-17.9519 Y-32.3505
G01 X-18.0079 Y-32.4187
G01 X-18.0761 Y-32.4747
G01 X-18.1539 Y-32.5163
G01 X-18.2383 Y-32.5419
G01 X-18.3261 Y-32.5505
G01 X-18.4139 Y-32.5419
G01 X-18.4983 Y-32.5163
G01 X-18.5761 Y-32.4747
G01 X-18.6443 Y-32.4187
G01 X-18.7003 Y-32.3505
G01 X-18.7418 Y-32.2727
G01 X-18.7675 Y-32.1883
G01 X-18.7761 Y-32.1005
G01 X-18.7675 Y-32.0127
G01 X-18.7418 Y-31.9283
G01 X-18.7003 Y-31.8505
G01 X-18.6443 Y-31.7823
G01 X-18.5761 Y-31.7264
G01 X-18.4983 Y-31.6848
G01 X-18.4139 Y-31.6592
G01 X-18.3261 Y-31.6505
G01 X-18.2383 Y-31.6592
G01 X-18.1539 Y-31.6848
G01 X-18.0761 Y-31.7264
G01 X-18.0079 Y-31.7823
G01 X-17.9519 Y-31.8505
G01 X-17.9104 Y-31.9283
G01 X-17.8847 Y-32.0127
G01 X-17.8761 Y-32.1005
G00 Z2.0000
G00 X-55.2770 Y-32.1005
G01 F60.00
G01 Z-0.5000
G01 F120.00
G01 X-55.2825 Y-32.2132
G01 X-55.2991 Y-32.3247
G01 X-55.3265 Y-32.4341
G01 X-55.3644 Y-32.5403
G01 X-55.4127 Y-32.6422
G01 X-55.4706 Y-32.7389
G01 X-55.5378 Y-32.8295
G01 X-55.6135 Y-32.9131
G01 X-55.6971 Y-32.9888
G01 X-55.7877 Y-33.0560
G01 X-55.8844 Y-33.1140
G01 X-55.9863 Y-33.1622
G01 X-56.0925 Y-33.2002
G01 X-56.2019 Y-33.2276
G01 X-56.3135 Y-33.2441
G01 X-56.4261 Y-33.2496
G01 X-56.5387 Y-33.2441
G01 X-56.6503 Y-33.2276
G01 X-56.7597 Y-33.2002
G01 X-56.8659 Y-33.1622
G01 X-56.9678 Y-33.1140
G01 X-57.0645 Y-33.0560
G01 X-57.1551 Y-32.9888
G01 X-57.2387 Y-32.9131
G01 X-57.3144 Y-32.8295
G01 X-57.3816 Y-32.7389
G01 X-57.4395 Y-32.6422
G01 X-57.4878 Y-32.5403
G01 X-57.5257 Y-32.4341
G01 X-57.5531 Y-32.3247
G01 X-57.5697 Y-32.2132
G01 X-57.5752 Y-32.1005
G01 X-57.5697 Y-31.9879
G01 X-57.5531 Y-31.8763
G01 X-57.5257 Y-31.7669
G01 X-57.4878 Y-31.6608
G01 X-57.4395 Y-31.5588
G01 X-57.3816 Y-31.4621
G01 X-57.3144 Y-31.3715
G01 X-57.2387 Y-31.2880
G01 X-57.1551 Y-31.2122
G01 X-57.0645 Y-31.1451
G01 X-56.9678 Y-31.0871
G01 X-56.8659 Y-31.0389
G01 X-56.7597 Y-31.0009
G01 X-56.6503 Y-30.9735
G01 X-56.5387 Y-30.9569
G01 X-56.4261 Y-30.9514
G01 X-56.3135 Y-30.9569
G01 X-56.2019 Y-30.9735
G01 X-56.0925 Y-31.0009
G01 X-55.9863 Y-31.0389
G01 X-55.8844 Y-31.0871
G01 X-55.7877 Y-31.1451
G01 X-55.6971 Y-31.2122
G01 X-55.6135 Y-31.2880
G01 X-55.5378 Y-31.3715
G01 X-55.4706 Y-31.4621
G01 X-55.4127 Y-31.5588
G01 X-55.3644 Y-31.6608
G01 X-55.3265 Y-31.7669
G01 X-55.2991 Y-31.8763
G01 X-55.2825 Y-31.9879
G01 X-55.2770 Y-32.1005
G00 X-55.2770 Y-32.1005
G01 F60.00
G01 Z-1.0000
G01 F120.00
G01 X-55.2825 Y-31.9879
G01 X-55.2991 Y-31.8763
G01 X-55.3265 Y-31.7669
G01 X-55.3644 Y-31.6608
G01 X-55.4127 Y-31.5588
G01 X-55.4706 Y-31.4621
G01 X-55.5378 Y-31.3715
G01 X-55.6135 Y-31.2880
G01 X-55.6971 Y-31.2122
G01 X-55.7877 Y-31.1451
G01 X-55.8844 Y-31.0871
G01 X-55.9863 Y-31.0389
G01 X-56.0925 Y-31.0009
G01 X-56.2019 Y-30.9735
G01 X-56.3135 Y-30.9569
G01 X-56.4261 Y-30.9514
G01 X-56.5387 Y-30.9569
G01 X-56.6503 Y-30.9735
G01 X-56.7597 Y-31.0009
G01 X-56.8659 Y-31.0389
G01 X-56.9678 Y-31.0871
G01 X-57.0645 Y-31.1451
G01 X-57.1551 Y-31.2122
G01 X-57.2387 Y-31.2880
G01 X-57.3144 Y-31.3715
G01 X-57.3816 Y-31.4621
G01 X-57.4395 Y-31.5588
G01 X-57.4878 Y-31.6608
G01 X-57.5257 Y-31.7669
G01 X-57.5531 Y-31.8763
G01 X-57.5697 Y-31.9879
G01 X-57.5752 Y-32.1005
G01 X-57.5697 Y-32.2132
G01 X-57.5531 Y-32.3247
G01 X-57.5257 Y-32.4341
G01 X-57.4878 Y-32.5403
G01 X-57.4395 Y-32.6422
G01 X-57.3816 Y-32.7389
G01 X-57.3144 Y-32.8295
G01 X-57.2387 Y-32.9131
G01 X-57.1551 Y-32.9888
G01 X-57.0645 Y-33.0560
G01 X-56.9678 Y-33.1140
G01 X-56.8659 Y-33.1622
G01 X-56.7597 Y-33.2002
G01 X-56.6503 Y-33.2276
G01 X-56.5387 Y-33.2441
G01 X-56.4261 Y-33.2496
G01 X-56.3135 Y-33.2441
G01 X-56.2019 Y-33.2276
G01 X-56.0925 Y-33.2002
G01 X-55.9863 Y-33.1622
G01 X-55.8844 Y-33.1140
G01 X-55.7877 Y-33.0560
G01 X-55.6971 Y-32.9888
G01 X-55.6135 Y-32.9131
G01 X-55.5378 Y-32.8295
G01 X-55.4706 Y-32.7389
G01 X-55.4127 Y-32.6422
G01 X-55.3644 Y-32.5403
G01 X-55.3265 Y-32.4341
G01 X-55.2991 Y-32.3247
G01 X-55.2825 Y-32.2132
G01 X-55.2770 Y-32.1005
G00 X-55.2770 Y-32.1005
G01 F60.00
G01 Z-1.5000
G01 F120.00
G01 X-55.2825 Y-32.2132
G01 X-55.2991 Y-32.3247
G01 X-55.3265 Y-32.4341
G01 X-55.3644 Y-32.5403
G01 X-55.4127 Y-32.6422
G01 X-55.4706 Y-32.7389
G01 X-55.5378 Y-32.8295
G01 X-55.6135 Y-32.9131
G01 X-55.6971 Y-32.9888
G01 X-55.7877 Y-33.0560
G01 X-55.8844 Y-33.1140
G01 X-55.9863 Y-33.1622
G01 X-56.0925 Y-33.2002
G01 X-56.2019 Y-33.2276
G01 X-56.3135 Y-33.2441
G01 X-56.4261 Y-33.2496
G01 X-56.5387 Y-33.2441
G01 X-56.6503 Y-33.2276
G01 X-56.7597 Y-33.2002
G01 X-56.8659 Y-33.1622
G01 X-56.9678 Y-33.1140
G01 X-57.0645 Y-33.0560
G01 X-57.1551 Y-32.9888
G01 X-57.2387 Y-32.9131
G01 X-57.3144 Y-32.8295
G01 X-57.3816 Y-32.7389
G01 X-57.4395 Y-32.6422
G01 X-57.4878 Y-32.5403
G01 X-57.5257 Y-32.4341
G01 X-57.5531 Y-32.3247
G01 X-57.5697 Y-32.2132
G01 X-57.5752 Y-32.1005
G01 X-57.5697 Y-31.9879
G01 X-57.5531 Y-31.8763
G01 X-57.5257 Y-31.7669
G01 X-57.4878 Y-31.6608
G01 X-57.4395 Y-31.5588
G01 X-57.3816 Y-31.4621
G01 X-57.3144 Y-31.3715
G01 X-57.2387 Y-31.2880
G01 X-57.1551 Y-31.2122
G01 X-57.0645 Y-31.1451
G01 X-56.9678 Y-31.0871
G01 X-56.8659 Y-31.0389
G01 X-56.7597 Y-31.0009
G01 X-56.6503 Y-30.9735
G01 X-56.5387 Y-30.9569
G01 X-56.4261 Y-30.9514
G01 X-56.3135 Y-30.9569
G01 X-56.2019 Y-30.9735
G01 X-56.0925 Y-31.0009
G01 X-55.9863 Y-31.0389
G01 X-55.8844 Y-31.0871
G01 X-55.7877 Y-31.1451
G01 X-55.6971 Y-31.2122
G01 X-55.6135 Y-31.2880
G01 X-55.5378 Y-31.3715
G01 X-55.4706 Y-31.4621
G01 X-55.4127 Y-31.5588
G01 X-55.3644 Y-31.6608
G01 X-55.3265 Y-31.7669
G01 X-55.2991 Y-31.8763
G01 X-55.2825 Y-31.9879
G01 X-55.2770 Y-32.1005
G00 X-55.2770 Y-32.1005
G01 F60.00
G01 Z-2.0000
G01 F120.00
G01 X-55.2825 Y-31.9879
G01 X-55.2991 Y-31.8763
G01 X-55.3265 Y-31.7669
G01 X-55.3644 Y-31.6608
G01 X-55.4127 Y-31.5588
G01 X-55.4706 Y-31.4621
G01 X-55.5378 Y-31.3715
G01 X-55.6135 Y-31.2880
G01 X-55.6971 Y-31.2122
G01 X-55.7877 Y-31.1451
G01 X-55.8844 Y-31.0871
G01 X-55.9863 Y-31.0389
G01 X-56.0925 Y-31.0009
G01 X-56.2019 Y-30.9735
G01 X-56.3135 Y-30.9569
G01 X-56.4261 Y-30.9514
G01 X-56.5387 Y-30.9569
G01 X-56.6503 Y-30.9735
G01 X-56.7597 Y-31.0009
G01 X-56.8659 Y-31.0389
G01 X-56.9678 Y-31.0871
G01 X-57.0645 Y-31.1451
G01 X-57.1551 Y-31.2122
G01 X-57.2387 Y-31.2880
G01 X-57.3144 Y-31.3715
G01 X-57.3816 Y-31.4621
G01 X-57.4395 Y-31.5588
G01 X-57.4878 Y-31.6608
G01 X-57.5257 Y-31.7669
G01 X-57.5531 Y-31.8763
G01 X-57.5697 Y-31.9879
G01 X-57.5752 Y-32.1005
G01 X-57.5697 Y-32.2132
G01 X-57.5531 Y-32.3247
G01 X-57.5257 Y-32.4341
G01 X-57.4878 Y-32.5403
G01 X-57.4395 Y-32.6422
G01 X-57.3816 Y-32.7389
G01 X-57.3144 Y-32.8295
G01 X-57.2387 Y-32.9131
G01 X-57.1551 Y-32.9888
G01 X-57.0645 Y-33.0560
G01 X-56.9678 Y-33.1140
G01 X-56.8659 Y-33.1622
G01 X-56.7597 Y-33.2002
G01 X-56.6503 Y-33.2276
G01 X-56.5387 Y-33.2441
G01 X-56.4261 Y-33.2496
G01 X-56.3135 Y-33.2441
G01 X-56.2019 Y-33.2276
G01 X-56.0925 Y-33.2002
G01 X-55.9863 Y-33.1622
G01 X-55.8844 Y-33.1140
G01 X-55.7877 Y-33.0560
G01 X-55.6971 Y-32.9888
G01 X-55.6135 Y-32.9131
G01 X-55.5378 Y-32.8295
G01 X-55.4706 Y-32.7389
G01 X-55.4127 Y-32.6422
G01 X-55.3644 Y-32.5403
G01 X-55.3265 Y-32.4341
G01 X-55.2991 Y-32.3247
G01 X-55.2825 Y-32.2132
G01 X-55.2770 Y-32.1005
G00 X-55.2770 Y-32.1005
G01 F60.00
G01 Z-2.5000
G01 F120.00
G01 X-55.2825 Y-32.2132
G01 X-55.2991 Y-32.3247
G01 X-55.3265 Y-32.4341
G01 X-55.3644 Y-32.5403
G01 X-55.4127 Y-32.6422
G01 X-55.4706 Y-32.7389
G01 X-55.5378 Y-32.8295
G01 X-55.6135 Y-32.9131
G01 X-55.6971 Y-32.9888
G01 X-55.7877 Y-33.0560
G01 X-55.8844 Y-33.1140
G01 X-55.9863 Y-33.1622
G01 X-56.0925 Y-33.2002
G01 X-56.2019 Y-33.2276
G01 X-56.3135 Y-33.2441
G01 X-56.4261 Y-33.2496
G01 X-56.5387 Y-33.2441
G01 X-56.6503 Y-33.2276
G01 X-56.7597 Y-33.2002
G01 X-56.8659 Y-33.1622
G01 X-56.9678 Y-33.1140
G01 X-57.0645 Y-33.0560
G01 X-57.1551 Y-32.9888
G01 X-57.2387 Y-32.9131
G01 X-57.3144 Y-32.8295
G01 X-57.3816 Y-32.7389
G01 X-57.4395 Y-32.6422
G01 X-57.4878 Y-32.5403
G01 X-57.5257 Y-32.4341
G01 X-57.5531 Y-32.3247
G01 X-57.5697 Y-32.2132
G01 X-57.5752 Y-32.1005
G01 X-57.5697 Y-31.9879
G01 X-57.5531 Y-31.8763
G01 X-57.5257 Y-31.7669
G01 X-57.4878 Y-31.6608
G01 X-57.4395 Y-31.5588
G01 X-57.3816 Y-31.4621
G01 X-57.3144 Y-31.3715
G01 X-57.2387 Y-31.2880
G01 X-57.1551 Y-31.2122
G01 X-57.0645 Y-31.1451
G01 X-56.9678 Y-31.0871
G01 X-56.8659 Y-31.0389
G01 X-56.7597 Y-31.0009
G01 X-56.6503 Y-30.9735
G01 X-56.5387 Y-30.9569
G01 X-56.4261 Y-30.9514
G01 X-56.3135 Y-30.9569
G01 X-56.2019 Y-30.9735
G01 X-56.0925 Y-31.0009
G01 X-55.9863 Y-31.0389
G01 X-55.8844 Y-31.0871
G01 X-55.7877 Y-31.1451
G01 X-55.6971 Y-31.2122
G01 X-55.6135 Y-31.2880
G01 X-55.5378 Y-31.3715
G01 X-55.4706 Y-31.4621
G01 X-55.4127 Y-31.5588
G01 X-55.3644 Y-31.6608
G01 X-55.3265 Y-31.7669
G01 X-55.2991 Y-31.8763
G01 X-55.2825 Y-31.9879
G01 X-55.2770 Y-32.1005
G00 Z2.0000
G00 X-55.9761 Y-32.1005
G01 F60.00
G01 Z-0.5000
G01 F120.00
G01 X-55.9847 Y-32.1883
G01 X-56.0104 Y-32.2727
G01 X-56.0519 Y-32.3505
G01 X-56.1079 Y-32.4187
G01 X-56.1761 Y-32.4747
G01 X-56.2539 Y-32.5163
G01 X-56.3383 Y-32.5419
G01 X-56.4261 Y-32.5505
G01 X-56.5139 Y-32.5419
G01 X-56.5983 Y-32.5163
G01 X-56.6761 Y-32.4747
G01 X-56.7443 Y-32.4187
G01 X-56.8003 Y-32.3505
G01 X-56.8418 Y-32.2727
G01 X-56.8675 Y-32.1883
G01 X-56.8761 Y-32.1005
G01 X-56.8675 Y-32.0127
G01 X-56.8418 Y-31.9283
G01 X-56.8003 Y-31.8505
G01 X-56.7443 Y-31.7823
G01 X-56.6761 Y-31.7264
G01 X-56.5983 Y-31.6848
G01 X-56.5139 Y-31.6592
G01 X-56.4261 Y-31.6505
G01 X-56.3383 Y-31.6592
G01 X-56.2539 Y-31.6848
G01 X-56.1761 Y-31.7264
G01 X-56.1079 Y-31.7823
G01 X-56.0519 Y-31.8505
G01 X-56.0104 Y-31.9283
G01 X-55.9847 Y-32.0127
G01 X-55.9761 Y-32.1005
G00 X-55.9761 Y-32.1005
G01 F60.00
G01 Z-1.0000
G01 F120.00
G01 X-55.9847 Y-32.0127
G01 X-56.0104 Y-31.9283
G01 X-56.0519 Y-31.8505
G01 X-56.1079 Y-31.7823
G01 X-56.1761 Y-31.7264
G01 X-56.2539 Y-31.6848
G01 X-56.3383 Y-31.6592
G01 X-56.4261 Y-31.6505
G01 X-56.5139 Y-31.6592
G01 X-56.5983 Y-31.6848
G01 X-56.6761 Y-31.7264
G01 X-56.7443 Y-31.7823
G01 X-56.8003 Y-31.8505
G01 X-56.8418 Y-31.9283
G01 X-56.8675 Y-32.0127
G01 X-56.8761 Y-32.1005
G01 X-56.8675 Y-32.1883
G01 X-56.8418 Y-32.2727
G01 X-56.8003 Y-32.3505
G01 X-56.7443 Y-32.4187
G01 X-56.6761 Y-32.4747
G01 X-56.5983 Y-32.5163
G01 X-56.5139 Y-32.5419
G01 X-56.4261 Y-32.5505
G01 X-56.3383 Y-32.5419
G01 X-56.2539 Y-32.5163
G01 X-56.1761 Y-32.4747
G01 X-56.1079 Y-32.4187
G01 X-56.0519 Y-32.3505
G01 X-56.0104 Y-32.2727
G01 X-55.9847 Y-32.1883
G01 X-55.9761 Y-32.1005
G00 X-55.9761 Y-32.1005
G01 F60.00
G01 Z-1.5000
G01 F120.00
G01 X-55.9847 Y-32.1883
G01 X-56.0104 Y-32.2727
G01 X-56.0519 Y-32.3505
G01 X-56.1079 Y-32.4187
G01 X-56.1761 Y-32.4747
G01 X-56.2539 Y-32.5163
G01 X-56.3383 Y-32.5419
G01 X-56.4261 Y-32.5505
G01 X-56.5139 Y-32.5419
G01 X-56.5983 Y-32.5163
G01 X-56.6761 Y-32.4747
G01 X-56.7443 Y-32.4187
G01 X-56.8003 Y-32.3505
G01 X-56.8418 Y-32.2727
G01 X-56.8675 Y-32.1883
G01 X-56.8761 Y-32.1005
G01 X-56.8675 Y-32.0127
G01 X-56.8418 Y-31.9283
G01 X-56.8003 Y-31.8505
G01 X-56.7443 Y-31.7823
G01 X-56.6761 Y-31.7264
G01 X-56.5983 Y-31.6848
G01 X-56.5139 Y-31.6592
G01 X-56.4261 Y-31.6505
G01 X-56.3383 Y-31.6592
G01 X-56.2539 Y-31.6848
G01 X-56.1761 Y-31.7264
G01 X-56.1079 Y-31.7823
G01 X-56.0519 Y-31.8505
G01 X-56.0104 Y-31.9283
G01 X-55.9847 Y-32.0127
G01 X-55.9761 Y-32.1005
G00 X-55.9761 Y-32.1005
G01 F60.00
G01 Z-2.0000
G01 F120.00
G01 X-55.9847 Y-32.0127
G01 X-56.0104 Y-31.9283
G01 X-56.0519 Y-31.8505
G01 X-56.1079 Y-31.7823
G01 X-56.1761 Y-31.7264
G01 X-56.2539 Y-31.6848
G01 X-56.3383 Y-31.6592
G01 X-56.4261 Y-31.6505
G01 X-56.5139 Y-31.6592
G01 X-56.5983 Y-31.6848
G01 X-56.6761 Y-31.7264
G01 X-56.7443 Y-31.7823
G01 X-56.8003 Y-31.8505
G01 X-56.8418 Y-31.9283
G01 X-56.8675 Y-32.0127
G01 X-56.8761 Y-32.1005
G01 X-56.8675 Y-32.1883
G01 X-56.8418 Y-32.2727
G01 X-56.8003 Y-32.3505
G01 X-56.7443 Y-32.4187
G01 X-56.6761 Y-32.4747
G01 X-56.5983 Y-32.5163
G01 X-56.5139 Y-32.5419
G01 X-56.4261 Y-32.5505
G01 X-56.3383 Y-32.5419
G01 X-56.2539 Y-32.5163
G01 X-56.1761 Y-32.4747
G01 X-56.1079 Y-32.4187
G01 X-56.0519 Y-32.3505
G01 X-56.0104 Y-32.2727
G01 X-55.9847 Y-32.1883
G01 X-55.9761 Y-32.1005
G00 X-55.9761 Y-32.1005
G01 F60.00
G01 Z-2.5000
G01 F120.00
G01 X-55.9847 Y-32.1883
G01 X-56.0104 Y-32.2727
G01 X-56.0519 Y-32.3505
G01 X-56.1079 Y-32.4187
G01 X-56.1761 Y-32.4747
G01 X-56.2539 Y-32.5163
G01 X-56.3383 Y-32.5419
G01 X-56.4261 Y-32.5505
G01 X-56.5139 Y-32.5419
G01 X-56.5983 Y-32.5163
G01 X-56.6761 Y-32.4747
G01 X-56.7443 Y-32.4187
G01 X-56.8003 Y-32.3505
G01 X-56.8418 Y-32.2727
G01 X-56.8675 Y-32.1883
G01 X-56.8761 Y-32.1005
G01 X-56.8675 Y-32.0127
G01 X-56.8418 Y-31.9283
G01 X-56.8003 Y-31.8505
G01 X-56.7443 Y-31.7823
G01 X-56.6761 Y-31.7264
G01 X-56.5983 Y-31.6848
G01 X-56.5139 Y-31.6592
G01 X-56.4261 Y-31.6505
G01 X-56.3383 Y-31.6592
G01 X-56.2539 Y-31.6848
G01 X-56.1761 Y-31.7264
G01 X-56.1079 Y-31.7823
G01 X-56.0519 Y-31.8505
G01 X-56.0104 Y-31.9283
G01 X-55.9847 Y-32.0127
G01 X-55.9761 Y-32.1005
G00 Z2.0000
M05
G00 Z2.0000
G00 Z15.00
G00 X0.0 Y0.0


