(G-code generated by FlatCAM Evo vUnstable - Version Date: 2023/6/31)

(Name: func_amp-Edge_Cuts_cutout_cnc)
(Type: G-code from Geometry)
(Units: MM)

(Created on Friday, 20 October 2023 at 08:43)

(This preprocessor is the default preprocessor.)
(It is made to work with MACH3 compatible motion controllers.)

(TOOL DIAMETER: 1.0 mm)
(Feedrate_XY: 120.0 mm/min)
(Feedrate_Z: 60.0 mm/min)
(Feedrate rapids 1500.0 mm/min)

(Z_Cut: -2.5 mm)
(DepthPerCut: 0.5 mm <=>5 passes)
(Z_Move: 2.0 mm)
(Z Start: None mm)
(Z End: 15.0 mm)
(X,Y End: 0.0000, 0.0000 mm)
(Steps per circle: 16)
(Preprocessor Geometry: default)

(X range: -131.6250 ...   -0.3750  mm)
(Y range: -131.6250 ...   -0.3750  mm)

(Spindle Speed: 13000.0 RPM)
G21
G90
G94

G01 F120.00
G00 Z2.0000

M03 S13000.0
G4 P1.0
G01 F120.00
G00 X-21.5750 Y-9.7250
G01 F60.00
G01 Z-0.5000
G01 F120.00
G01 X-21.5750 Y-24.0750
G01 X-1.9681 Y-24.0758
G01 X-1.8925 Y-24.0843
G01 X-1.4954 Y-24.1631
G01 X-1.3781 Y-24.1987
G01 X-1.2701 Y-24.2564
G01 X-0.9335 Y-24.4815
G01 X-0.8509 Y-24.5509
G01 X-0.7732 Y-24.6457
G01 X-0.5484 Y-24.9824
G01 X-0.5106 Y-25.0512
G01 X-0.4662 Y-25.1810
G01 X-0.3843 Y-25.5925
G01 X-0.3750 Y-25.7000
G01 X-0.3757 Y-38.6294
G01 X-0.3843 Y-38.7075
G01 X-0.4662 Y-39.1190
G01 X-0.5106 Y-39.2488
G01 X-0.5564 Y-39.3299
G01 X-0.7916 Y-39.6804
G01 X-0.8509 Y-39.7491
G01 X-0.9335 Y-39.8185
G01 X-1.2824 Y-40.0516
G01 X-1.3781 Y-40.1013
G01 X-1.4954 Y-40.1369
G01 X-1.8925 Y-40.2157
G01 X-1.9853 Y-40.2248
G01 X-21.5750 Y-40.2250
G01 X-21.5750 Y-54.4750
G01 X-21.3250 Y-54.4750
G01 X-21.3242 Y-41.5681
G01 X-21.3157 Y-41.4925
G01 X-21.2679 Y-41.2556
G01 X-21.2394 Y-41.1695
G01 X-21.1897 Y-41.0738
G01 X-21.0649 Y-40.8871
G01 X-20.9955 Y-40.8045
G01 X-20.9129 Y-40.7351
G01 X-20.7137 Y-40.6026
G01 X-20.6305 Y-40.5606
G01 X-20.5420 Y-40.5315
G01 X-20.3074 Y-40.4843
G01 X-20.2000 Y-40.4750
G01 X-1.9706 Y-40.4757
G01 X-1.8925 Y-40.4843
G01 X-1.4954 Y-40.5631
G01 X-1.3781 Y-40.5987
G01 X-1.2824 Y-40.6484
G01 X-0.9216 Y-40.8902
G01 X-0.8509 Y-40.9509
G01 X-0.7916 Y-41.0196
G01 X-0.5564 Y-41.3701
G01 X-0.4987 Y-41.4781
G01 X-0.4662 Y-41.5810
G01 X-0.3843 Y-41.9925
G01 X-0.3750 Y-42.1000
G01 X-0.3752 Y-127.5147
G01 X-0.3870 Y-127.6219
G01 X-0.6534 Y-128.9613
G01 X-0.6890 Y-129.0786
G01 X-0.7467 Y-129.1866
G01 X-1.5054 Y-130.3221
G01 X-1.5612 Y-130.3937
G01 X-1.6779 Y-130.4946
G01 X-2.8134 Y-131.2533
G01 X-2.9214 Y-131.3110
G01 X-3.0387 Y-131.3466
G01 X-4.3781 Y-131.6130
G01 X-4.5000 Y-131.6250
G01 X-127.5000 Y-131.6250
G01 X-127.6219 Y-131.6130
G01 X-128.9613 Y-131.3466
G01 X-129.0786 Y-131.3110
G01 X-129.1866 Y-131.2533
G01 X-130.3221 Y-130.4946
G01 X-130.3937 Y-130.4388
G01 X-130.4946 Y-130.3221
G01 X-131.2533 Y-129.1866
G01 X-131.3110 Y-129.0786
G01 X-131.3466 Y-128.9613
G01 X-131.6130 Y-127.6219
G01 X-131.6250 Y-127.5000
G01 X-131.6250 Y-4.5000
G01 X-131.6130 Y-4.3781
G01 X-131.3466 Y-3.0387
G01 X-131.3110 Y-2.9214
G01 X-131.2533 Y-2.8134
G01 X-130.4946 Y-1.6779
G01 X-130.4388 Y-1.6063
G01 X-130.3221 Y-1.5054
G01 X-129.1866 Y-0.7467
G01 X-129.0786 Y-0.6890
G01 X-128.9613 Y-0.6534
G01 X-127.6219 Y-0.3870
G01 X-127.5000 Y-0.3750
G01 X-4.5000 Y-0.3750
G01 X-4.3925 Y-0.3843
G01 X-3.0387 Y-0.6534
G01 X-2.9214 Y-0.6890
G01 X-2.8134 Y-0.7467
G01 X-1.6779 Y-1.5054
G01 X-1.5832 Y-1.5832
G01 X-1.5054 Y-1.6779
G01 X-0.7467 Y-2.8134
G01 X-0.6890 Y-2.9214
G01 X-0.6534 Y-3.0387
G01 X-0.3843 Y-4.3925
G01 X-0.3750 Y-4.5000
G01 X-0.3750 Y-22.2000
G01 X-0.3843 Y-22.3075
G01 X-0.4696 Y-22.7334
G01 X-0.4987 Y-22.8219
G01 X-0.5484 Y-22.9176
G01 X-0.7815 Y-23.2665
G01 X-0.8509 Y-23.3491
G01 X-0.9335 Y-23.4185
G01 X-1.2824 Y-23.6516
G01 X-1.3781 Y-23.7013
G01 X-1.4643 Y-23.7298
G01 X-1.8781 Y-23.8130
G01 X-1.9706 Y-23.8243
G01 X-20.2000 Y-23.8250
G01 X-20.3075 Y-23.8157
G01 X-20.5444 Y-23.7679
G01 X-20.6305 Y-23.7394
G01 X-20.7262 Y-23.6896
G01 X-20.9129 Y-23.5649
G01 X-20.9955 Y-23.4955
G01 X-21.0649 Y-23.4129
G01 X-21.1896 Y-23.2262
G01 X-21.2394 Y-23.1305
G01 X-21.2679 Y-23.0444
G01 X-21.3157 Y-22.8075
G01 X-21.3242 Y-22.7319
G01 X-21.3250 Y-9.7250
G01 X-21.5750 Y-9.7250
G00 X-21.5750 Y-9.7250
G01 F60.00
G01 Z-1.0000
G01 F120.00
G01 X-21.3250 Y-9.7250
G01 X-21.3242 Y-22.7319
G01 X-21.3157 Y-22.8075
G01 X-21.2679 Y-23.0444
G01 X-21.2394 Y-23.1305
G01 X-21.1896 Y-23.2262
G01 X-21.0649 Y-23.4129
G01 X-20.9955 Y-23.4955
G01 X-20.9129 Y-23.5649
G01 X-20.7262 Y-23.6896
G01 X-20.6305 Y-23.7394
G01 X-20.5444 Y-23.7679
G01 X-20.3075 Y-23.8157
G01 X-20.2000 Y-23.8250
G01 X-1.9706 Y-23.8243
G01 X-1.8781 Y-23.8130
G01 X-1.4643 Y-23.7298
G01 X-1.3781 Y-23.7013
G01 X-1.2824 Y-23.6516
G01 X-0.9335 Y-23.4185
G01 X-0.8509 Y-23.3491
G01 X-0.7815 Y-23.2665
G01 X-0.5484 Y-22.9176
G01 X-0.4987 Y-22.8219
G01 X-0.4696 Y-22.7334
G01 X-0.3843 Y-22.3075
G01 X-0.3750 Y-22.2000
G01 X-0.3750 Y-4.5000
G01 X-0.3843 Y-4.3925
G01 X-0.6534 Y-3.0387
G01 X-0.6890 Y-2.9214
G01 X-0.7467 Y-2.8134
G01 X-1.5054 Y-1.6779
G01 X-1.5832 Y-1.5832
G01 X-1.6779 Y-1.5054
G01 X-2.8134 Y-0.7467
G01 X-2.9214 Y-0.6890
G01 X-3.0387 Y-0.6534
G01 X-4.3925 Y-0.3843
G01 X-4.5000 Y-0.3750
G01 X-127.5000 Y-0.3750
G01 X-127.6219 Y-0.3870
G01 X-128.9613 Y-0.6534
G01 X-129.0786 Y-0.6890
G01 X-129.1866 Y-0.7467
G01 X-130.3221 Y-1.5054
G01 X-130.4388 Y-1.6063
G01 X-130.4946 Y-1.6779
G01 X-131.2533 Y-2.8134
G01 X-131.3110 Y-2.9214
G01 X-131.3466 Y-3.0387
G01 X-131.6130 Y-4.3781
G01 X-131.6250 Y-4.5000
G01 X-131.6250 Y-127.5000
G01 X-131.6130 Y-127.6219
G01 X-131.3466 Y-128.9613
G01 X-131.3110 Y-129.0786
G01 X-131.2533 Y-129.1866
G01 X-130.4946 Y-130.3221
G01 X-130.3937 Y-130.4388
G01 X-130.3221 Y-130.4946
G01 X-129.1866 Y-131.2533
G01 X-129.0786 Y-131.3110
G01 X-128.9613 Y-131.3466
G01 X-127.6219 Y-131.6130
G01 X-127.5000 Y-131.6250
G01 X-4.5000 Y-131.6250
G01 X-4.3781 Y-131.6130
G01 X-3.0387 Y-131.3466
G01 X-2.9214 Y-131.3110
G01 X-2.8134 Y-131.2533
G01 X-1.6779 Y-130.4946
G01 X-1.5612 Y-130.3937
G01 X-1.5054 Y-130.3221
G01 X-0.7467 Y-129.1866
G01 X-0.6890 Y-129.0786
G01 X-0.6534 Y-128.9613
G01 X-0.3870 Y-127.6219
G01 X-0.3752 Y-127.5147
G01 X-0.3750 Y-42.1000
G01 X-0.3843 Y-41.9925
G01 X-0.4662 Y-41.5810
G01 X-0.4987 Y-41.4781
G01 X-0.5564 Y-41.3701
G01 X-0.7916 Y-41.0196
G01 X-0.8509 Y-40.9509
G01 X-0.9216 Y-40.8902
G01 X-1.2824 Y-40.6484
G01 X-1.3781 Y-40.5987
G01 X-1.4954 Y-40.5631
G01 X-1.8925 Y-40.4843
G01 X-1.9706 Y-40.4757
G01 X-20.2000 Y-40.4750
G01 X-20.3074 Y-40.4843
G01 X-20.5420 Y-40.5315
G01 X-20.6305 Y-40.5606
G01 X-20.7137 Y-40.6026
G01 X-20.9129 Y-40.7351
G01 X-20.9955 Y-40.8045
G01 X-21.0649 Y-40.8871
G01 X-21.1897 Y-41.0738
G01 X-21.2394 Y-41.1695
G01 X-21.2679 Y-41.2556
G01 X-21.3157 Y-41.4925
G01 X-21.3242 Y-41.5681
G01 X-21.3250 Y-54.4750
G01 X-21.5750 Y-54.4750
G01 X-21.5750 Y-40.2250
G01 X-1.9853 Y-40.2248
G01 X-1.8925 Y-40.2157
G01 X-1.4954 Y-40.1369
G01 X-1.3781 Y-40.1013
G01 X-1.2824 Y-40.0516
G01 X-0.9335 Y-39.8185
G01 X-0.8509 Y-39.7491
G01 X-0.7916 Y-39.6804
G01 X-0.5564 Y-39.3299
G01 X-0.5106 Y-39.2488
G01 X-0.4662 Y-39.1190
G01 X-0.3843 Y-38.7075
G01 X-0.3757 Y-38.6294
G01 X-0.3750 Y-25.7000
G01 X-0.3843 Y-25.5925
G01 X-0.4662 Y-25.1810
G01 X-0.5106 Y-25.0512
G01 X-0.5484 Y-24.9824
G01 X-0.7732 Y-24.6457
G01 X-0.8509 Y-24.5509
G01 X-0.9335 Y-24.4815
G01 X-1.2701 Y-24.2564
G01 X-1.3781 Y-24.1987
G01 X-1.4954 Y-24.1631
G01 X-1.8925 Y-24.0843
G01 X-1.9681 Y-24.0758
G01 X-21.5750 Y-24.0750
G01 X-21.5750 Y-9.7250
G00 X-21.5750 Y-9.7250
G01 F60.00
G01 Z-1.5000
G01 F120.00
G01 X-21.5750 Y-24.0750
G01 X-1.9681 Y-24.0758
G01 X-1.8925 Y-24.0843
G01 X-1.4954 Y-24.1631
G01 X-1.3781 Y-24.1987
G01 X-1.2701 Y-24.2564
G01 X-0.9335 Y-24.4815
G01 X-0.8509 Y-24.5509
G01 X-0.7732 Y-24.6457
G01 X-0.5484 Y-24.9824
G01 X-0.5106 Y-25.0512
G01 X-0.4662 Y-25.1810
G01 X-0.3843 Y-25.5925
G01 X-0.3750 Y-25.7000
G01 X-0.3757 Y-38.6294
G01 X-0.3843 Y-38.7075
G01 X-0.4662 Y-39.1190
G01 X-0.5106 Y-39.2488
G01 X-0.5564 Y-39.3299
G01 X-0.7916 Y-39.6804
G01 X-0.8509 Y-39.7491
G01 X-0.9335 Y-39.8185
G01 X-1.2824 Y-40.0516
G01 X-1.3781 Y-40.1013
G01 X-1.4954 Y-40.1369
G01 X-1.8925 Y-40.2157
G01 X-1.9853 Y-40.2248
G01 X-21.5750 Y-40.2250
G01 X-21.5750 Y-54.4750
G01 X-21.3250 Y-54.4750
G01 X-21.3242 Y-41.5681
G01 X-21.3157 Y-41.4925
G01 X-21.2679 Y-41.2556
G01 X-21.2394 Y-41.1695
G01 X-21.1897 Y-41.0738
G01 X-21.0649 Y-40.8871
G01 X-20.9955 Y-40.8045
G01 X-20.9129 Y-40.7351
G01 X-20.7137 Y-40.6026
G01 X-20.6305 Y-40.5606
G01 X-20.5420 Y-40.5315
G01 X-20.3074 Y-40.4843
G01 X-20.2000 Y-40.4750
G01 X-1.9706 Y-40.4757
G01 X-1.8925 Y-40.4843
G01 X-1.4954 Y-40.5631
G01 X-1.3781 Y-40.5987
G01 X-1.2824 Y-40.6484
G01 X-0.9216 Y-40.8902
G01 X-0.8509 Y-40.9509
G01 X-0.7916 Y-41.0196
G01 X-0.5564 Y-41.3701
G01 X-0.4987 Y-41.4781
G01 X-0.4662 Y-41.5810
G01 X-0.3843 Y-41.9925
G01 X-0.3750 Y-42.1000
G01 X-0.3752 Y-127.5147
G01 X-0.3870 Y-127.6219
G01 X-0.6534 Y-128.9613
G01 X-0.6890 Y-129.0786
G01 X-0.7467 Y-129.1866
G01 X-1.5054 Y-130.3221
G01 X-1.5612 Y-130.3937
G01 X-1.6779 Y-130.4946
G01 X-2.8134 Y-131.2533
G01 X-2.9214 Y-131.3110
G01 X-3.0387 Y-131.3466
G01 X-4.3781 Y-131.6130
G01 X-4.5000 Y-131.6250
G01 X-127.5000 Y-131.6250
G01 X-127.6219 Y-131.6130
G01 X-128.9613 Y-131.3466
G01 X-129.0786 Y-131.3110
G01 X-129.1866 Y-131.2533
G01 X-130.3221 Y-130.4946
G01 X-130.3937 Y-130.4388
G01 X-130.4946 Y-130.3221
G01 X-131.2533 Y-129.1866
G01 X-131.3110 Y-129.0786
G01 X-131.3466 Y-128.9613
G01 X-131.6130 Y-127.6219
G01 X-131.6250 Y-127.5000
G01 X-131.6250 Y-4.5000
G01 X-131.6130 Y-4.3781
G01 X-131.3466 Y-3.0387
G01 X-131.3110 Y-2.9214
G01 X-131.2533 Y-2.8134
G01 X-130.4946 Y-1.6779
G01 X-130.4388 Y-1.6063
G01 X-130.3221 Y-1.5054
G01 X-129.1866 Y-0.7467
G01 X-129.0786 Y-0.6890
G01 X-128.9613 Y-0.6534
G01 X-127.6219 Y-0.3870
G01 X-127.5000 Y-0.3750
G01 X-4.5000 Y-0.3750
G01 X-4.3925 Y-0.3843
G01 X-3.0387 Y-0.6534
G01 X-2.9214 Y-0.6890
G01 X-2.8134 Y-0.7467
G01 X-1.6779 Y-1.5054
G01 X-1.5832 Y-1.5832
G01 X-1.5054 Y-1.6779
G01 X-0.7467 Y-2.8134
G01 X-0.6890 Y-2.9214
G01 X-0.6534 Y-3.0387
G01 X-0.3843 Y-4.3925
G01 X-0.3750 Y-4.5000
G01 X-0.3750 Y-22.2000
G01 X-0.3843 Y-22.3075
G01 X-0.4696 Y-22.7334
G01 X-0.4987 Y-22.8219
G01 X-0.5484 Y-22.9176
G01 X-0.7815 Y-23.2665
G01 X-0.8509 Y-23.3491
G01 X-0.9335 Y-23.4185
G01 X-1.2824 Y-23.6516
G01 X-1.3781 Y-23.7013
G01 X-1.4643 Y-23.7298
G01 X-1.8781 Y-23.8130
G01 X-1.9706 Y-23.8243
G01 X-20.2000 Y-23.8250
G01 X-20.3075 Y-23.8157
G01 X-20.5444 Y-23.7679
G01 X-20.6305 Y-23.7394
G01 X-20.7262 Y-23.6896
G01 X-20.9129 Y-23.5649
G01 X-20.9955 Y-23.4955
G01 X-21.0649 Y-23.4129
G01 X-21.1896 Y-23.2262
G01 X-21.2394 Y-23.1305
G01 X-21.2679 Y-23.0444
G01 X-21.3157 Y-22.8075
G01 X-21.3242 Y-22.7319
G01 X-21.3250 Y-9.7250
G01 X-21.5750 Y-9.7250
G00 X-21.5750 Y-9.7250
G01 F60.00
G01 Z-2.0000
G01 F120.00
G01 X-21.3250 Y-9.7250
G01 X-21.3242 Y-22.7319
G01 X-21.3157 Y-22.8075
G01 X-21.2679 Y-23.0444
G01 X-21.2394 Y-23.1305
G01 X-21.1896 Y-23.2262
G01 X-21.0649 Y-23.4129
G01 X-20.9955 Y-23.4955
G01 X-20.9129 Y-23.5649
G01 X-20.7262 Y-23.6896
G01 X-20.6305 Y-23.7394
G01 X-20.5444 Y-23.7679
G01 X-20.3075 Y-23.8157
G01 X-20.2000 Y-23.8250
G01 X-1.9706 Y-23.8243
G01 X-1.8781 Y-23.8130
G01 X-1.4643 Y-23.7298
G01 X-1.3781 Y-23.7013
G01 X-1.2824 Y-23.6516
G01 X-0.9335 Y-23.4185
G01 X-0.8509 Y-23.3491
G01 X-0.7815 Y-23.2665
G01 X-0.5484 Y-22.9176
G01 X-0.4987 Y-22.8219
G01 X-0.4696 Y-22.7334
G01 X-0.3843 Y-22.3075
G01 X-0.3750 Y-22.2000
G01 X-0.3750 Y-4.5000
G01 X-0.3843 Y-4.3925
G01 X-0.6534 Y-3.0387
G01 X-0.6890 Y-2.9214
G01 X-0.7467 Y-2.8134
G01 X-1.5054 Y-1.6779
G01 X-1.5832 Y-1.5832
G01 X-1.6779 Y-1.5054
G01 X-2.8134 Y-0.7467
G01 X-2.9214 Y-0.6890
G01 X-3.0387 Y-0.6534
G01 X-4.3925 Y-0.3843
G01 X-4.5000 Y-0.3750
G01 X-127.5000 Y-0.3750
G01 X-127.6219 Y-0.3870
G01 X-128.9613 Y-0.6534
G01 X-129.0786 Y-0.6890
G01 X-129.1866 Y-0.7467
G01 X-130.3221 Y-1.5054
G01 X-130.4388 Y-1.6063
G01 X-130.4946 Y-1.6779
G01 X-131.2533 Y-2.8134
G01 X-131.3110 Y-2.9214
G01 X-131.3466 Y-3.0387
G01 X-131.6130 Y-4.3781
G01 X-131.6250 Y-4.5000
G01 X-131.6250 Y-127.5000
G01 X-131.6130 Y-127.6219
G01 X-131.3466 Y-128.9613
G01 X-131.3110 Y-129.0786
G01 X-131.2533 Y-129.1866
G01 X-130.4946 Y-130.3221
G01 X-130.3937 Y-130.4388
G01 X-130.3221 Y-130.4946
G01 X-129.1866 Y-131.2533
G01 X-129.0786 Y-131.3110
G01 X-128.9613 Y-131.3466
G01 X-127.6219 Y-131.6130
G01 X-127.5000 Y-131.6250
G01 X-4.5000 Y-131.6250
G01 X-4.3781 Y-131.6130
G01 X-3.0387 Y-131.3466
G01 X-2.9214 Y-131.3110
G01 X-2.8134 Y-131.2533
G01 X-1.6779 Y-130.4946
G01 X-1.5612 Y-130.3937
G01 X-1.5054 Y-130.3221
G01 X-0.7467 Y-129.1866
G01 X-0.6890 Y-129.0786
G01 X-0.6534 Y-128.9613
G01 X-0.3870 Y-127.6219
G01 X-0.3752 Y-127.5147
G01 X-0.3750 Y-42.1000
G01 X-0.3843 Y-41.9925
G01 X-0.4662 Y-41.5810
G01 X-0.4987 Y-41.4781
G01 X-0.5564 Y-41.3701
G01 X-0.7916 Y-41.0196
G01 X-0.8509 Y-40.9509
G01 X-0.9216 Y-40.8902
G01 X-1.2824 Y-40.6484
G01 X-1.3781 Y-40.5987
G01 X-1.4954 Y-40.5631
G01 X-1.8925 Y-40.4843
G01 X-1.9706 Y-40.4757
G01 X-20.2000 Y-40.4750
G01 X-20.3074 Y-40.4843
G01 X-20.5420 Y-40.5315
G01 X-20.6305 Y-40.5606
G01 X-20.7137 Y-40.6026
G01 X-20.9129 Y-40.7351
G01 X-20.9955 Y-40.8045
G01 X-21.0649 Y-40.8871
G01 X-21.1897 Y-41.0738
G01 X-21.2394 Y-41.1695
G01 X-21.2679 Y-41.2556
G01 X-21.3157 Y-41.4925
G01 X-21.3242 Y-41.5681
G01 X-21.3250 Y-54.4750
G01 X-21.5750 Y-54.4750
G01 X-21.5750 Y-40.2250
G01 X-1.9853 Y-40.2248
G01 X-1.8925 Y-40.2157
G01 X-1.4954 Y-40.1369
G01 X-1.3781 Y-40.1013
G01 X-1.2824 Y-40.0516
G01 X-0.9335 Y-39.8185
G01 X-0.8509 Y-39.7491
G01 X-0.7916 Y-39.6804
G01 X-0.5564 Y-39.3299
G01 X-0.5106 Y-39.2488
G01 X-0.4662 Y-39.1190
G01 X-0.3843 Y-38.7075
G01 X-0.3757 Y-38.6294
G01 X-0.3750 Y-25.7000
G01 X-0.3843 Y-25.5925
G01 X-0.4662 Y-25.1810
G01 X-0.5106 Y-25.0512
G01 X-0.5484 Y-24.9824
G01 X-0.7732 Y-24.6457
G01 X-0.8509 Y-24.5509
G01 X-0.9335 Y-24.4815
G01 X-1.2701 Y-24.2564
G01 X-1.3781 Y-24.1987
G01 X-1.4954 Y-24.1631
G01 X-1.8925 Y-24.0843
G01 X-1.9681 Y-24.0758
G01 X-21.5750 Y-24.0750
G01 X-21.5750 Y-9.7250
G00 X-21.5750 Y-9.7250
G01 F60.00
G01 Z-2.5000
G01 F120.00
G01 X-21.5750 Y-24.0750
G01 X-1.9681 Y-24.0758
G01 X-1.8925 Y-24.0843
G01 X-1.4954 Y-24.1631
G01 X-1.3781 Y-24.1987
G01 X-1.2701 Y-24.2564
G01 X-0.9335 Y-24.4815
G01 X-0.8509 Y-24.5509
G01 X-0.7732 Y-24.6457
G01 X-0.5484 Y-24.9824
G01 X-0.5106 Y-25.0512
G01 X-0.4662 Y-25.1810
G01 X-0.3843 Y-25.5925
G01 X-0.3750 Y-25.7000
G01 X-0.3757 Y-38.6294
G01 X-0.3843 Y-38.7075
G01 X-0.4662 Y-39.1190
G01 X-0.5106 Y-39.2488
G01 X-0.5564 Y-39.3299
G01 X-0.7916 Y-39.6804
G01 X-0.8509 Y-39.7491
G01 X-0.9335 Y-39.8185
G01 X-1.2824 Y-40.0516
G01 X-1.3781 Y-40.1013
G01 X-1.4954 Y-40.1369
G01 X-1.8925 Y-40.2157
G01 X-1.9853 Y-40.2248
G01 X-21.5750 Y-40.2250
G01 X-21.5750 Y-54.4750
G01 X-21.3250 Y-54.4750
G01 X-21.3242 Y-41.5681
G01 X-21.3157 Y-41.4925
G01 X-21.2679 Y-41.2556
G01 X-21.2394 Y-41.1695
G01 X-21.1897 Y-41.0738
G01 X-21.0649 Y-40.8871
G01 X-20.9955 Y-40.8045
G01 X-20.9129 Y-40.7351
G01 X-20.7137 Y-40.6026
G01 X-20.6305 Y-40.5606
G01 X-20.5420 Y-40.5315
G01 X-20.3074 Y-40.4843
G01 X-20.2000 Y-40.4750
G01 X-1.9706 Y-40.4757
G01 X-1.8925 Y-40.4843
G01 X-1.4954 Y-40.5631
G01 X-1.3781 Y-40.5987
G01 X-1.2824 Y-40.6484
G01 X-0.9216 Y-40.8902
G01 X-0.8509 Y-40.9509
G01 X-0.7916 Y-41.0196
G01 X-0.5564 Y-41.3701
G01 X-0.4987 Y-41.4781
G01 X-0.4662 Y-41.5810
G01 X-0.3843 Y-41.9925
G01 X-0.3750 Y-42.1000
G01 X-0.3752 Y-127.5147
G01 X-0.3870 Y-127.6219
G01 X-0.6534 Y-128.9613
G01 X-0.6890 Y-129.0786
G01 X-0.7467 Y-129.1866
G01 X-1.5054 Y-130.3221
G01 X-1.5612 Y-130.3937
G01 X-1.6779 Y-130.4946
G01 X-2.8134 Y-131.2533
G01 X-2.9214 Y-131.3110
G01 X-3.0387 Y-131.3466
G01 X-4.3781 Y-131.6130
G01 X-4.5000 Y-131.6250
G01 X-127.5000 Y-131.6250
G01 X-127.6219 Y-131.6130
G01 X-128.9613 Y-131.3466
G01 X-129.0786 Y-131.3110
G01 X-129.1866 Y-131.2533
G01 X-130.3221 Y-130.4946
G01 X-130.3937 Y-130.4388
G01 X-130.4946 Y-130.3221
G01 X-131.2533 Y-129.1866
G01 X-131.3110 Y-129.0786
G01 X-131.3466 Y-128.9613
G01 X-131.6130 Y-127.6219
G01 X-131.6250 Y-127.5000
G01 X-131.6250 Y-4.5000
G01 X-131.6130 Y-4.3781
G01 X-131.3466 Y-3.0387
G01 X-131.3110 Y-2.9214
G01 X-131.2533 Y-2.8134
G01 X-130.4946 Y-1.6779
G01 X-130.4388 Y-1.6063
G01 X-130.3221 Y-1.5054
G01 X-129.1866 Y-0.7467
G01 X-129.0786 Y-0.6890
G01 X-128.9613 Y-0.6534
G01 X-127.6219 Y-0.3870
G01 X-127.5000 Y-0.3750
G01 X-4.5000 Y-0.3750
G01 X-4.3925 Y-0.3843
G01 X-3.0387 Y-0.6534
G01 X-2.9214 Y-0.6890
G01 X-2.8134 Y-0.7467
G01 X-1.6779 Y-1.5054
G01 X-1.5832 Y-1.5832
G01 X-1.5054 Y-1.6779
G01 X-0.7467 Y-2.8134
G01 X-0.6890 Y-2.9214
G01 X-0.6534 Y-3.0387
G01 X-0.3843 Y-4.3925
G01 X-0.3750 Y-4.5000
G01 X-0.3750 Y-22.2000
G01 X-0.3843 Y-22.3075
G01 X-0.4696 Y-22.7334
G01 X-0.4987 Y-22.8219
G01 X-0.5484 Y-22.9176
G01 X-0.7815 Y-23.2665
G01 X-0.8509 Y-23.3491
G01 X-0.9335 Y-23.4185
G01 X-1.2824 Y-23.6516
G01 X-1.3781 Y-23.7013
G01 X-1.4643 Y-23.7298
G01 X-1.8781 Y-23.8130
G01 X-1.9706 Y-23.8243
G01 X-20.2000 Y-23.8250
G01 X-20.3075 Y-23.8157
G01 X-20.5444 Y-23.7679
G01 X-20.6305 Y-23.7394
G01 X-20.7262 Y-23.6896
G01 X-20.9129 Y-23.5649
G01 X-20.9955 Y-23.4955
G01 X-21.0649 Y-23.4129
G01 X-21.1896 Y-23.2262
G01 X-21.2394 Y-23.1305
G01 X-21.2679 Y-23.0444
G01 X-21.3157 Y-22.8075
G01 X-21.3242 Y-22.7319
G01 X-21.3250 Y-9.7250
G01 X-21.5750 Y-9.7250
G00 Z2.0000
M05
G00 Z2.0000
G00 Z15.00
G00 X0.0 Y0.0


